; G-Code generated by Simplify3D(R) Version 4.1.2
; Apr 8, 2021 at 2:03:09 PM
; Settings Summary
;   processName,High Quality
;   applyToModels,4x1_4_left
;   profileName,High Quality (modified)
;   profileVersion,2021-04-06 09:56:37
;   baseProfile,FlashForge Finder
;   printMaterial,PLA
;   printQuality,Fast
;   printExtruders,
;   extruderName,Primary Extruder
;   extruderToolheadNumber,0
;   extruderDiameter,0.4
;   extruderAutoWidth,0
;   extruderWidth,0.4
;   extrusionMultiplier,0.9
;   extruderUseRetract,1
;   extruderRetractionDistance,1
;   extruderExtraRestartDistance,0
;   extruderRetractionZLift,0
;   extruderRetractionSpeed,1800
;   extruderUseCoasting,0
;   extruderCoastingDistance,0.2
;   extruderUseWipe,0
;   extruderWipeDistance,5
;   primaryExtruder,0
;   layerHeight,0.3
;   topSolidLayers,3
;   bottomSolidLayers,3
;   perimeterOutlines,2
;   printPerimetersInsideOut,1
;   startPointOption,2
;   startPointOriginX,0
;   startPointOriginY,0
;   sequentialIslands,0
;   spiralVaseMode,0
;   firstLayerHeightPercentage,90
;   firstLayerWidthPercentage,125
;   firstLayerUnderspeed,0.3
;   useRaft,1
;   raftExtruder,0
;   raftTopLayers,3
;   raftBaseLayers,2
;   raftOffset,3
;   raftSeparationDistance,0.14
;   raftTopInfill,100
;   aboveRaftSpeedMultiplier,0.3
;   useSkirt,1
;   skirtExtruder,0
;   skirtLayers,1
;   skirtOutlines,2
;   skirtOffset,4
;   usePrimePillar,0
;   primePillarExtruder,999
;   primePillarWidth,12
;   primePillarLocation,7
;   primePillarSpeedMultiplier,1
;   useOozeShield,0
;   oozeShieldExtruder,999
;   oozeShieldOffset,2
;   oozeShieldOutlines,1
;   oozeShieldSidewallShape,1
;   oozeShieldSidewallAngle,30
;   oozeShieldSpeedMultiplier,1
;   infillExtruder,0
;   internalInfillPattern,Full Honeycomb
;   externalInfillPattern,Rectilinear
;   infillPercentage,15
;   outlineOverlapPercentage,15
;   infillExtrusionWidthPercentage,100
;   minInfillLength,5
;   infillLayerInterval,1
;   internalInfillAngles,0,120,-120
;   overlapInternalInfillAngles,0
;   externalInfillAngles,45,-45
;   generateSupport,1
;   supportExtruder,0
;   supportInfillPercentage,30
;   supportExtraInflation,0
;   supportBaseLayers,0
;   denseSupportExtruder,0
;   denseSupportLayers,0
;   denseSupportInfillPercentage,70
;   supportLayerInterval,1
;   supportHorizontalPartOffset,0.3
;   supportUpperSeparationLayers,1
;   supportLowerSeparationLayers,1
;   supportType,0
;   supportGridSpacing,4
;   maxOverhangAngle,45
;   supportAngles,0
;   temperatureName,Primary Extruder
;   temperatureNumber,0
;   temperatureSetpointCount,1
;   temperatureSetpointLayers,1
;   temperatureSetpointTemperatures,200
;   temperatureStabilizeAtStartup,0
;   temperatureHeatedBed,0
;   fanLayers,1,2
;   fanSpeeds,0,100
;   blipFanToFullPower,0
;   adjustSpeedForCooling,1
;   minSpeedLayerTime,15
;   minCoolingSpeedSlowdown,20
;   increaseFanForCooling,0
;   minFanLayerTime,45
;   maxCoolingFanSpeed,100
;   increaseFanForBridging,0
;   bridgingFanSpeed,100
;   use5D,1
;   relativeEdistances,0
;   allowEaxisZeroing,1
;   independentExtruderAxes,1
;   includeM10123,0
;   stickySupport,1
;   applyToolheadOffsets,0
;   gcodeXoffset,0
;   gcodeYoffset,0
;   gcodeZoffset,0
;   overrideMachineDefinition,1
;   machineTypeOverride,0
;   strokeXoverride,140
;   strokeYoverride,140
;   strokeZoverride,140
;   originOffsetXoverride,70
;   originOffsetYoverride,70
;   originOffsetZoverride,0
;   homeXdirOverride,1
;   homeYdirOverride,1
;   homeZdirOverride,-1
;   flipXoverride,1
;   flipYoverride,-1
;   flipZoverride,1
;   toolheadOffsets,0,0|0,0|0,0|0,0|0,0|0,0
;   overrideFirmwareConfiguration,1
;   firmwareTypeOverride,FlashForge Dreamer Firmware
;   GPXconfigOverride,r2
;   baudRateOverride,115200
;   overridePrinterModels,1
;   printerModelsOverride
;   startingGcode,M146 r255 g0 b0 ; Set lights to red while preheating,M907 X100 Y100 Z40 A100 B100 ; Set motor current,M132 X Y Z A B ; Recall home offsets,G28 ; Home axes,G1 Z100 F3300 ; Lower Z,G1 X-70 Y-70 F6000 ; Move to wait position,M7 ; Wait for bed to stabilize,M6 T0 ; Wait for right extruder to reach target temp,G1 X-68 Y-68 F9000 ; Move to front left corner of bed,G1 Z0.3 F6000 ; Move down to purge,G92 E0 ; Zero extruders,G1 X50 Y-68 E20 F2000 ; Extrude a line of filament across the front edge of the bed,G1 X60 Y-68 F180 ; Wait for ooze,G1 X68 Y-68 F5000 ; Fast wipe,G1 Z1 F100 ; Lift,G92 E0 ; Zero extruders again,M146 r255 g255 b255 ; Turn lights on for print,G1 Z0.5 F3300 ; Position nozzle
;   layerChangeGcode,
;   retractionGcode,
;   toolChangeGcode,
;   endingGcode,M104 S0 T0 ; cool down extruder,G1 Z140 F3300 ; send Z axis to bottom of machine,M107 ; disable cooling fan,G28 X0 Y0 ; home XY axes,M146 r0 g0 b0 ; Turn lights off,M18 ; disable stepper
;   exportFileFormat,gcode
;   celebration,0
;   celebrationSong,Random Song
;   postProcessing,{EXTENSION "g"}
;   defaultSpeed,3000
;   outlineUnderspeed,0.5
;   solidInfillUnderspeed,0.8
;   supportUnderspeed,0.8
;   rapidXYspeed,4800
;   rapidZspeed,1000
;   minBridgingArea,50
;   bridgingExtraInflation,0
;   bridgingExtrusionMultiplier,1
;   bridgingSpeedMultiplier,1
;   useFixedBridgingAngle,0
;   fixedBridgingAngle,0
;   applyBridgingToPerimeters,0
;   filamentDiameters,1.75|1.75|1.75|1.75|1.75|1.75
;   filamentPricesPerKg,46|46|46|46|46|46
;   filamentDensities,1.25|1.25|1.25|1.25|1.25|1.25
;   useMinPrintHeight,0
;   minPrintHeight,0
;   useMaxPrintHeight,0
;   maxPrintHeight,0
;   useDiaphragm,0
;   diaphragmLayerInterval,20
;   robustSlicing,1
;   mergeAllIntoSolid,0
;   onlyRetractWhenCrossingOutline,1
;   retractBetweenLayers,1
;   useRetractionMinTravel,0
;   retractionMinTravel,3
;   retractWhileWiping,0
;   onlyWipeOutlines,1
;   avoidCrossingOutline,0
;   maxMovementDetourFactor,3
;   toolChangeRetractionDistance,12
;   toolChangeExtraRestartDistance,-0.5
;   toolChangeRetractionSpeed,600
;   externalThinWallType,0
;   internalThinWallType,2
;   thinWallAllowedOverlapPercentage,10
;   singleExtrusionMinLength,1
;   singleExtrusionMinPrintingWidthPercentage,50
;   singleExtrusionMaxPrintingWidthPercentage,200
;   singleExtrusionEndpointExtension,0.2
;   horizontalSizeCompensation,0
G90
M82
M107
M104 S200 T0
M146 r255 g0 b0 ; Set lights to red while preheating
M907 X100 Y100 Z40 A100 B100 ; Set motor current
M132 X Y Z A B ; Recall home offsets
G28 ; Home axes
G1 Z100 F3300 ; Lower Z
G1 X-70 Y-70 F6000 ; Move to wait position
M7 ; Wait for bed to stabilize
M6 T0 ; Wait for right extruder to reach target temp
G1 X-68 Y-68 F9000 ; Move to front left corner of bed
G1 Z0.3 F6000 ; Move down to purge
G92 E0 ; Zero extruders
G1 X50 Y-68 E20 F2000 ; Extrude a line of filament across the front edge of the bed
G1 X60 Y-68 F180 ; Wait for ooze
G1 X68 Y-68 F5000 ; Fast wipe
G1 Z1 F100 ; Lift
G92 E0 ; Zero extruders again
M146 r255 g255 b255 ; Turn lights on for print
G1 Z0.5 F3300 ; Position nozzle
; process High Quality
; layer 1, Z = 0.450
M108 T0
G92 E0.0000
G1 E-1.0000 F1800
; feature skirt
; tool H0.450 W0.500
G1 Z0.450 F1000
G1 X-42.187 Y-18.630 F4800
G1 E0.0000 F1800
G92 E0.0000
G1 X42.187 Y-18.630 E7.1035 F900
G1 X43.933 Y-17.907 E7.2626
G1 X47.027 Y-14.813 E7.6309
G1 X47.750 Y-13.067 E7.7900
G1 X47.750 Y13.187 E10.0004
G1 X47.027 Y14.933 E10.1595
G1 X43.933 Y18.027 E10.5278
G1 X42.187 Y18.750 E10.6869
G1 X-42.187 Y18.750 E17.7904
G1 X-43.933 Y18.027 E17.9495
G1 X-47.027 Y14.933 E18.3178
G1 X-47.750 Y13.187 E18.4769
G1 X-47.750 Y-13.067 E20.6873
G1 X-47.027 Y-14.813 E20.8464
G1 X-43.933 Y-17.907 E21.2147
G1 X-42.187 Y-18.630 E21.3738
G92 E0.0000
G1 E-1.0000 F1800
G1 X-42.088 Y-18.130 F4800
G1 E0.0000 F1800
G92 E0.0000
G1 X42.088 Y-18.130 E7.0868 F900
G1 X43.650 Y-17.483 E7.2291
G1 X46.603 Y-14.530 E7.5807
G1 X47.250 Y-12.968 E7.7230
G1 X47.250 Y13.088 E9.9167
G1 X46.603 Y14.650 E10.0590
G1 X43.650 Y17.603 E10.4106
G1 X42.088 Y18.250 E10.5529
G1 X-42.088 Y18.250 E17.6397
G1 X-43.650 Y17.603 E17.7820
G1 X-46.603 Y14.650 E18.1336
G1 X-47.250 Y13.088 E18.2760
G1 X-47.250 Y-12.968 E20.4696
G1 X-46.603 Y-14.530 E20.6120
G1 X-43.650 Y-17.483 E20.9635
G1 X-42.088 Y-18.130 E21.1059
G92 E0.0000
G1 E-1.0000 F1800
; feature raft
; tool H0.450 W0.800
G1 X-41.077 Y-13.480 F4800
G1 E0.0000 F1800
G92 E0.0000
G1 X41.077 Y-13.480 E11.0664 F225
G1 X42.600 Y-11.957 E11.3566
G1 X42.600 Y12.077 E14.5940
G1 X41.077 Y13.600 E14.8842
G1 X-41.077 Y13.600 E25.9506
G1 X-42.600 Y12.077 E26.2407
G1 X-42.600 Y-11.957 E29.4782
G1 X-41.077 Y-13.480 E29.7683
G92 E0.0000
G1 E-1.0000 F1800
G1 X-41.920 Y-11.429 F4800
G1 E0.0000 F1800
G92 E0.0000
G1 X41.920 Y-11.429 E11.2935 F225
G1 X41.920 Y-9.143 E11.6014
G1 X-41.920 Y-9.143 E22.8950
G1 X-41.920 Y-6.857 E23.2029
G1 X41.920 Y-6.857 E34.4964
G1 X41.920 Y-4.571 E34.8043
G1 X-41.920 Y-4.571 E46.0979
G1 X-41.920 Y-2.286 E46.4058
G1 X41.920 Y-2.286 E57.6993
G1 X41.920 Y0.000 E58.0072
G1 X-41.920 Y0.000 E69.3007
G1 X-41.920 Y2.286 E69.6086
G1 X41.920 Y2.286 E80.9022
G1 X41.920 Y4.571 E81.2101
G1 X-41.920 Y4.571 E92.5036
G1 X-41.920 Y6.857 E92.8115
G1 X41.920 Y6.857 E104.1051
G1 X41.920 Y9.143 E104.4130
G1 X-41.920 Y9.143 E115.7065
G1 X-41.920 Y11.429 E116.0144
G1 X41.920 Y11.429 E127.3079
G92 E0.0000
G1 E-1.0000 F1800
; layer 2, Z = 0.950
M106 S255
; tool H0.500 W0.800
G1 Z0.950 F1000
G1 X42.600 Y12.077 F4800
G1 E0.0000 F1800
G92 E0.0000
G1 X41.077 Y13.600 E0.3224 F750
G1 X-41.077 Y13.600 E12.6184
G1 X-42.600 Y12.077 E12.9408
G1 X-42.600 Y-11.957 E16.5379
G1 X-41.077 Y-13.480 E16.8603
G1 X41.077 Y-13.480 E29.1564
G1 X42.600 Y-11.957 E29.4787
G1 X42.600 Y12.077 E33.0759
G92 E0.0000
G1 E-1.0000 F1800
G1 X41.920 Y11.429 F4800
G1 E0.0000 F1800
G92 E0.0000
G1 X-41.920 Y11.429 E12.5484 F750
G1 X-41.920 Y9.143 E12.8905
G1 X41.920 Y9.143 E25.4389
G1 X41.920 Y6.857 E25.7810
G1 X-41.920 Y6.857 E38.3294
G1 X-41.920 Y4.571 E38.6715
G1 X41.920 Y4.571 E51.2198
G1 X41.920 Y2.286 E51.5620
G1 X-41.920 Y2.286 E64.1103
G1 X-41.920 Y0.000 E64.4524
G1 X41.920 Y0.000 E77.0008
G1 X41.920 Y-2.286 E77.3429
G1 X-41.920 Y-2.286 E89.8913
G1 X-41.920 Y-4.571 E90.2334
G1 X41.920 Y-4.571 E102.7818
G1 X41.920 Y-6.857 E103.1239
G1 X-41.920 Y-6.857 E115.6723
G1 X-41.920 Y-9.143 E116.0144
G1 X41.920 Y-9.143 E128.5628
G1 X41.920 Y-11.429 E128.9049
G1 X-41.920 Y-11.429 E141.4533
G92 E0.0000
G1 E-1.0000 F1800
; layer 3, Z = 1.172
; tool H0.222 W0.400
G1 Z1.172 F1000
G1 X-42.800 Y-11.506 F4800
G1 E0.0000 F1800
G92 E0.0000
G1 X-40.626 Y-13.680 E0.1023 F2250
G1 X-40.060 Y-13.680 E0.1211
G1 X-42.800 Y-10.940 E0.2500
G1 X-42.800 Y-10.374 E0.2688
G1 X-39.494 Y-13.680 E0.4243
G1 X-38.929 Y-13.680 E0.4431
G1 X-42.800 Y-9.809 E0.6252
G1 X-42.800 Y-9.243 E0.6440
G1 X-38.363 Y-13.680 E0.8527
G1 X-37.797 Y-13.680 E0.8715
G1 X-42.800 Y-8.677 E1.1068
G1 X-42.800 Y-8.112 E1.1256
G1 X-37.232 Y-13.680 E1.3875
G1 X-36.666 Y-13.680 E1.4064
G1 X-42.800 Y-7.546 E1.6949
G1 X-42.800 Y-6.980 E1.7137
G1 X-36.100 Y-13.680 E2.0288
G1 X-35.535 Y-13.680 E2.0476
G1 X-42.800 Y-6.415 E2.3894
G1 X-42.800 Y-5.849 E2.4082
G1 X-34.969 Y-13.680 E2.7766
G1 X-34.403 Y-13.680 E2.7954
G1 X-42.800 Y-5.283 E3.1903
G1 X-42.800 Y-4.718 E3.2091
G1 X-33.838 Y-13.680 E3.6307
G1 X-33.272 Y-13.680 E3.6495
G1 X-42.800 Y-4.152 E4.0977
G1 X-42.800 Y-3.586 E4.1165
G1 X-32.706 Y-13.680 E4.5913
G1 X-32.140 Y-13.680 E4.6101
G1 X-42.800 Y-3.020 E5.1115
G1 X-42.800 Y-2.455 E5.1303
G1 X-31.575 Y-13.680 E5.6583
G1 X-31.009 Y-13.680 E5.6771
G1 X-42.800 Y-1.889 E6.2317
G1 X-42.800 Y-1.323 E6.2505
G1 X-30.443 Y-13.680 E6.8318
G1 X-29.878 Y-13.680 E6.8506
G1 X-42.800 Y-0.758 E7.4584
G1 X-42.800 Y-0.192 E7.4772
G1 X-29.312 Y-13.680 E8.1116
G1 X-28.746 Y-13.680 E8.1305
G1 X-42.800 Y0.374 E8.7915
G1 X-42.800 Y0.939 E8.8103
G1 X-28.181 Y-13.680 E9.4980
G1 X-27.615 Y-13.680 E9.5168
G1 X-42.800 Y1.505 E10.2310
G1 X-42.800 Y2.071 E10.2498
G1 X-27.049 Y-13.680 E10.9907
G1 X-26.484 Y-13.680 E11.0095
G1 X-42.800 Y2.636 E11.7770
G1 X-42.800 Y3.202 E11.7958
G1 X-25.918 Y-13.680 E12.5899
G1 X-25.352 Y-13.680 E12.6087
G1 X-42.800 Y3.768 E13.4294
G1 X-42.800 Y4.333 E13.4482
G1 X-24.787 Y-13.680 E14.2955
G1 X-24.221 Y-13.680 E14.3143
G1 X-42.800 Y4.899 E15.1882
G1 X-42.800 Y5.465 E15.2070
G1 X-23.655 Y-13.680 E16.1075
G1 X-23.090 Y-13.680 E16.1264
G1 X-42.800 Y6.030 E17.0535
G1 X-42.800 Y6.596 E17.0723
G1 X-22.524 Y-13.680 E18.0260
G1 X-21.958 Y-13.680 E18.0448
G1 X-42.800 Y7.162 E19.0252
G1 X-42.800 Y7.728 E19.0440
G1 X-21.392 Y-13.680 E20.0509
G1 X-20.827 Y-13.680 E20.0698
G1 X-42.800 Y8.293 E21.1033
G1 X-42.800 Y8.859 E21.1221
G1 X-20.261 Y-13.680 E22.1823
G1 X-19.695 Y-13.680 E22.2011
G1 X-42.800 Y9.425 E23.2879
G1 X-42.800 Y9.990 E23.3067
G1 X-19.130 Y-13.680 E24.4201
G1 X-18.564 Y-13.680 E24.4389
G1 X-42.800 Y10.556 E25.5789
G1 X-42.800 Y11.122 E25.5977
G1 X-17.998 Y-13.680 E26.7643
G1 X-17.433 Y-13.680 E26.7831
G1 X-42.800 Y11.687 E27.9763
G1 X-42.800 Y12.160 E27.9920
G1 X-42.753 Y12.206 E27.9942
G1 X-16.867 Y-13.680 E29.2118
G1 X-16.301 Y-13.680 E29.2306
G1 X-42.471 Y12.489 E30.4615
G1 X-42.188 Y12.772 E30.4748
G1 X-15.736 Y-13.680 E31.7191
G1 X-15.170 Y-13.680 E31.7379
G1 X-41.905 Y13.055 E32.9954
G1 X-41.622 Y13.338 E33.0087
G1 X-14.604 Y-13.680 E34.2795
G1 X-14.039 Y-13.680 E34.2984
G1 X-41.339 Y13.621 E35.5825
G1 X-41.160 Y13.800 E35.5909
G1 X-40.953 Y13.800 E35.5978
G1 X-13.473 Y-13.680 E36.8904
G1 X-12.907 Y-13.680 E36.9092
G1 X-40.387 Y13.800 E38.2018
G1 X-39.821 Y13.800 E38.2206
G1 X-12.342 Y-13.680 E39.5132
G1 X-11.776 Y-13.680 E39.5320
G1 X-39.256 Y13.800 E40.8246
G1 X-38.690 Y13.800 E40.8434
G1 X-11.210 Y-13.680 E42.1360
G1 X-10.644 Y-13.680 E42.1548
G1 X-38.124 Y13.800 E43.4473
G1 X-37.559 Y13.800 E43.4662
G1 X-10.079 Y-13.680 E44.7587
G1 X-9.513 Y-13.680 E44.7775
G1 X-36.993 Y13.800 E46.0701
G1 X-36.427 Y13.800 E46.0889
G1 X-8.947 Y-13.680 E47.3815
G1 X-8.382 Y-13.680 E47.4003
G1 X-35.862 Y13.800 E48.6929
G1 X-35.296 Y13.800 E48.7117
G1 X-7.816 Y-13.680 E50.0043
G1 X-7.250 Y-13.680 E50.0231
G1 X-34.730 Y13.800 E51.3157
G1 X-34.165 Y13.800 E51.3345
G1 X-6.685 Y-13.680 E52.6271
G1 X-6.119 Y-13.680 E52.6459
G1 X-33.599 Y13.800 E53.9385
G1 X-33.033 Y13.800 E53.9573
G1 X-5.553 Y-13.680 E55.2498
G1 X-4.988 Y-13.680 E55.2687
G1 X-32.468 Y13.800 E56.5612
G1 X-31.902 Y13.800 E56.5801
G1 X-4.422 Y-13.680 E57.8726
G1 X-3.856 Y-13.680 E57.8914
G1 X-31.336 Y13.800 E59.1840
G1 X-30.771 Y13.800 E59.2028
G1 X-3.291 Y-13.680 E60.4954
G1 X-2.725 Y-13.680 E60.5142
G1 X-30.205 Y13.800 E61.8068
G1 X-29.639 Y13.800 E61.8256
G1 X-2.159 Y-13.680 E63.1182
G1 X-1.593 Y-13.680 E63.1370
G1 X-29.073 Y13.800 E64.4296
G1 X-28.508 Y13.800 E64.4484
G1 X-1.028 Y-13.680 E65.7410
G1 X-0.462 Y-13.680 E65.7598
G1 X-27.942 Y13.800 E67.0524
G1 X-27.376 Y13.800 E67.0712
G1 X0.104 Y-13.680 E68.3637
G1 X0.669 Y-13.680 E68.3826
G1 X-26.811 Y13.800 E69.6751
G1 X-26.245 Y13.800 E69.6939
G1 X1.235 Y-13.680 E70.9865
G1 X1.801 Y-13.680 E71.0053
G1 X-25.679 Y13.800 E72.2979
G1 X-25.114 Y13.800 E72.3167
G1 X2.366 Y-13.680 E73.6093
G1 X2.932 Y-13.680 E73.6281
G1 X-24.548 Y13.800 E74.9207
G1 X-23.982 Y13.800 E74.9395
G1 X3.498 Y-13.680 E76.2321
G1 X4.063 Y-13.680 E76.2509
G1 X-23.417 Y13.800 E77.5435
G1 X-22.851 Y13.800 E77.5623
G1 X4.629 Y-13.680 E78.8549
G1 X5.195 Y-13.680 E78.8737
G1 X-22.285 Y13.800 E80.1662
G1 X-21.720 Y13.800 E80.1851
G1 X5.760 Y-13.680 E81.4776
G1 X6.326 Y-13.680 E81.4965
G1 X-21.154 Y13.800 E82.7890
G1 X-20.588 Y13.800 E82.8078
G1 X6.892 Y-13.680 E84.1004
G1 X7.457 Y-13.680 E84.1192
G1 X-20.023 Y13.800 E85.4118
G1 X-19.457 Y13.800 E85.4306
G1 X8.023 Y-13.680 E86.7232
G1 X8.589 Y-13.680 E86.7420
G1 X-18.891 Y13.800 E88.0346
G1 X-18.325 Y13.800 E88.0534
G1 X9.155 Y-13.680 E89.3460
G1 X9.720 Y-13.680 E89.3648
G1 X-17.760 Y13.800 E90.6574
G1 X-17.194 Y13.800 E90.6762
G1 X10.286 Y-13.680 E91.9688
G1 X10.852 Y-13.680 E91.9876
G1 X-16.628 Y13.800 E93.2801
G1 X-16.063 Y13.800 E93.2990
G1 X11.417 Y-13.680 E94.5915
G1 X11.983 Y-13.680 E94.6103
G1 X-15.497 Y13.800 E95.9029
G1 X-14.931 Y13.800 E95.9217
G1 X12.549 Y-13.680 E97.2143
G1 X13.114 Y-13.680 E97.2331
G1 X-14.366 Y13.800 E98.5257
G1 X-13.800 Y13.800 E98.5445
