; G-Code generated by Simplify3D(R) Version 4.1.2
; Apr 7, 2021 at 6:03:39 PM
; Settings Summary
;   processName,High Quality
;   applyToModels,header_test
;   profileName,High Quality (modified)
;   profileVersion,2021-04-06 09:56:37
;   baseProfile,FlashForge Finder
;   printMaterial,PLA
;   printQuality,High
;   printExtruders,
;   extruderName,Primary Extruder
;   extruderToolheadNumber,0
;   extruderDiameter,0.4
;   extruderAutoWidth,0
;   extruderWidth,0.4
;   extrusionMultiplier,0.9
;   extruderUseRetract,1
;   extruderRetractionDistance,1
;   extruderExtraRestartDistance,0
;   extruderRetractionZLift,0
;   extruderRetractionSpeed,1800
;   extruderUseCoasting,0
;   extruderCoastingDistance,0.2
;   extruderUseWipe,0
;   extruderWipeDistance,5
;   primaryExtruder,0
;   layerHeight,0.1
;   topSolidLayers,4
;   bottomSolidLayers,4
;   perimeterOutlines,2
;   printPerimetersInsideOut,1
;   startPointOption,2
;   startPointOriginX,0
;   startPointOriginY,0
;   sequentialIslands,0
;   spiralVaseMode,0
;   firstLayerHeightPercentage,90
;   firstLayerWidthPercentage,125
;   firstLayerUnderspeed,0.3
;   useRaft,1
;   raftExtruder,0
;   raftTopLayers,3
;   raftBaseLayers,2
;   raftOffset,3
;   raftSeparationDistance,0.14
;   raftTopInfill,100
;   aboveRaftSpeedMultiplier,0.3
;   useSkirt,1
;   skirtExtruder,0
;   skirtLayers,2
;   skirtOutlines,2
;   skirtOffset,4
;   usePrimePillar,0
;   primePillarExtruder,999
;   primePillarWidth,12
;   primePillarLocation,7
;   primePillarSpeedMultiplier,1
;   useOozeShield,0
;   oozeShieldExtruder,999
;   oozeShieldOffset,2
;   oozeShieldOutlines,1
;   oozeShieldSidewallShape,1
;   oozeShieldSidewallAngle,30
;   oozeShieldSpeedMultiplier,1
;   infillExtruder,0
;   internalInfillPattern,Full Honeycomb
;   externalInfillPattern,Concentric
;   infillPercentage,100
;   outlineOverlapPercentage,15
;   infillExtrusionWidthPercentage,100
;   minInfillLength,5
;   infillLayerInterval,1
;   internalInfillAngles,0,120,-120
;   overlapInternalInfillAngles,0
;   externalInfillAngles,45,-45
;   generateSupport,1
;   supportExtruder,0
;   supportInfillPercentage,20
;   supportExtraInflation,0
;   supportBaseLayers,0
;   denseSupportExtruder,0
;   denseSupportLayers,0
;   denseSupportInfillPercentage,70
;   supportLayerInterval,1
;   supportHorizontalPartOffset,0.3
;   supportUpperSeparationLayers,1
;   supportLowerSeparationLayers,1
;   supportType,0
;   supportGridSpacing,4
;   maxOverhangAngle,45
;   supportAngles,0
;   temperatureName,Primary Extruder
;   temperatureNumber,0
;   temperatureSetpointCount,1
;   temperatureSetpointLayers,1
;   temperatureSetpointTemperatures,200
;   temperatureStabilizeAtStartup,0
;   temperatureHeatedBed,0
;   fanLayers,1,2
;   fanSpeeds,0,100
;   blipFanToFullPower,0
;   adjustSpeedForCooling,1
;   minSpeedLayerTime,15
;   minCoolingSpeedSlowdown,20
;   increaseFanForCooling,0
;   minFanLayerTime,45
;   maxCoolingFanSpeed,100
;   increaseFanForBridging,0
;   bridgingFanSpeed,100
;   use5D,1
;   relativeEdistances,0
;   allowEaxisZeroing,1
;   independentExtruderAxes,1
;   includeM10123,0
;   stickySupport,1
;   applyToolheadOffsets,0
;   gcodeXoffset,0
;   gcodeYoffset,0
;   gcodeZoffset,0
;   overrideMachineDefinition,1
;   machineTypeOverride,0
;   strokeXoverride,140
;   strokeYoverride,140
;   strokeZoverride,140
;   originOffsetXoverride,70
;   originOffsetYoverride,70
;   originOffsetZoverride,0
;   homeXdirOverride,1
;   homeYdirOverride,1
;   homeZdirOverride,-1
;   flipXoverride,1
;   flipYoverride,-1
;   flipZoverride,1
;   toolheadOffsets,0,0|0,0|0,0|0,0|0,0|0,0
;   overrideFirmwareConfiguration,1
;   firmwareTypeOverride,FlashForge Dreamer Firmware
;   GPXconfigOverride,r2
;   baudRateOverride,115200
;   overridePrinterModels,1
;   printerModelsOverride
;   startingGcode,M146 r255 g0 b0 ; Set lights to red while preheating,M907 X100 Y100 Z40 A100 B100 ; Set motor current,M132 X Y Z A B ; Recall home offsets,G28 ; Home axes,G1 Z100 F3300 ; Lower Z,G1 X-70 Y-70 F6000 ; Move to wait position,M7 ; Wait for bed to stabilize,M6 T0 ; Wait for right extruder to reach target temp,G1 X-68 Y-68 F9000 ; Move to front left corner of bed,G1 Z0.3 F6000 ; Move down to purge,G92 E0 ; Zero extruders,G1 X50 Y-68 E20 F2000 ; Extrude a line of filament across the front edge of the bed,G1 X60 Y-68 F180 ; Wait for ooze,G1 X68 Y-68 F5000 ; Fast wipe,G1 Z1 F100 ; Lift,G92 E0 ; Zero extruders again,M146 r255 g255 b255 ; Turn lights on for print,G1 Z0.5 F3300 ; Position nozzle
;   layerChangeGcode,
;   retractionGcode,
;   toolChangeGcode,
;   endingGcode,M104 S0 T0 ; cool down extruder,G1 Z140 F3300 ; send Z axis to bottom of machine,M107 ; disable cooling fan,G28 X0 Y0 ; home XY axes,M146 r0 g0 b0 ; Turn lights off,M18 ; disable stepper
;   exportFileFormat,gcode
;   celebration,0
;   celebrationSong,Random Song
;   postProcessing,{EXTENSION "g"}
;   defaultSpeed,3000
;   outlineUnderspeed,0.5
;   solidInfillUnderspeed,0.8
;   supportUnderspeed,0.8
;   rapidXYspeed,4800
;   rapidZspeed,1000
;   minBridgingArea,50
;   bridgingExtraInflation,0
;   bridgingExtrusionMultiplier,1
;   bridgingSpeedMultiplier,1
;   useFixedBridgingAngle,0
;   fixedBridgingAngle,0
;   applyBridgingToPerimeters,0
;   filamentDiameters,1.75|1.75|1.75|1.75|1.75|1.75
;   filamentPricesPerKg,46|46|46|46|46|46
;   filamentDensities,1.25|1.25|1.25|1.25|1.25|1.25
;   useMinPrintHeight,0
;   minPrintHeight,0
;   useMaxPrintHeight,0
;   maxPrintHeight,0
;   useDiaphragm,0
;   diaphragmLayerInterval,20
;   robustSlicing,1
;   mergeAllIntoSolid,0
;   onlyRetractWhenCrossingOutline,1
;   retractBetweenLayers,1
;   useRetractionMinTravel,0
;   retractionMinTravel,3
;   retractWhileWiping,0
;   onlyWipeOutlines,1
;   avoidCrossingOutline,0
;   maxMovementDetourFactor,3
;   toolChangeRetractionDistance,12
;   toolChangeExtraRestartDistance,-0.5
;   toolChangeRetractionSpeed,600
;   externalThinWallType,0
;   internalThinWallType,2
;   thinWallAllowedOverlapPercentage,10
;   singleExtrusionMinLength,1
;   singleExtrusionMinPrintingWidthPercentage,50
;   singleExtrusionMaxPrintingWidthPercentage,200
;   singleExtrusionEndpointExtension,0.2
;   horizontalSizeCompensation,0
G90
M82
M107
M104 S200 T0
M146 r255 g0 b0 ; Set lights to red while preheating
M907 X100 Y100 Z40 A100 B100 ; Set motor current
M132 X Y Z A B ; Recall home offsets
G28 ; Home axes
G1 Z100 F3300 ; Lower Z
G1 X-70 Y-70 F6000 ; Move to wait position
M7 ; Wait for bed to stabilize
M6 T0 ; Wait for right extruder to reach target temp
G1 X-68 Y-68 F9000 ; Move to front left corner of bed
G1 Z0.3 F6000 ; Move down to purge
G92 E0 ; Zero extruders
G1 X50 Y-68 E20 F2000 ; Extrude a line of filament across the front edge of the bed
G1 X60 Y-68 F180 ; Wait for ooze
G1 X68 Y-68 F5000 ; Fast wipe
G1 Z1 F100 ; Lift
G92 E0 ; Zero extruders again
M146 r255 g255 b255 ; Turn lights on for print
G1 Z0.5 F3300 ; Position nozzle
; process High Quality
; layer 1, Z = 0.450
M108 T0
G92 E0.0000
G1 E-1.0000 F1800
; feature skirt
; tool H0.450 W0.500
G1 Z0.450 F1000
G1 X27.187 Y12.750 F4800
G1 E0.0000 F1800
G92 E0.0000
G1 X-27.187 Y12.750 E4.5778 F900
G1 X-28.933 Y12.027 E4.7369
G1 X-32.027 Y8.933 E5.1052
G1 X-32.750 Y7.187 E5.2643
G1 X-32.750 Y-7.187 E6.4745
G1 X-32.027 Y-8.933 E6.6336
G1 X-28.933 Y-12.027 E7.0020
G1 X-27.187 Y-12.750 E7.1610
G1 X27.187 Y-12.750 E11.7389
G1 X28.933 Y-12.027 E11.8980
G1 X32.027 Y-8.933 E12.2663
G1 X32.750 Y-7.187 E12.4254
G1 X32.750 Y7.187 E13.6356
G1 X32.027 Y8.933 E13.7947
G1 X28.933 Y12.027 E14.1630
G1 X27.187 Y12.750 E14.3221
G92 E0.0000
G1 E-1.0000 F1800
G1 X27.088 Y12.250 F4800
G1 E0.0000 F1800
G92 E0.0000
G1 X-27.088 Y12.250 E4.5611 F900
G1 X-28.650 Y11.603 E4.7034
G1 X-31.603 Y8.650 E5.0550
G1 X-32.250 Y7.088 E5.1973
G1 X-32.250 Y-7.088 E6.3908
G1 X-31.603 Y-8.650 E6.5332
G1 X-28.650 Y-11.603 E6.8847
G1 X-27.088 Y-12.250 E7.0271
G1 X27.088 Y-12.250 E11.5881
G1 X28.650 Y-11.603 E11.7305
G1 X31.603 Y-8.650 E12.0821
G1 X32.250 Y-7.088 E12.2244
G1 X32.250 Y7.088 E13.4179
G1 X31.603 Y8.650 E13.5602
G1 X28.650 Y11.603 E13.9118
G1 X27.088 Y12.250 E14.0542
G92 E0.0000
G1 E-1.0000 F1800
; feature raft
; tool H0.450 W0.800
G1 X26.077 Y7.600 F4800
G1 E0.0000 F1800
G92 E0.0000
G1 X-26.077 Y7.600 E7.0253 F225
G1 X-27.600 Y6.077 E7.3155
G1 X-27.600 Y-6.077 E8.9526
G1 X-26.077 Y-7.600 E9.2428
G1 X26.077 Y-7.600 E16.2681
G1 X27.600 Y-6.077 E16.5582
G1 X27.600 Y6.077 E18.1954
G1 X26.077 Y7.600 E18.4855
G92 E0.0000
G1 E-1.0000 F1800
G1 X25.858 Y6.857 F4800
G1 E0.0000 F1800
G92 E0.0000
G1 X-25.858 Y6.857 E6.9664 F225
G1 X-26.920 Y5.795 E7.1687
G1 X-26.920 Y4.571 E7.3335
G1 X26.920 Y4.571 E14.5859
G1 X26.920 Y2.286 E14.8938
G1 X-26.920 Y2.286 E22.1463
G1 X-26.920 Y0.000 E22.4542
G1 X26.920 Y0.000 E29.7066
G1 X26.920 Y-2.286 E30.0145
G1 X-26.920 Y-2.286 E37.2669
G1 X-26.920 Y-4.571 E37.5748
G1 X26.920 Y-4.571 E44.8273
G1 X26.920 Y-5.795 E44.9921
G1 X25.858 Y-6.857 E45.1944
G1 X-25.858 Y-6.857 E52.1608
G92 E0.0000
G1 E-1.0000 F1800
; layer 2, Z = 0.950
M106 S255
; feature skirt
; tool H0.500 W0.400
G1 Z0.950 F1000
G1 X-28.848 Y-11.900 F4800
G1 E0.0000 F1800
G92 E0.0000
G1 X-27.158 Y-12.600 E0.1369 F3000
G1 X27.158 Y-12.600 E4.2016
G1 X28.848 Y-11.900 E4.3386
G1 X31.900 Y-8.848 E4.6615
G1 X32.600 Y-7.158 E4.7985
G1 X32.600 Y7.158 E5.8698
G1 X31.900 Y8.848 E6.0067
G1 X28.848 Y11.900 E6.3297
G1 X27.158 Y12.600 E6.4666
G1 X-27.158 Y12.600 E10.5313
G1 X-28.848 Y11.900 E10.6682
G1 X-31.900 Y8.848 E10.9912
G1 X-32.600 Y7.158 E11.1281
G1 X-32.600 Y-7.158 E12.1994
G1 X-31.900 Y-8.848 E12.3364
G1 X-28.848 Y-11.900 E12.6593
G92 E0.0000
G1 E-1.0000 F1800
G1 X-28.622 Y-11.561 F4800
G1 E0.0000 F1800
G92 E0.0000
G1 X-27.078 Y-12.200 E0.1250 F3000
G1 X27.078 Y-12.200 E4.1778
G1 X28.622 Y-11.561 E4.3029
G1 X31.561 Y-8.622 E4.6139
G1 X32.200 Y-7.078 E4.7389
G1 X32.200 Y7.078 E5.7983
G1 X31.561 Y8.622 E5.9234
G1 X28.622 Y11.561 E6.2344
G1 X27.078 Y12.200 E6.3594
G1 X-27.078 Y12.200 E10.4122
G1 X-28.622 Y11.561 E10.5373
G1 X-31.561 Y8.622 E10.8483
G1 X-32.200 Y7.078 E10.9733
G1 X-32.200 Y-7.078 E12.0327
G1 X-31.561 Y-8.622 E12.1577
G1 X-28.622 Y-11.561 E12.4688
G92 E0.0000
G1 E-1.0000 F1800
; feature raft
; tool H0.500 W0.800
G1 X-26.077 Y-7.600 F4800
G1 E0.0000 F1800
G92 E0.0000
G1 X26.077 Y-7.600 E7.8059 F750
G1 X27.600 Y-6.077 E8.1283
G1 X27.600 Y6.077 E9.9474
G1 X26.077 Y7.600 E10.2697
G1 X-26.077 Y7.600 E18.0757
G1 X-27.600 Y6.077 E18.3980
G1 X-27.600 Y-6.077 E20.2171
G1 X-26.077 Y-7.600 E20.5395
G92 E0.0000
G1 E-1.0000 F1800
G1 X-25.858 Y-6.857 F4800
G1 E0.0000 F1800
G92 E0.0000
G1 X25.858 Y-6.857 E7.7404 F750
G1 X26.920 Y-5.795 E7.9652
G1 X26.920 Y-4.571 E8.1483
G1 X-26.920 Y-4.571 E16.2066
G1 X-26.920 Y-2.286 E16.5487
G1 X26.920 Y-2.286 E24.6070
G1 X26.920 Y0.000 E24.9491
G1 X-26.920 Y0.000 E33.0074
G1 X-26.920 Y2.286 E33.3495
G1 X26.920 Y2.286 E41.4077
G1 X26.920 Y4.571 E41.7498
G1 X-26.920 Y4.571 E49.8081
G1 X-26.920 Y5.795 E49.9913
G1 X-25.858 Y6.857 E50.2160
G1 X25.858 Y6.857 E57.9564
G92 E0.0000
G1 E-1.0000 F1800
; layer 3, Z = 1.172
; tool H0.222 W0.400
G1 Z1.172 F1000
G1 X27.800 Y6.141 F4800
G1 E0.0000 F1800
G92 E0.0000
G1 X26.141 Y7.800 E0.0780 F2250
G1 X25.575 Y7.800 E0.0968
G1 X27.800 Y5.575 E0.2015
G1 X27.800 Y5.010 E0.2203
G1 X25.010 Y7.800 E0.3515
G1 X24.444 Y7.800 E0.3703
G1 X27.800 Y4.444 E0.5282
G1 X27.800 Y3.878 E0.5470
G1 X23.878 Y7.800 E0.7315
G1 X23.313 Y7.800 E0.7503
G1 X27.800 Y3.313 E0.9614
G1 X27.800 Y2.747 E0.9802
G1 X22.747 Y7.800 E1.2178
G1 X22.181 Y7.800 E1.2367
G1 X27.800 Y2.181 E1.5009
G1 X27.800 Y1.616 E1.5198
G1 X21.616 Y7.800 E1.8107
G1 X21.050 Y7.800 E1.8295
G1 X27.800 Y1.050 E2.1470
G1 X27.800 Y0.484 E2.1658
G1 X20.484 Y7.800 E2.5099
G1 X19.919 Y7.800 E2.5287
G1 X27.800 Y-0.081 E2.8994
G1 X27.800 Y-0.647 E2.9182
G1 X19.353 Y7.800 E3.3156
G1 X18.787 Y7.800 E3.3344
G1 X27.800 Y-1.213 E3.7583
G1 X27.800 Y-1.778 E3.7771
G1 X18.222 Y7.800 E4.2277
G1 X17.656 Y7.800 E4.2465
G1 X27.800 Y-2.344 E4.7236
G1 X27.800 Y-2.910 E4.7424
G1 X17.090 Y7.800 E5.2462
G1 X16.525 Y7.800 E5.2650
G1 X27.800 Y-3.475 E5.7954
G1 X27.800 Y-4.041 E5.8142
G1 X15.959 Y7.800 E6.3712
G1 X15.393 Y7.800 E6.3900
G1 X27.800 Y-4.607 E6.9736
G1 X27.800 Y-5.173 E6.9924
G1 X14.827 Y7.800 E7.6026
G1 X14.262 Y7.800 E7.6214
G1 X27.800 Y-5.738 E8.2582
G1 X27.800 Y-6.160 E8.2722
G1 X27.728 Y-6.232 E8.2756
G1 X13.696 Y7.800 E8.9356
G1 X13.130 Y7.800 E8.9544
G1 X27.445 Y-6.515 E9.6277
G1 X27.162 Y-6.798 E9.6410
G1 X12.565 Y7.800 E10.3277
G1 X11.999 Y7.800 E10.3465
G1 X26.879 Y-7.080 E11.0464
G1 X26.597 Y-7.363 E11.0597
G1 X11.433 Y7.800 E11.7729
G1 X10.868 Y7.800 E11.7918
G1 X26.314 Y-7.646 E12.5183
G1 X26.160 Y-7.800 E12.5255
G1 X25.902 Y-7.800 E12.5341
G1 X10.302 Y7.800 E13.2679
G1 X9.736 Y7.800 E13.2867
G1 X25.336 Y-7.800 E14.0205
G1 X24.771 Y-7.800 E14.0393
G1 X9.171 Y7.800 E14.7731
G1 X8.605 Y7.800 E14.7919
G1 X24.205 Y-7.800 E15.5257
G1 X23.639 Y-7.800 E15.5445
G1 X8.039 Y7.800 E16.2782
G1 X7.474 Y7.800 E16.2971
G1 X23.074 Y-7.800 E17.0308
G1 X22.508 Y-7.800 E17.0497
G1 X6.908 Y7.800 E17.7834
G1 X6.342 Y7.800 E17.8022
G1 X21.942 Y-7.800 E18.5360
G1 X21.376 Y-7.800 E18.5548
G1 X5.776 Y7.800 E19.2886
G1 X5.211 Y7.800 E19.3074
G1 X20.811 Y-7.800 E20.0412
G1 X20.245 Y-7.800 E20.0600
G1 X4.645 Y7.800 E20.7938
G1 X4.079 Y7.800 E20.8126
G1 X19.679 Y-7.800 E21.5464
G1 X19.114 Y-7.800 E21.5652
G1 X3.514 Y7.800 E22.2990
G1 X2.948 Y7.800 E22.3178
G1 X18.548 Y-7.800 E23.0516
G1 X17.982 Y-7.800 E23.0704
G1 X2.382 Y7.800 E23.8042
G1 X1.817 Y7.800 E23.8230
G1 X17.417 Y-7.800 E24.5567
G1 X16.851 Y-7.800 E24.5756
G1 X1.251 Y7.800 E25.3093
G1 X0.685 Y7.800 E25.3282
G1 X16.285 Y-7.800 E26.0619
G1 X15.720 Y-7.800 E26.0807
G1 X0.120 Y7.800 E26.8145
G1 X-0.446 Y7.800 E26.8333
G1 X15.154 Y-7.800 E27.5671
G1 X14.588 Y-7.800 E27.5859
G1 X-1.012 Y7.800 E28.3197
G1 X-1.577 Y7.800 E28.3385
G1 X14.023 Y-7.800 E29.0723
G1 X13.457 Y-7.800 E29.0911
G1 X-2.143 Y7.800 E29.8249
G1 X-2.709 Y7.800 E29.8437
G1 X12.891 Y-7.800 E30.5775
G1 X12.326 Y-7.800 E30.5963
G1 X-3.274 Y7.800 E31.3301
G1 X-3.840 Y7.800 E31.3489
G1 X11.760 Y-7.800 E32.0827
G1 X11.194 Y-7.800 E32.1015
G1 X-4.406 Y7.800 E32.8352
G1 X-4.972 Y7.800 E32.8541
G1 X10.628 Y-7.800 E33.5878
G1 X10.063 Y-7.800 E33.6067
G1 X-5.537 Y7.800 E34.3404
G1 X-6.103 Y7.800 E34.3592
G1 X9.497 Y-7.800 E35.0930
G1 X8.931 Y-7.800 E35.1118
G1 X-6.669 Y7.800 E35.8456
G1 X-7.234 Y7.800 E35.8644
G1 X8.366 Y-7.800 E36.5982
G1 X7.800 Y-7.800 E36.6170
G1 X-7.800 Y7.800 E37.3508
G1 X-8.366 Y7.800 E37.3696
G1 X7.234 Y-7.800 E38.1034
G1 X6.669 Y-7.800 E38.1222
G1 X-8.931 Y7.800 E38.8560
G1 X-9.497 Y7.800 E38.8748
G1 X6.103 Y-7.800 E39.6086
G1 X5.537 Y-7.800 E39.6274
G1 X-10.063 Y7.800 E40.3612
G1 X-10.628 Y7.800 E40.3800
G1 X4.972 Y-7.800 E41.1137
G1 X4.406 Y-7.800 E41.1326
G1 X-11.194 Y7.800 E41.8663
G1 X-11.760 Y7.800 E41.8852
G1 X3.840 Y-7.800 E42.6189
G1 X3.275 Y-7.800 E42.6377
G1 X-12.325 Y7.800 E43.3715
G1 X-12.891 Y7.800 E43.3903
G1 X2.709 Y-7.800 E44.1241
G1 X2.143 Y-7.800 E44.1429
G1 X-13.457 Y7.800 E44.8767
G1 X-14.023 Y7.800 E44.8955
G1 X1.577 Y-7.800 E45.6293
G1 X1.012 Y-7.800 E45.6481
G1 X-14.588 Y7.800 E46.3819
G1 X-15.154 Y7.800 E46.4007
G1 X0.446 Y-7.800 E47.1345
G1 X-0.120 Y-7.800 E47.1533
G1 X-15.720 Y7.800 E47.8871
G1 X-16.285 Y7.800 E47.9059
G1 X-0.685 Y-7.800 E48.6397
G1 X-1.251 Y-7.800 E48.6585
G1 X-16.851 Y7.800 E49.3922
G1 X-17.417 Y7.800 E49.4111
G1 X-1.817 Y-7.800 E50.1448
G1 X-2.382 Y-7.800 E50.1637
G1 X-17.982 Y7.800 E50.8974
G1 X-18.548 Y7.800 E50.9162
G1 X-2.948 Y-7.800 E51.6500
G1 X-3.514 Y-7.800 E51.6688
G1 X-19.114 Y7.800 E52.4026
G1 X-19.679 Y7.800 E52.4214
G1 X-4.079 Y-7.800 E53.1552
G1 X-4.645 Y-7.800 E53.1740
G1 X-20.245 Y7.800 E53.9078
G1 X-20.811 Y7.800 E53.9266
G1 X-5.211 Y-7.800 E54.6604
G1 X-5.776 Y-7.800 E54.6792
G1 X-21.376 Y7.800 E55.4130
G1 X-21.942 Y7.800 E55.4318
G1 X-6.342 Y-7.800 E56.1656
G1 X-6.908 Y-7.800 E56.1844
G1 X-22.508 Y7.800 E56.9182
G1 X-23.073 Y7.800 E56.9370
G1 X-7.473 Y-7.800 E57.6707
G1 X-8.039 Y-7.800 E57.6896
G1 X-23.639 Y7.800 E58.4233
G1 X-24.205 Y7.800 E58.4422
