; G-Code generated by Simplify3D(R) Version 4.1.2
; Apr 8, 2021 at 3:49:01 PM
; Settings Summary
;   processName,High Quality
;   applyToModels,v3_2
;   profileName,High Quality (modified)
;   profileVersion,2021-04-06 09:56:37
;   baseProfile,FlashForge Finder
;   printMaterial,PLA
;   printQuality,Fast
;   printExtruders,
;   extruderName,Primary Extruder
;   extruderToolheadNumber,0
;   extruderDiameter,0.4
;   extruderAutoWidth,0
;   extruderWidth,0.4
;   extrusionMultiplier,0.9
;   extruderUseRetract,1
;   extruderRetractionDistance,1
;   extruderExtraRestartDistance,0
;   extruderRetractionZLift,0
;   extruderRetractionSpeed,1800
;   extruderUseCoasting,0
;   extruderCoastingDistance,0.2
;   extruderUseWipe,0
;   extruderWipeDistance,5
;   primaryExtruder,0
;   layerHeight,0.3
;   topSolidLayers,3
;   bottomSolidLayers,3
;   perimeterOutlines,2
;   printPerimetersInsideOut,1
;   startPointOption,2
;   startPointOriginX,0
;   startPointOriginY,0
;   sequentialIslands,0
;   spiralVaseMode,0
;   firstLayerHeightPercentage,90
;   firstLayerWidthPercentage,125
;   firstLayerUnderspeed,0.3
;   useRaft,1
;   raftExtruder,0
;   raftTopLayers,3
;   raftBaseLayers,2
;   raftOffset,3
;   raftSeparationDistance,0.14
;   raftTopInfill,100
;   aboveRaftSpeedMultiplier,0.3
;   useSkirt,1
;   skirtExtruder,0
;   skirtLayers,1
;   skirtOutlines,2
;   skirtOffset,4
;   usePrimePillar,0
;   primePillarExtruder,999
;   primePillarWidth,12
;   primePillarLocation,7
;   primePillarSpeedMultiplier,1
;   useOozeShield,0
;   oozeShieldExtruder,999
;   oozeShieldOffset,2
;   oozeShieldOutlines,1
;   oozeShieldSidewallShape,1
;   oozeShieldSidewallAngle,30
;   oozeShieldSpeedMultiplier,1
;   infillExtruder,0
;   internalInfillPattern,Full Honeycomb
;   externalInfillPattern,Rectilinear
;   infillPercentage,5
;   outlineOverlapPercentage,15
;   infillExtrusionWidthPercentage,100
;   minInfillLength,5
;   infillLayerInterval,1
;   internalInfillAngles,0,120,-120
;   overlapInternalInfillAngles,0
;   externalInfillAngles,45,-45
;   generateSupport,1
;   supportExtruder,0
;   supportInfillPercentage,30
;   supportExtraInflation,0
;   supportBaseLayers,0
;   denseSupportExtruder,0
;   denseSupportLayers,0
;   denseSupportInfillPercentage,70
;   supportLayerInterval,1
;   supportHorizontalPartOffset,0.3
;   supportUpperSeparationLayers,1
;   supportLowerSeparationLayers,1
;   supportType,0
;   supportGridSpacing,4
;   maxOverhangAngle,45
;   supportAngles,0
;   temperatureName,Primary Extruder
;   temperatureNumber,0
;   temperatureSetpointCount,1
;   temperatureSetpointLayers,1
;   temperatureSetpointTemperatures,200
;   temperatureStabilizeAtStartup,0
;   temperatureHeatedBed,0
;   fanLayers,1,2
;   fanSpeeds,0,100
;   blipFanToFullPower,0
;   adjustSpeedForCooling,1
;   minSpeedLayerTime,15
;   minCoolingSpeedSlowdown,20
;   increaseFanForCooling,0
;   minFanLayerTime,45
;   maxCoolingFanSpeed,100
;   increaseFanForBridging,0
;   bridgingFanSpeed,100
;   use5D,1
;   relativeEdistances,0
;   allowEaxisZeroing,1
;   independentExtruderAxes,1
;   includeM10123,0
;   stickySupport,1
;   applyToolheadOffsets,0
;   gcodeXoffset,0
;   gcodeYoffset,0
;   gcodeZoffset,0
;   overrideMachineDefinition,1
;   machineTypeOverride,0
;   strokeXoverride,140
;   strokeYoverride,140
;   strokeZoverride,140
;   originOffsetXoverride,70
;   originOffsetYoverride,70
;   originOffsetZoverride,0
;   homeXdirOverride,1
;   homeYdirOverride,1
;   homeZdirOverride,-1
;   flipXoverride,1
;   flipYoverride,-1
;   flipZoverride,1
;   toolheadOffsets,0,0|0,0|0,0|0,0|0,0|0,0
;   overrideFirmwareConfiguration,1
;   firmwareTypeOverride,FlashForge Dreamer Firmware
;   GPXconfigOverride,r2
;   baudRateOverride,115200
;   overridePrinterModels,1
;   printerModelsOverride
;   startingGcode,M146 r255 g0 b0 ; Set lights to red while preheating,M907 X100 Y100 Z40 A100 B100 ; Set motor current,M132 X Y Z A B ; Recall home offsets,G28 ; Home axes,G1 Z100 F3300 ; Lower Z,G1 X-70 Y-70 F6000 ; Move to wait position,M7 ; Wait for bed to stabilize,M6 T0 ; Wait for right extruder to reach target temp,G1 X-68 Y-68 F9000 ; Move to front left corner of bed,G1 Z0.3 F6000 ; Move down to purge,G92 E0 ; Zero extruders,G1 X50 Y-68 E20 F2000 ; Extrude a line of filament across the front edge of the bed,G1 X60 Y-68 F180 ; Wait for ooze,G1 X68 Y-68 F5000 ; Fast wipe,G1 Z1 F100 ; Lift,G92 E0 ; Zero extruders again,M146 r255 g255 b255 ; Turn lights on for print,G1 Z0.5 F3300 ; Position nozzle
;   layerChangeGcode,
;   retractionGcode,
;   toolChangeGcode,
;   endingGcode,M104 S0 T0 ; cool down extruder,G1 Z140 F3300 ; send Z axis to bottom of machine,M107 ; disable cooling fan,G28 X0 Y0 ; home XY axes,M146 r0 g0 b0 ; Turn lights off,M18 ; disable stepper
;   exportFileFormat,gcode
;   celebration,0
;   celebrationSong,Random Song
;   postProcessing,{EXTENSION "g"}
;   defaultSpeed,3000
;   outlineUnderspeed,0.5
;   solidInfillUnderspeed,0.8
;   supportUnderspeed,0.8
;   rapidXYspeed,4800
;   rapidZspeed,1000
;   minBridgingArea,50
;   bridgingExtraInflation,0
;   bridgingExtrusionMultiplier,1
;   bridgingSpeedMultiplier,1
;   useFixedBridgingAngle,0
;   fixedBridgingAngle,0
;   applyBridgingToPerimeters,0
;   filamentDiameters,1.75|1.75|1.75|1.75|1.75|1.75
;   filamentPricesPerKg,46|46|46|46|46|46
;   filamentDensities,1.25|1.25|1.25|1.25|1.25|1.25
;   useMinPrintHeight,0
;   minPrintHeight,0
;   useMaxPrintHeight,0
;   maxPrintHeight,0
;   useDiaphragm,0
;   diaphragmLayerInterval,20
;   robustSlicing,1
;   mergeAllIntoSolid,0
;   onlyRetractWhenCrossingOutline,1
;   retractBetweenLayers,1
;   useRetractionMinTravel,0
;   retractionMinTravel,3
;   retractWhileWiping,0
;   onlyWipeOutlines,1
;   avoidCrossingOutline,0
;   maxMovementDetourFactor,3
;   toolChangeRetractionDistance,12
;   toolChangeExtraRestartDistance,-0.5
;   toolChangeRetractionSpeed,600
;   externalThinWallType,0
;   internalThinWallType,2
;   thinWallAllowedOverlapPercentage,10
;   singleExtrusionMinLength,1
;   singleExtrusionMinPrintingWidthPercentage,50
;   singleExtrusionMaxPrintingWidthPercentage,200
;   singleExtrusionEndpointExtension,0.2
;   horizontalSizeCompensation,0
G90
M82
M107
M104 S200 T0
M146 r255 g0 b0 ; Set lights to red while preheating
M907 X100 Y100 Z40 A100 B100 ; Set motor current
M132 X Y Z A B ; Recall home offsets
G28 ; Home axes
G1 Z100 F3300 ; Lower Z
G1 X-70 Y-70 F6000 ; Move to wait position
M7 ; Wait for bed to stabilize
M6 T0 ; Wait for right extruder to reach target temp
G1 X-68 Y-68 F9000 ; Move to front left corner of bed
G1 Z0.3 F6000 ; Move down to purge
G92 E0 ; Zero extruders
G1 X50 Y-68 E20 F2000 ; Extrude a line of filament across the front edge of the bed
G1 X60 Y-68 F180 ; Wait for ooze
G1 X68 Y-68 F5000 ; Fast wipe
G1 Z1 F100 ; Lift
G92 E0 ; Zero extruders again
M146 r255 g255 b255 ; Turn lights on for print
G1 Z0.5 F3300 ; Position nozzle
; process High Quality
; layer 1, Z = 0.450
M108 T0
G92 E0.0000
G1 E-1.0000 F1800
; feature skirt
; tool H0.450 W0.500
G1 Z0.450 F1000
G1 X2.491 Y41.684 F4800
G1 E0.0000 F1800
G92 E0.0000
G1 X0.076 Y43.103 E0.2358 F900
G1 X-6.594 Y42.820 E0.7978
G1 X-8.880 Y41.202 E1.0336
G1 X-39.448 Y-34.971 E7.9437
G1 X-39.166 Y-37.373 E8.1474
G1 X-35.881 Y-42.016 E8.6262
G1 X-33.709 Y-43.082 E8.8298
G1 X34.366 Y-40.195 E14.5662
G1 X36.440 Y-38.949 E14.7699
G1 X39.319 Y-34.046 E15.2487
G1 X39.398 Y-31.628 E15.4523
G1 X2.491 Y41.684 E22.3624
G92 E0.0000
G1 E-1.0000 F1800
G1 X2.111 Y41.328 F4800
G1 E0.0000 F1800
G92 E0.0000
G1 X-0.050 Y42.597 E0.2110 F900
G1 X-6.425 Y42.327 E0.7482
G1 X-8.471 Y40.879 E0.9591
G1 X-38.937 Y-35.039 E7.8461
G1 X-38.684 Y-37.189 E8.0283
G1 X-35.546 Y-41.623 E8.4857
G1 X-33.603 Y-42.577 E8.6679
G1 X34.218 Y-39.701 E14.3829
G1 X36.073 Y-38.586 E14.5651
G1 X38.824 Y-33.902 E15.0224
G1 X38.894 Y-31.739 E15.2047
G1 X2.111 Y41.328 E22.0916
G92 E0.0000
G1 E-1.0000 F1800
; feature raft
; tool H0.450 W0.800
G1 X-1.363 Y37.887 F4800
G1 E0.0000 F1800
G92 E0.0000
G1 X-4.718 Y37.745 E0.4523 F225
G1 X-34.137 Y-35.564 E11.0928
G1 X-32.501 Y-37.876 E11.4743
G1 X32.722 Y-35.110 E20.2679
G1 X34.156 Y-32.668 E20.6494
G1 X-1.363 Y37.887 E31.2899
G92 E0.0000
G1 E-1.0000 F1800
G1 X-1.462 Y36.571 F4800
G1 E0.0000 F1800
G92 E0.0000
G1 X-4.456 Y36.571 E0.4033 F225
G1 X-5.374 Y34.286 E0.7351
G1 X-0.311 Y34.286 E1.4170
G1 X0.839 Y32.000 E1.7617
G1 X-6.291 Y32.000 E2.7221
G1 X-7.208 Y29.714 E3.0539
G1 X1.990 Y29.714 E4.2929
G1 X3.141 Y27.429 E4.6376
G1 X-8.125 Y27.429 E6.1552
G1 X-9.043 Y25.143 E6.4869
G1 X4.291 Y25.143 E8.2831
G1 X5.442 Y22.857 E8.6278
G1 X-9.960 Y22.857 E10.7024
G1 X-10.877 Y20.571 E11.0342
G1 X6.593 Y20.571 E13.3874
G1 X7.743 Y18.286 E13.7322
G1 X-11.794 Y18.286 E16.3639
G1 X-12.712 Y16.000 E16.6957
G1 X8.894 Y16.000 E19.6061
G1 X10.045 Y13.714 E19.9508
G1 X-13.629 Y13.714 E23.1397
G1 X-14.546 Y11.429 E23.4714
G1 X11.195 Y11.429 E26.9389
G1 X12.346 Y9.143 E27.2836
G1 X-15.463 Y9.143 E31.0296
G1 X-16.381 Y6.857 E31.3614
G1 X13.497 Y6.857 E35.3860
G1 X14.647 Y4.571 E35.7307
G1 X-17.298 Y4.571 E40.0338
G1 X-18.215 Y2.286 E40.3656
G1 X15.798 Y2.286 E44.9473
G1 X16.949 Y0.000 E45.2920
G1 X-19.132 Y0.000 E50.1522
G1 X-20.050 Y-2.286 E50.4840
G1 X18.099 Y-2.286 E55.6228
G1 X19.250 Y-4.571 E55.9675
G1 X-20.967 Y-4.571 E61.3849
G1 X-21.884 Y-6.857 E61.7166
G1 X20.401 Y-6.857 E67.4126
G1 X21.551 Y-9.143 E67.7573
G1 X-22.802 Y-9.143 E73.7318
G1 X-23.719 Y-11.429 E74.0635
G1 X22.702 Y-11.429 E80.3166
G1 X23.853 Y-13.714 E80.6613
G1 X-24.636 Y-13.714 E87.1929
G1 X-25.553 Y-16.000 E87.5246
G1 X25.003 Y-16.000 E94.3348
G1 X26.154 Y-18.286 E94.6795
G1 X-26.471 Y-18.286 E101.7682
G1 X-27.388 Y-20.571 E102.1000
G1 X27.305 Y-20.571 E109.4672
G1 X28.455 Y-22.857 E109.8119
G1 X-28.305 Y-22.857 E117.4578
G1 X-29.222 Y-25.143 E117.7895
G1 X29.606 Y-25.143 E125.7139
G1 X30.757 Y-27.429 E126.0586
G1 X-30.140 Y-27.429 E134.2616
G1 X-31.057 Y-29.714 E134.5933
G1 X31.907 Y-29.714 E143.0748
G1 X33.058 Y-32.000 E143.4195
G1 X-31.974 Y-32.000 E152.1796
G1 X-32.891 Y-34.286 E152.5113
G1 X32.417 Y-34.286 E161.3087
G1 X32.323 Y-34.447 E161.3338
G1 X-17.786 Y-36.571 E168.0897
G1 X-32.591 Y-36.571 E170.0841
G92 E0.0000
G1 E-1.0000 F1800
; layer 2, Z = 0.950
M106 S255
; tool H0.500 W0.800
G1 Z0.950 F1000
G1 X-32.501 Y-37.876 F4800
G1 E0.0000 F1800
G92 E0.0000
G1 X32.722 Y-35.110 E9.7707 F750
G1 X34.156 Y-32.668 E10.1946
G1 X-1.363 Y37.887 E22.0173
G1 X-4.718 Y37.745 E22.5199
G1 X-34.137 Y-35.564 E34.3427
G1 X-32.501 Y-37.876 E34.7665
G92 E0.0000
G1 E-1.0000 F1800
G1 X-32.591 Y-36.571 F4800
G1 E0.0000 F1800
G92 E0.0000
G1 X-17.786 Y-36.571 E2.2159 F750
G1 X32.323 Y-34.447 E9.7225
G1 X32.417 Y-34.286 E9.7505
G1 X-32.891 Y-34.286 E19.5253
G1 X-31.974 Y-32.000 E19.8939
G1 X33.058 Y-32.000 E29.6273
G1 X31.907 Y-29.714 E30.0103
G1 X-31.057 Y-29.714 E39.4342
G1 X-30.140 Y-27.429 E39.8028
G1 X30.757 Y-27.429 E48.9172
G1 X29.606 Y-25.143 E49.3002
G1 X-29.222 Y-25.143 E58.1051
G1 X-28.305 Y-22.857 E58.4737
G1 X28.455 Y-22.857 E66.9690
G1 X27.305 Y-20.571 E67.3521
G1 X-27.388 Y-20.571 E75.5379
G1 X-26.471 Y-18.286 E75.9065
G1 X26.154 Y-18.286 E83.7829
G1 X25.003 Y-16.000 E84.1659
G1 X-25.553 Y-16.000 E91.7327
G1 X-24.636 Y-13.714 E92.1014
G1 X23.853 Y-13.714 E99.3587
G1 X22.702 Y-11.429 E99.7417
G1 X-23.719 Y-11.429 E106.6895
G1 X-22.802 Y-9.143 E107.0581
G1 X21.551 Y-9.143 E113.6964
G1 X20.401 Y-6.857 E114.0795
G1 X-21.884 Y-6.857 E120.4083
G1 X-20.967 Y-4.571 E120.7769
G1 X19.250 Y-4.571 E126.7962
G1 X18.099 Y-2.286 E127.1792
G1 X-20.050 Y-2.286 E132.8890
G1 X-19.132 Y0.000 E133.2576
G1 X16.949 Y0.000 E138.6579
G1 X15.798 Y2.286 E139.0409
G1 X-18.215 Y2.286 E144.1317
G1 X-17.298 Y4.571 E144.5003
G1 X14.647 Y4.571 E149.2816
G1 X13.497 Y6.857 E149.6646
G1 X-16.381 Y6.857 E154.1363
G1 X-15.463 Y9.143 E154.5049
G1 X12.346 Y9.143 E158.6672
G1 X11.195 Y11.429 E159.0502
G1 X-14.546 Y11.429 E162.9029
G1 X-13.629 Y13.714 E163.2716
G1 X10.045 Y13.714 E166.8148
G1 X8.894 Y16.000 E167.1978
G1 X-12.712 Y16.000 E170.4315
G1 X-11.794 Y18.286 E170.8001
G1 X7.743 Y18.286 E173.7244
G1 X6.593 Y20.571 E174.1074
G1 X-10.877 Y20.571 E176.7221
G1 X-9.960 Y22.857 E177.0907
G1 X5.442 Y22.857 E179.3959
G1 X4.291 Y25.143 E179.7789
G1 X-9.043 Y25.143 E181.7746
G1 X-8.125 Y27.429 E182.1432
G1 X3.141 Y27.429 E183.8294
G1 X1.990 Y29.714 E184.2124
G1 X-7.208 Y29.714 E185.5891
G1 X-6.291 Y32.000 E185.9577
G1 X0.839 Y32.000 E187.0249
G1 X-0.311 Y34.286 E187.4079
G1 X-5.374 Y34.286 E188.1655
G1 X-4.456 Y36.571 E188.5342
G1 X-1.462 Y36.571 E188.9823
G92 E0.0000
G1 E-1.0000 F1800
; layer 3, Z = 1.172
; tool H0.222 W0.400
G1 Z1.172 F1000
G1 X-1.320 Y38.089 F4800
G1 E0.0000 F1800
G92 E0.0000
G1 X-1.161 Y37.931 E0.0074 F2250
G1 X-0.588 Y36.792 E0.0499
G1 X-1.862 Y38.066 E0.1098
G1 X-2.405 Y38.043 E0.1279
G1 X-0.014 Y35.652 E0.2403
G1 X0.559 Y34.513 E0.2828
G1 X-2.948 Y38.020 E0.4477
G1 X-3.490 Y37.997 E0.4658
G1 X1.133 Y33.374 E0.6832
G1 X1.706 Y32.235 E0.7256
G1 X-4.033 Y37.974 E0.9956
G1 X-4.576 Y37.951 E1.0137
G1 X2.280 Y31.096 E1.3361
G1 X2.853 Y29.957 E1.3785
G1 X-4.934 Y37.744 E1.7448
G1 X-5.096 Y37.340 E1.7593
G1 X3.427 Y28.818 E2.1602
G1 X4.000 Y27.678 E2.2026
G1 X-5.258 Y36.936 E2.6380
G1 X-5.420 Y36.533 E2.6525
G1 X4.574 Y26.539 E3.1226
G1 X5.147 Y25.400 E3.1650
G1 X-5.582 Y36.129 E3.6697
G1 X-5.744 Y35.725 E3.6841
G1 X5.720 Y24.261 E4.2234
G1 X6.294 Y23.122 E4.2658
G1 X-5.906 Y35.322 E4.8397
G1 X-6.068 Y34.918 E4.8541
G1 X6.867 Y21.983 E5.4626
G1 X7.441 Y20.843 E5.5050
G1 X-6.230 Y34.514 E6.1480
G1 X-6.392 Y34.111 E6.1625
G1 X8.014 Y19.704 E6.8401
G1 X8.588 Y18.565 E6.8825
G1 X-6.554 Y33.707 E7.5948
G1 X-6.716 Y33.303 E7.6092
G1 X9.161 Y17.426 E8.3561
G1 X9.735 Y16.287 E8.3985
G1 X-6.878 Y32.900 E9.1799
G1 X-7.040 Y32.496 E9.1944
G1 X10.308 Y15.148 E10.0104
G1 X10.882 Y14.008 E10.0528
G1 X-7.202 Y32.092 E10.9034
G1 X-7.364 Y31.689 E10.9179
G1 X11.455 Y12.869 E11.8031
G1 X12.029 Y11.730 E11.8455
G1 X-7.526 Y31.285 E12.7653
G1 X-7.688 Y30.881 E12.7797
G1 X12.602 Y10.591 E13.7341
G1 X13.176 Y9.452 E13.7766
G1 X-7.850 Y30.477 E14.7655
G1 X-8.012 Y30.074 E14.7800
G1 X13.749 Y8.313 E15.8036
G1 X14.323 Y7.174 E15.8460
G1 X-8.174 Y29.670 E16.9042
G1 X-8.336 Y29.266 E16.9186
G1 X14.896 Y6.034 E18.0114
G1 X15.470 Y4.895 E18.0538
G1 X-8.498 Y28.863 E19.1812
G1 X-8.660 Y28.459 E19.1957
G1 X16.043 Y3.756 E20.3576
G1 X16.616 Y2.617 E20.4000
G1 X-8.822 Y28.055 E21.5966
G1 X-8.984 Y27.652 E21.6110
G1 X17.190 Y1.478 E22.8422
G1 X17.763 Y0.339 E22.8846
G1 X-9.146 Y27.248 E24.1503
G1 X-9.308 Y26.844 E24.1648
G1 X18.337 Y-0.801 E25.4651
G1 X18.910 Y-1.940 E25.5076
G1 X-9.470 Y26.441 E26.8425
G1 X-9.632 Y26.037 E26.8570
G1 X19.484 Y-3.079 E28.2265
G1 X20.057 Y-4.218 E28.2689
G1 X-9.794 Y25.633 E29.6730
G1 X-9.956 Y25.230 E29.6875
G1 X20.631 Y-5.357 E31.1262
G1 X21.204 Y-6.496 E31.1686
G1 X-10.118 Y24.826 E32.6419
G1 X-10.280 Y24.422 E32.6564
G1 X21.778 Y-7.636 E34.1643
G1 X22.351 Y-8.775 E34.2067
G1 X-10.442 Y24.019 E35.7492
G1 X-10.604 Y23.615 E35.7637
G1 X22.925 Y-9.914 E37.3408
G1 X23.498 Y-11.053 E37.3832
G1 X-10.766 Y23.211 E38.9949
G1 X-10.928 Y22.807 E39.0093
G1 X24.072 Y-12.192 E40.6556
G1 X24.645 Y-13.331 E40.6980
G1 X-11.090 Y22.404 E42.3789
G1 X-11.252 Y22.000 E42.3934
G1 X25.219 Y-14.471 E44.1088
G1 X25.792 Y-15.610 E44.1512
G1 X-11.414 Y21.596 E45.9013
G1 X-11.576 Y21.193 E45.9158
G1 X26.366 Y-16.749 E47.7004
G1 X26.939 Y-17.888 E47.7428
G1 X-11.738 Y20.789 E49.5621
G1 X-11.900 Y20.385 E49.5766
G1 X27.512 Y-19.027 E51.4304
G1 X28.086 Y-20.166 E51.4728
G1 X-12.062 Y19.982 E53.3613
G1 X-12.224 Y19.578 E53.3757
G1 X28.659 Y-21.305 E55.2988
G1 X29.233 Y-22.445 E55.3412
G1 X-12.386 Y19.174 E57.2988
G1 X-12.548 Y18.771 E57.3133
G1 X29.806 Y-23.584 E59.3055
G1 X30.380 Y-24.723 E59.3479
G1 X-12.710 Y18.367 E61.3747
G1 X-12.872 Y17.963 E61.3892
G1 X30.953 Y-25.862 E63.4506
G1 X31.527 Y-27.001 E63.4930
G1 X-13.034 Y17.560 E65.5890
G1 X-13.196 Y17.156 E65.6035
G1 X32.100 Y-28.140 E67.7341
G1 X32.674 Y-29.280 E67.7765
G1 X-13.358 Y16.752 E69.9417
G1 X-13.520 Y16.348 E69.9562
G1 X33.247 Y-30.419 E72.1560
