; G-Code generated by Simplify3D(R) Version 4.1.2
; Apr 5, 2021 at 9:46:43 AM
; Settings Summary
;   processName,Process1
;   applyToModels,1x1_0
;   profileName,FlashForge Finder (modified)
;   profileVersion,2018-11-09 08:00:00
;   baseProfile,
;   printMaterial,PLA
;   printQuality,Fast
;   printExtruders,
;   extruderName,Primary Extruder
;   extruderToolheadNumber,0
;   extruderDiameter,0.4
;   extruderAutoWidth,0
;   extruderWidth,0.4
;   extrusionMultiplier,0.9
;   extruderUseRetract,1
;   extruderRetractionDistance,1
;   extruderExtraRestartDistance,0
;   extruderRetractionZLift,0
;   extruderRetractionSpeed,1800
;   extruderUseCoasting,0
;   extruderCoastingDistance,0.2
;   extruderUseWipe,0
;   extruderWipeDistance,5
;   primaryExtruder,0
;   layerHeight,0.3
;   topSolidLayers,3
;   bottomSolidLayers,3
;   perimeterOutlines,2
;   printPerimetersInsideOut,1
;   startPointOption,2
;   startPointOriginX,0
;   startPointOriginY,0
;   sequentialIslands,0
;   spiralVaseMode,0
;   firstLayerHeightPercentage,90
;   firstLayerWidthPercentage,125
;   firstLayerUnderspeed,0.3
;   useRaft,1
;   raftExtruder,0
;   raftTopLayers,3
;   raftBaseLayers,2
;   raftOffset,3
;   raftSeparationDistance,0.14
;   raftTopInfill,100
;   aboveRaftSpeedMultiplier,0.3
;   useSkirt,1
;   skirtExtruder,0
;   skirtLayers,1
;   skirtOutlines,2
;   skirtOffset,4
;   usePrimePillar,0
;   primePillarExtruder,999
;   primePillarWidth,12
;   primePillarLocation,7
;   primePillarSpeedMultiplier,1
;   useOozeShield,0
;   oozeShieldExtruder,999
;   oozeShieldOffset,2
;   oozeShieldOutlines,1
;   oozeShieldSidewallShape,1
;   oozeShieldSidewallAngle,30
;   oozeShieldSpeedMultiplier,1
;   infillExtruder,0
;   internalInfillPattern,Rectilinear
;   externalInfillPattern,Rectilinear
;   infillPercentage,15
;   outlineOverlapPercentage,15
;   infillExtrusionWidthPercentage,100
;   minInfillLength,5
;   infillLayerInterval,1
;   internalInfillAngles,45,-45
;   overlapInternalInfillAngles,0
;   externalInfillAngles,45,-45
;   generateSupport,1
;   supportExtruder,0
;   supportInfillPercentage,25
;   supportExtraInflation,0
;   supportBaseLayers,0
;   denseSupportExtruder,0
;   denseSupportLayers,0
;   denseSupportInfillPercentage,70
;   supportLayerInterval,1
;   supportHorizontalPartOffset,0.3
;   supportUpperSeparationLayers,1
;   supportLowerSeparationLayers,1
;   supportType,0
;   supportGridSpacing,4
;   maxOverhangAngle,45
;   supportAngles,0
;   temperatureName,Primary Extruder
;   temperatureNumber,0
;   temperatureSetpointCount,1
;   temperatureSetpointLayers,1
;   temperatureSetpointTemperatures,200
;   temperatureStabilizeAtStartup,0
;   temperatureHeatedBed,0
;   fanLayers,1,2
;   fanSpeeds,0,100
;   blipFanToFullPower,0
;   adjustSpeedForCooling,1
;   minSpeedLayerTime,15
;   minCoolingSpeedSlowdown,20
;   increaseFanForCooling,0
;   minFanLayerTime,45
;   maxCoolingFanSpeed,100
;   increaseFanForBridging,0
;   bridgingFanSpeed,100
;   use5D,1
;   relativeEdistances,0
;   allowEaxisZeroing,1
;   independentExtruderAxes,1
;   includeM10123,0
;   stickySupport,1
;   applyToolheadOffsets,0
;   gcodeXoffset,0
;   gcodeYoffset,0
;   gcodeZoffset,0
;   overrideMachineDefinition,1
;   machineTypeOverride,0
;   strokeXoverride,140
;   strokeYoverride,140
;   strokeZoverride,140
;   originOffsetXoverride,70
;   originOffsetYoverride,70
;   originOffsetZoverride,0
;   homeXdirOverride,1
;   homeYdirOverride,1
;   homeZdirOverride,-1
;   flipXoverride,1
;   flipYoverride,-1
;   flipZoverride,1
;   toolheadOffsets,0,0|0,0|0,0|0,0|0,0|0,0
;   overrideFirmwareConfiguration,1
;   firmwareTypeOverride,FlashForge Dreamer Firmware
;   GPXconfigOverride,r2
;   baudRateOverride,115200
;   overridePrinterModels,1
;   printerModelsOverride
;   startingGcode,M146 r255 g0 b0 ; Set lights to red while preheating,M907 X100 Y100 Z40 A100 B100 ; Set motor current,M132 X Y Z A B ; Recall home offsets,G28 ; Home axes,G1 Z100 F3300 ; Lower Z,G1 X-70 Y-70 F6000 ; Move to wait position,M7 ; Wait for bed to stabilize,M6 T0 ; Wait for right extruder to reach target temp,G1 X-68 Y-68 F9000 ; Move to front left corner of bed,G1 Z0.3 F6000 ; Move down to purge,G92 E0 ; Zero extruders,G1 X50 Y-68 E20 F2000 ; Extrude a line of filament across the front edge of the bed,G1 X60 Y-68 F180 ; Wait for ooze,G1 X68 Y-68 F5000 ; Fast wipe,G1 Z1 F100 ; Lift,G92 E0 ; Zero extruders again,M146 r255 g255 b255 ; Turn lights on for print,G1 Z0.5 F3300 ; Position nozzle
;   layerChangeGcode,
;   retractionGcode,
;   toolChangeGcode,
;   endingGcode,M104 S0 T0 ; cool down extruder,G1 Z140 F3300 ; send Z axis to bottom of machine,M107 ; disable cooling fan,G28 X0 Y0 ; home XY axes,M146 r0 g0 b0 ; Turn lights off,M18 ; disable stepper
;   exportFileFormat,gcode
;   celebration,0
;   celebrationSong,Random Song
;   postProcessing,
;   defaultSpeed,3000
;   outlineUnderspeed,0.5
;   solidInfillUnderspeed,0.8
;   supportUnderspeed,0.8
;   rapidXYspeed,4800
;   rapidZspeed,1000
;   minBridgingArea,50
;   bridgingExtraInflation,0
;   bridgingExtrusionMultiplier,1
;   bridgingSpeedMultiplier,1
;   useFixedBridgingAngle,0
;   fixedBridgingAngle,0
;   applyBridgingToPerimeters,0
;   filamentDiameters,1.75|1.75|1.75|1.75|1.75|1.75
;   filamentPricesPerKg,46|46|46|46|46|46
;   filamentDensities,1.25|1.25|1.25|1.25|1.25|1.25
;   useMinPrintHeight,0
;   minPrintHeight,0
;   useMaxPrintHeight,0
;   maxPrintHeight,0
;   useDiaphragm,0
;   diaphragmLayerInterval,20
;   robustSlicing,1
;   mergeAllIntoSolid,0
;   onlyRetractWhenCrossingOutline,1
;   retractBetweenLayers,1
;   useRetractionMinTravel,0
;   retractionMinTravel,3
;   retractWhileWiping,0
;   onlyWipeOutlines,1
;   avoidCrossingOutline,0
;   maxMovementDetourFactor,3
;   toolChangeRetractionDistance,12
;   toolChangeExtraRestartDistance,-0.5
;   toolChangeRetractionSpeed,600
;   externalThinWallType,0
;   internalThinWallType,2
;   thinWallAllowedOverlapPercentage,10
;   singleExtrusionMinLength,1
;   singleExtrusionMinPrintingWidthPercentage,50
;   singleExtrusionMaxPrintingWidthPercentage,200
;   singleExtrusionEndpointExtension,0.2
;   horizontalSizeCompensation,0
G90
M82
M107
M104 S200 T0
M146 r255 g0 b0 ; Set lights to red while preheating
M907 X100 Y100 Z40 A100 B100 ; Set motor current
M132 X Y Z A B ; Recall home offsets
G28 ; Home axes
G1 Z100 F3300 ; Lower Z
G1 X-70 Y-70 F6000 ; Move to wait position
M7 ; Wait for bed to stabilize
M6 T0 ; Wait for right extruder to reach target temp
G1 X-68 Y-68 F9000 ; Move to front left corner of bed
G1 Z0.3 F6000 ; Move down to purge
G92 E0 ; Zero extruders
G1 X50 Y-68 E20 F2000 ; Extrude a line of filament across the front edge of the bed
G1 X60 Y-68 F180 ; Wait for ooze
G1 X68 Y-68 F5000 ; Fast wipe
G1 Z1 F100 ; Lift
G92 E0 ; Zero extruders again
M146 r255 g255 b255 ; Turn lights on for print
G1 Z0.5 F3300 ; Position nozzle
; process Process1
; layer 1, Z = 0.450
M108 T0
G92 E0.0000
G1 E-1.0000 F1800
; feature skirt
; tool H0.450 W0.500
G1 Z0.450 F1000
G1 X17.750 Y-12.187 F4800
G1 E0.0000 F1800
G92 E0.0000
G1 X17.750 Y12.187 E2.0521 F900
G1 X17.027 Y13.933 E2.2112
G1 X13.933 Y17.027 E2.5795
G1 X12.187 Y17.750 E2.7386
G1 X-12.187 Y17.750 E4.7907
G1 X-13.933 Y17.027 E4.9498
G1 X-17.027 Y13.933 E5.3182
G1 X-17.750 Y12.187 E5.4773
G1 X-17.750 Y-12.187 E7.5294
G1 X-17.027 Y-13.933 E7.6885
G1 X-13.933 Y-17.027 E8.0568
G1 X-12.187 Y-17.750 E8.2159
G1 X12.187 Y-17.750 E10.2680
G1 X13.933 Y-17.027 E10.4271
G1 X17.027 Y-13.933 E10.7954
G1 X17.750 Y-12.187 E10.9545
G92 E0.0000
G1 E-1.0000 F1800
G1 X17.250 Y-12.088 F4800
G1 E0.0000 F1800
G92 E0.0000
G1 X17.250 Y12.088 E2.0354 F900
G1 X16.603 Y13.650 E2.1777
G1 X13.650 Y16.603 E2.5293
G1 X12.088 Y17.250 E2.6716
G1 X-12.088 Y17.250 E4.7070
G1 X-13.650 Y16.603 E4.8494
G1 X-16.603 Y13.650 E5.2009
G1 X-17.250 Y12.088 E5.3433
G1 X-17.250 Y-12.088 E7.3787
G1 X-16.603 Y-13.650 E7.5210
G1 X-13.650 Y-16.603 E7.8726
G1 X-12.088 Y-17.250 E8.0149
G1 X12.088 Y-17.250 E10.0503
G1 X13.650 Y-16.603 E10.1926
G1 X16.603 Y-13.650 E10.5442
G1 X17.250 Y-12.088 E10.6866
G92 E0.0000
G1 E-1.0000 F1800
; feature raft
; tool H0.450 W0.800
G1 X12.600 Y-11.077 F4800
G1 E0.0000 F1800
G92 E0.0000
G1 X12.600 Y11.077 E2.9842 F225
G1 X11.077 Y12.600 E3.2744
G1 X-11.077 Y12.600 E6.2586
G1 X-12.600 Y11.077 E6.5487
G1 X-12.600 Y-11.077 E9.5329
G1 X-11.077 Y-12.600 E9.8231
G1 X11.077 Y-12.600 E12.8073
G1 X12.600 Y-11.077 E13.0974
G92 E0.0000
G1 E-1.0000 F1800
G1 X11.287 Y11.429 F4800
G1 E0.0000 F1800
G92 E0.0000
G1 X-11.287 Y11.429 E3.0407 F225
G1 X-11.920 Y10.795 E3.1614
G1 X-11.920 Y9.143 E3.3840
G1 X11.920 Y9.143 E6.5953
G1 X11.920 Y6.857 E6.9032
G1 X-11.920 Y6.857 E10.1145
G1 X-11.920 Y4.571 E10.4224
G1 X11.920 Y4.571 E13.6337
G1 X11.920 Y2.286 E13.9416
G1 X-11.920 Y2.286 E17.1530
G1 X-11.920 Y0.000 E17.4609
G1 X11.920 Y0.000 E20.6722
G1 X11.920 Y-2.286 E20.9801
G1 X-11.920 Y-2.286 E24.1914
G1 X-11.920 Y-4.571 E24.4993
G1 X11.920 Y-4.571 E27.7106
G1 X11.920 Y-6.857 E28.0185
G1 X-11.920 Y-6.857 E31.2299
G1 X-11.920 Y-9.143 E31.5378
G1 X11.920 Y-9.143 E34.7491
G1 X11.920 Y-10.795 E34.9717
G1 X11.287 Y-11.429 E35.0923
G1 X-11.287 Y-11.429 E38.1330
G92 E0.0000
G1 E-1.0000 F1800
; layer 2, Z = 0.950
M106 S255
; tool H0.500 W0.800
G1 Z0.950 F1000
G1 X-11.077 Y-12.600 F4800
G1 E0.0000 F1800
G92 E0.0000
G1 X11.077 Y-12.600 E3.3158 F750
G1 X12.600 Y-11.077 E3.6382
G1 X12.600 Y11.077 E6.9540
G1 X11.077 Y12.600 E7.2763
G1 X-11.077 Y12.600 E10.5921
G1 X-12.600 Y11.077 E10.9145
G1 X-12.600 Y-11.077 E14.2303
G1 X-11.077 Y-12.600 E14.5527
G92 E0.0000
G1 E-1.0000 F1800
G1 X-11.287 Y-11.429 F4800
G1 E0.0000 F1800
G92 E0.0000
G1 X11.287 Y-11.429 E3.3786 F750
G1 X11.920 Y-10.795 E3.5126
G1 X11.920 Y-9.143 E3.7599
G1 X-11.920 Y-9.143 E7.3281
G1 X-11.920 Y-6.857 E7.6702
G1 X11.920 Y-6.857 E11.2383
G1 X11.920 Y-4.571 E11.5805
G1 X-11.920 Y-4.571 E15.1486
G1 X-11.920 Y-2.286 E15.4907
G1 X11.920 Y-2.286 E19.0589
G1 X11.920 Y0.000 E19.4010
G1 X-11.920 Y0.000 E22.9691
G1 X-11.920 Y2.286 E23.3112
G1 X11.920 Y2.286 E26.8794
G1 X11.920 Y4.571 E27.2215
G1 X-11.920 Y4.571 E30.7896
G1 X-11.920 Y6.857 E31.1317
G1 X11.920 Y6.857 E34.6999
G1 X11.920 Y9.143 E35.0420
G1 X-11.920 Y9.143 E38.6101
G1 X-11.920 Y10.795 E38.8574
G1 X-11.287 Y11.429 E38.9915
G1 X11.287 Y11.429 E42.3701
G92 E0.0000
G1 E-1.0000 F1800
; layer 3, Z = 1.172
; tool H0.222 W0.400
G1 Z1.172 F1000
G1 X12.800 Y10.959 F4800
G1 E0.0000 F1800
G92 E0.0000
G1 X10.959 Y12.800 E0.0866 F2250
G1 X10.393 Y12.800 E0.1054
G1 X12.800 Y10.393 E0.2186
G1 X12.800 Y9.827 E0.2374
G1 X9.827 Y12.800 E0.3773
G1 X9.262 Y12.800 E0.3961
G1 X12.800 Y9.262 E0.5625
G1 X12.800 Y8.696 E0.5813
G1 X8.696 Y12.800 E0.7744
G1 X8.130 Y12.800 E0.7932
G1 X12.800 Y8.130 E1.0128
G1 X12.800 Y7.565 E1.0316
G1 X7.565 Y12.800 E1.2779
G1 X6.999 Y12.800 E1.2967
G1 X12.800 Y6.999 E1.5696
G1 X12.800 Y6.433 E1.5884
G1 X6.433 Y12.800 E1.8878
G1 X5.868 Y12.800 E1.9067
G1 X12.800 Y5.868 E2.2327
G1 X12.800 Y5.302 E2.2515
G1 X5.302 Y12.800 E2.6042
G1 X4.736 Y12.800 E2.6230
G1 X12.800 Y4.736 E3.0023
G1 X12.800 Y4.171 E3.0212
G1 X4.171 Y12.800 E3.4271
G1 X3.605 Y12.800 E3.4459
G1 X12.800 Y3.605 E3.8784
G1 X12.800 Y3.039 E3.8972
G1 X3.039 Y12.800 E4.3563
G1 X2.474 Y12.800 E4.3751
G1 X12.800 Y2.474 E4.8608
G1 X12.800 Y1.908 E4.8797
G1 X1.908 Y12.800 E5.3920
G1 X1.342 Y12.800 E5.4108
G1 X12.800 Y1.342 E5.9498
G1 X12.800 Y0.776 E5.9686
G1 X0.776 Y12.800 E6.5341
G1 X0.211 Y12.800 E6.5529
G1 X12.800 Y0.211 E7.1451
G1 X12.800 Y-0.355 E7.1639
G1 X-0.355 Y12.800 E7.7827
G1 X-0.921 Y12.800 E7.8015
G1 X12.800 Y-0.921 E8.4469
G1 X12.800 Y-1.486 E8.4657
G1 X-1.486 Y12.800 E9.1377
G1 X-2.052 Y12.800 E9.1565
G1 X12.800 Y-2.052 E9.8551
G1 X12.800 Y-2.618 E9.8739
G1 X-2.618 Y12.800 E10.5991
G1 X-3.183 Y12.800 E10.6179
G1 X12.800 Y-3.183 E11.3697
G1 X12.800 Y-3.749 E11.3885
G1 X-3.749 Y12.800 E12.1669
G1 X-4.315 Y12.800 E12.1857
G1 X12.800 Y-4.315 E12.9908
G1 X12.800 Y-4.880 E13.0096
G1 X-4.880 Y12.800 E13.8412
G1 X-5.446 Y12.800 E13.8600
G1 X12.800 Y-5.446 E14.7183
G1 X12.800 Y-6.012 E14.7371
G1 X-6.012 Y12.800 E15.6219
G1 X-6.577 Y12.800 E15.6407
G1 X12.800 Y-6.577 E16.5522
G1 X12.800 Y-7.143 E16.5710
G1 X-7.143 Y12.800 E17.5091
G1 X-7.709 Y12.800 E17.5279
G1 X12.800 Y-7.709 E18.4926
G1 X12.800 Y-8.274 E18.5114
G1 X-8.274 Y12.800 E19.5026
G1 X-8.840 Y12.800 E19.5215
G1 X12.800 Y-8.840 E20.5393
G1 X12.800 Y-9.406 E20.5582
G1 X-9.406 Y12.800 E21.6027
G1 X-9.972 Y12.800 E21.6215
G1 X12.800 Y-9.972 E22.6926
G1 X12.800 Y-10.537 E22.7114
G1 X-10.537 Y12.800 E23.8091
G1 X-11.103 Y12.800 E23.8279
G1 X12.800 Y-11.103 E24.9522
G1 X12.800 Y-11.160 E24.9541
G1 X12.546 Y-11.414 E24.9661
G1 X-11.414 Y12.546 E26.0931
G1 X-11.697 Y12.263 E26.1064
G1 X12.263 Y-11.697 E27.2334
G1 X11.980 Y-11.980 E27.2467
G1 X-11.980 Y11.980 E28.3737
G1 X-12.263 Y11.697 E28.3870
G1 X11.697 Y-12.263 E29.5140
G1 X11.414 Y-12.546 E29.5273
G1 X-12.546 Y11.414 E30.6543
G1 X-12.800 Y11.160 E30.6663
G1 X-12.800 Y11.103 E30.6681
G1 X11.103 Y-12.800 E31.7925
G1 X10.537 Y-12.800 E31.8113
G1 X-12.800 Y10.537 E32.9090
G1 X-12.800 Y9.972 E32.9278
G1 X9.972 Y-12.800 E33.9989
G1 X9.406 Y-12.800 E34.0177
G1 X-12.800 Y9.406 E35.0622
G1 X-12.800 Y8.840 E35.0810
G1 X8.840 Y-12.800 E36.0989
G1 X8.275 Y-12.800 E36.1178
G1 X-12.800 Y8.275 E37.1090
G1 X-12.800 Y7.709 E37.1279
G1 X7.709 Y-12.800 E38.0925
G1 X7.143 Y-12.800 E38.1113
G1 X-12.800 Y7.143 E39.0494
G1 X-12.800 Y6.577 E39.0682
G1 X6.577 Y-12.800 E39.9797
G1 X6.012 Y-12.800 E39.9985
G1 X-12.800 Y6.012 E40.8833
G1 X-12.800 Y5.446 E40.9022
G1 X5.446 Y-12.800 E41.7604
G1 X4.880 Y-12.800 E41.7792
G1 X-12.800 Y4.880 E42.6108
G1 X-12.800 Y4.315 E42.6297
G1 X4.315 Y-12.800 E43.4347
G1 X3.749 Y-12.800 E43.4535
G1 X-12.800 Y3.749 E44.2319
G1 X-12.800 Y3.183 E44.2507
G1 X3.183 Y-12.800 E45.0025
G1 X2.618 Y-12.800 E45.0214
G1 X-12.800 Y2.618 E45.7466
G1 X-12.800 Y2.052 E45.7654
G1 X2.052 Y-12.800 E46.4640
G1 X1.486 Y-12.800 E46.4828
G1 X-12.800 Y1.486 E47.1548
G1 X-12.800 Y0.921 E47.1736
G1 X0.921 Y-12.800 E47.8190
G1 X0.355 Y-12.800 E47.8378
G1 X-12.800 Y0.355 E48.4565
G1 X-12.800 Y-0.211 E48.4754
G1 X-0.211 Y-12.800 E49.0675
G1 X-0.776 Y-12.800 E49.0863
G1 X-12.800 Y-0.776 E49.6519
G1 X-12.800 Y-1.342 E49.6707
G1 X-1.342 Y-12.800 E50.2096
G1 X-1.908 Y-12.800 E50.2285
G1 X-12.800 Y-1.908 E50.7408
G1 X-12.800 Y-2.473 E50.7596
G1 X-2.473 Y-12.800 E51.2453
G1 X-3.039 Y-12.800 E51.2642
G1 X-12.800 Y-3.039 E51.7233
G1 X-12.800 Y-3.605 E51.7421
G1 X-3.605 Y-12.800 E52.1746
G1 X-4.171 Y-12.800 E52.1934
G1 X-12.800 Y-4.171 E52.5993
G1 X-12.800 Y-4.736 E52.6181
G1 X-4.736 Y-12.800 E52.9974
G1 X-5.302 Y-12.800 E53.0162
G1 X-12.800 Y-5.302 E53.3689
G1 X-12.800 Y-5.868 E53.3877
G1 X-5.868 Y-12.800 E53.7138
G1 X-6.433 Y-12.800 E53.7326
G1 X-12.800 Y-6.433 E54.0321
G1 X-12.800 Y-6.999 E54.0509
G1 X-6.999 Y-12.800 E54.3238
G1 X-7.565 Y-12.800 E54.3426
G1 X-12.800 Y-7.565 E54.5889
G1 X-12.800 Y-8.130 E54.6077
G1 X-8.130 Y-12.800 E54.8273
G1 X-8.696 Y-12.800 E54.8461
G1 X-12.800 Y-8.696 E55.0392
G1 X-12.800 Y-9.262 E55.0580
G1 X-9.262 Y-12.800 E55.2244
G1 X-9.827 Y-12.800 E55.2432
G1 X-12.800 Y-9.827 E55.3831
G1 X-12.800 Y-10.393 E55.4019
G1 X-10.393 Y-12.800 E55.5151
G1 X-10.959 Y-12.800 E55.5339
G1 X-12.800 Y-10.959 E55.6205
G92 E0.0000
G1 E-1.0000 F1800
; layer 4, Z = 1.394
G1 Z1.394 F1000
G1 X-10.959 Y12.800 F4800
G1 E0.0000 F1800
G92 E0.0000
G1 X-12.800 Y10.959 E0.0866 F2250
G1 X-12.800 Y10.393 E0.1054
G1 X-10.393 Y12.800 E0.2186
G1 X-9.827 Y12.800 E0.2374
G1 X-12.800 Y9.827 E0.3773
G1 X-12.800 Y9.262 E0.3961
G1 X-9.262 Y12.800 E0.5625
G1 X-8.696 Y12.800 E0.5813
G1 X-12.800 Y8.696 E0.7744
G1 X-12.800 Y8.130 E0.7932
G1 X-8.130 Y12.800 E1.0128
G1 X-7.565 Y12.800 E1.0316
G1 X-12.800 Y7.565 E1.2779
G1 X-12.800 Y6.999 E1.2967
G1 X-6.999 Y12.800 E1.5696
G1 X-6.433 Y12.800 E1.5884
G1 X-12.800 Y6.433 E1.8879
G1 X-12.800 Y5.868 E1.9067
G1 X-5.868 Y12.800 E2.2328
G1 X-5.302 Y12.800 E2.2516
G1 X-12.800 Y5.302 E2.6043
G1 X-12.800 Y4.736 E2.6231
G1 X-4.736 Y12.800 E3.0024
G1 X-4.171 Y12.800 E3.0212
G1 X-12.800 Y4.171 E3.4271
