; G-Code generated by Simplify3D(R) Version 4.1.2
; Apr 5, 2021 at 10:03:56 PM
; Settings Summary
;   processName,Quick and Dirty
;   applyToModels,4x1_0_bottom,4x1_0_top
;   profileName,High Quality (modified)
;   profileVersion,2018-11-09 08:00:00
;   baseProfile,FlashForge Finder
;   printMaterial,PLA
;   printQuality,High
;   printExtruders,
;   extruderName,Primary Extruder
;   extruderToolheadNumber,0
;   extruderDiameter,0.4
;   extruderAutoWidth,0
;   extruderWidth,0.4
;   extrusionMultiplier,0.9
;   extruderUseRetract,1
;   extruderRetractionDistance,1
;   extruderExtraRestartDistance,0
;   extruderRetractionZLift,0
;   extruderRetractionSpeed,1800
;   extruderUseCoasting,0
;   extruderCoastingDistance,0.2
;   extruderUseWipe,0
;   extruderWipeDistance,5
;   primaryExtruder,0
;   layerHeight,0.1
;   topSolidLayers,4
;   bottomSolidLayers,4
;   perimeterOutlines,2
;   printPerimetersInsideOut,1
;   startPointOption,2
;   startPointOriginX,0
;   startPointOriginY,0
;   sequentialIslands,0
;   spiralVaseMode,0
;   firstLayerHeightPercentage,90
;   firstLayerWidthPercentage,125
;   firstLayerUnderspeed,0.3
;   useRaft,1
;   raftExtruder,0
;   raftTopLayers,3
;   raftBaseLayers,2
;   raftOffset,3
;   raftSeparationDistance,0.14
;   raftTopInfill,100
;   aboveRaftSpeedMultiplier,0.3
;   useSkirt,1
;   skirtExtruder,0
;   skirtLayers,2
;   skirtOutlines,2
;   skirtOffset,4
;   usePrimePillar,0
;   primePillarExtruder,999
;   primePillarWidth,12
;   primePillarLocation,7
;   primePillarSpeedMultiplier,1
;   useOozeShield,0
;   oozeShieldExtruder,999
;   oozeShieldOffset,2
;   oozeShieldOutlines,1
;   oozeShieldSidewallShape,1
;   oozeShieldSidewallAngle,30
;   oozeShieldSpeedMultiplier,1
;   infillExtruder,0
;   internalInfillPattern,Rectilinear
;   externalInfillPattern,Rectilinear
;   infillPercentage,100
;   outlineOverlapPercentage,15
;   infillExtrusionWidthPercentage,100
;   minInfillLength,5
;   infillLayerInterval,1
;   internalInfillAngles,45,-45
;   overlapInternalInfillAngles,0
;   externalInfillAngles,45,-45
;   generateSupport,1
;   supportExtruder,0
;   supportInfillPercentage,40
;   supportExtraInflation,0
;   supportBaseLayers,0
;   denseSupportExtruder,0
;   denseSupportLayers,0
;   denseSupportInfillPercentage,70
;   supportLayerInterval,1
;   supportHorizontalPartOffset,0.3
;   supportUpperSeparationLayers,1
;   supportLowerSeparationLayers,1
;   supportType,0
;   supportGridSpacing,4
;   maxOverhangAngle,45
;   supportAngles,0
;   temperatureName,Primary Extruder
;   temperatureNumber,0
;   temperatureSetpointCount,1
;   temperatureSetpointLayers,1
;   temperatureSetpointTemperatures,200
;   temperatureStabilizeAtStartup,0
;   temperatureHeatedBed,0
;   fanLayers,1,2
;   fanSpeeds,0,100
;   blipFanToFullPower,0
;   adjustSpeedForCooling,1
;   minSpeedLayerTime,15
;   minCoolingSpeedSlowdown,20
;   increaseFanForCooling,0
;   minFanLayerTime,45
;   maxCoolingFanSpeed,100
;   increaseFanForBridging,0
;   bridgingFanSpeed,100
;   use5D,1
;   relativeEdistances,0
;   allowEaxisZeroing,1
;   independentExtruderAxes,1
;   includeM10123,0
;   stickySupport,1
;   applyToolheadOffsets,0
;   gcodeXoffset,0
;   gcodeYoffset,0
;   gcodeZoffset,0
;   overrideMachineDefinition,1
;   machineTypeOverride,0
;   strokeXoverride,140
;   strokeYoverride,140
;   strokeZoverride,140
;   originOffsetXoverride,70
;   originOffsetYoverride,70
;   originOffsetZoverride,0
;   homeXdirOverride,1
;   homeYdirOverride,1
;   homeZdirOverride,-1
;   flipXoverride,1
;   flipYoverride,-1
;   flipZoverride,1
;   toolheadOffsets,0,0|0,0|0,0|0,0|0,0|0,0
;   overrideFirmwareConfiguration,1
;   firmwareTypeOverride,FlashForge Dreamer Firmware
;   GPXconfigOverride,r2
;   baudRateOverride,115200
;   overridePrinterModels,1
;   printerModelsOverride
;   startingGcode,M146 r255 g0 b0 ; Set lights to red while preheating,M907 X100 Y100 Z40 A100 B100 ; Set motor current,M132 X Y Z A B ; Recall home offsets,G28 ; Home axes,G1 Z100 F3300 ; Lower Z,G1 X-70 Y-70 F6000 ; Move to wait position,M7 ; Wait for bed to stabilize,M6 T0 ; Wait for right extruder to reach target temp,G1 X-68 Y-68 F9000 ; Move to front left corner of bed,G1 Z0.3 F6000 ; Move down to purge,G92 E0 ; Zero extruders,G1 X50 Y-68 E20 F2000 ; Extrude a line of filament across the front edge of the bed,G1 X60 Y-68 F180 ; Wait for ooze,G1 X68 Y-68 F5000 ; Fast wipe,G1 Z1 F100 ; Lift,G92 E0 ; Zero extruders again,M146 r255 g255 b255 ; Turn lights on for print,G1 Z0.5 F3300 ; Position nozzle
;   layerChangeGcode,
;   retractionGcode,
;   toolChangeGcode,
;   endingGcode,M104 S0 T0 ; cool down extruder,G1 Z140 F3300 ; send Z axis to bottom of machine,M107 ; disable cooling fan,G28 X0 Y0 ; home XY axes,M146 r0 g0 b0 ; Turn lights off,M18 ; disable stepper
;   exportFileFormat,gcode
;   celebration,0
;   celebrationSong,Random Song
;   postProcessing,
;   defaultSpeed,3000
;   outlineUnderspeed,0.5
;   solidInfillUnderspeed,0.8
;   supportUnderspeed,0.8
;   rapidXYspeed,4800
;   rapidZspeed,1000
;   minBridgingArea,50
;   bridgingExtraInflation,0
;   bridgingExtrusionMultiplier,1
;   bridgingSpeedMultiplier,1
;   useFixedBridgingAngle,0
;   fixedBridgingAngle,0
;   applyBridgingToPerimeters,0
;   filamentDiameters,1.75|1.75|1.75|1.75|1.75|1.75
;   filamentPricesPerKg,46|46|46|46|46|46
;   filamentDensities,1.25|1.25|1.25|1.25|1.25|1.25
;   useMinPrintHeight,0
;   minPrintHeight,0
;   useMaxPrintHeight,0
;   maxPrintHeight,0
;   useDiaphragm,0
;   diaphragmLayerInterval,20
;   robustSlicing,1
;   mergeAllIntoSolid,0
;   onlyRetractWhenCrossingOutline,1
;   retractBetweenLayers,1
;   useRetractionMinTravel,0
;   retractionMinTravel,3
;   retractWhileWiping,0
;   onlyWipeOutlines,1
;   avoidCrossingOutline,0
;   maxMovementDetourFactor,3
;   toolChangeRetractionDistance,12
;   toolChangeExtraRestartDistance,-0.5
;   toolChangeRetractionSpeed,600
;   externalThinWallType,0
;   internalThinWallType,2
;   thinWallAllowedOverlapPercentage,10
;   singleExtrusionMinLength,1
;   singleExtrusionMinPrintingWidthPercentage,50
;   singleExtrusionMaxPrintingWidthPercentage,200
;   singleExtrusionEndpointExtension,0.2
;   horizontalSizeCompensation,0
G90
M82
M107
M104 S200 T0
M146 r255 g0 b0 ; Set lights to red while preheating
M907 X100 Y100 Z40 A100 B100 ; Set motor current
M132 X Y Z A B ; Recall home offsets
G28 ; Home axes
G1 Z100 F3300 ; Lower Z
G1 X-70 Y-70 F6000 ; Move to wait position
M7 ; Wait for bed to stabilize
M6 T0 ; Wait for right extruder to reach target temp
G1 X-68 Y-68 F9000 ; Move to front left corner of bed
G1 Z0.3 F6000 ; Move down to purge
G92 E0 ; Zero extruders
G1 X50 Y-68 E20 F2000 ; Extrude a line of filament across the front edge of the bed
G1 X60 Y-68 F180 ; Wait for ooze
G1 X68 Y-68 F5000 ; Fast wipe
G1 Z1 F100 ; Lift
G92 E0 ; Zero extruders again
M146 r255 g255 b255 ; Turn lights on for print
G1 Z0.5 F3300 ; Position nozzle
; process Quick and Dirty
; layer 1, Z = 0.450
M108 T0
G92 E0.0000
G1 E-1.0000 F1800
; feature skirt
; tool H0.450 W0.500
G1 Z0.450 F1000
G1 X39.531 Y30.250 F4800
G1 E0.0000 F1800
G92 E0.0000
G1 X-41.061 Y30.250 E6.7851 F900
G1 X-41.592 Y30.470 E6.8335
G1 X-47.887 Y30.470 E7.3635
G1 X-48.419 Y30.250 E7.4119
G1 X-50.187 Y30.250 E7.5608
G1 X-51.933 Y29.527 E7.7199
G1 X-55.027 Y26.433 E8.0882
G1 X-55.750 Y24.687 E8.2473
G1 X-55.750 Y0.313 E10.2994
G1 X-55.621 Y0.000 E10.3279
G1 X-55.750 Y-0.313 E10.3564
G1 X-55.750 Y-24.687 E12.4085
G1 X-55.027 Y-26.433 E12.5676
G1 X-51.933 Y-29.527 E12.9359
G1 X-50.187 Y-30.250 E13.0950
G1 X50.187 Y-30.250 E21.5455
G1 X51.933 Y-29.527 E21.7046
G1 X55.027 Y-26.433 E22.0729
G1 X55.750 Y-24.687 E22.2320
G1 X55.750 Y-0.313 E24.2842
G1 X55.621 Y0.000 E24.3126
G1 X55.750 Y0.313 E24.3411
G1 X55.750 Y24.687 E26.3932
G1 X55.027 Y26.433 E26.5523
G1 X51.933 Y29.527 E26.9206
G1 X50.187 Y30.250 E27.0797
G1 X46.939 Y30.250 E27.3533
G1 X46.407 Y30.470 E27.4017
G1 X40.063 Y30.470 E27.9358
G1 X39.531 Y30.250 E27.9842
G92 E0.0000
G1 E-1.0000 F1800
G1 X39.631 Y29.750 F4800
G1 E0.0000 F1800
G92 E0.0000
G1 X-41.161 Y29.750 E6.8018 F900
G1 X-41.692 Y29.970 E6.8502
G1 X-47.788 Y29.970 E7.3635
G1 X-48.319 Y29.750 E7.4119
G1 X-50.088 Y29.750 E7.5608
G1 X-51.650 Y29.103 E7.7031
G1 X-54.603 Y26.150 E8.0547
G1 X-55.250 Y24.588 E8.1970
G1 X-55.250 Y0.412 E10.2324
G1 X-55.079 Y0.000 E10.2700
G1 X-55.250 Y-0.412 E10.3075
G1 X-55.250 Y-24.588 E12.3429
G1 X-54.603 Y-26.150 E12.4852
G1 X-51.650 Y-29.103 E12.8368
G1 X-50.088 Y-29.750 E12.9791
G1 X50.088 Y-29.750 E21.4129
G1 X51.650 Y-29.103 E21.5553
G1 X54.603 Y-26.150 E21.9069
G1 X55.250 Y-24.588 E22.0492
G1 X55.250 Y-0.412 E24.0846
G1 X55.079 Y0.000 E24.1221
G1 X55.250 Y0.412 E24.1597
G1 X55.250 Y24.588 E26.1950
G1 X54.603 Y26.150 E26.3374
G1 X51.650 Y29.103 E26.6890
G1 X50.088 Y29.750 E26.8313
G1 X46.839 Y29.750 E27.1048
G1 X46.308 Y29.970 E27.1532
G1 X40.162 Y29.970 E27.6707
G1 X39.631 Y29.750 E27.7191
G92 E0.0000
G1 E-1.0000 F1800
; feature raft
; tool H0.450 W0.800
G1 X41.173 Y25.320 F4800
G1 E0.0000 F1800
G92 E0.0000
G1 X40.953 Y25.100 E0.0419 F225
G1 X0.423 Y25.100 E5.5014
G1 X0.000 Y24.677 E5.5820
G1 X-0.423 Y25.100 E5.6626
G1 X-42.483 Y25.100 E11.3283
G1 X-42.703 Y25.320 E11.3702
G1 X-46.777 Y25.320 E11.9189
G1 X-46.997 Y25.100 E11.9608
G1 X-49.077 Y25.100 E12.2410
G1 X-50.600 Y23.577 E12.5312
G1 X-50.600 Y1.423 E15.5154
G1 X-49.177 Y0.000 E15.7865
G1 X-50.600 Y-1.423 E16.0576
G1 X-50.600 Y-23.577 E19.0418
G1 X-49.077 Y-25.100 E19.3319
G1 X49.077 Y-25.100 E32.5536
G1 X50.600 Y-23.577 E32.8437
G1 X50.600 Y-1.423 E35.8279
G1 X49.177 Y0.000 E36.0990
G1 X50.600 Y1.423 E36.3701
G1 X50.600 Y23.577 E39.3543
G1 X49.077 Y25.100 E39.6445
G1 X45.517 Y25.100 E40.1240
G1 X45.297 Y25.320 E40.1659
G1 X41.173 Y25.320 E40.7214
G92 E0.0000
G1 E-1.0000 F1800
G1 X37.533 Y16.850 F4800
G1 E0.0000 F1800
G92 E0.0000
G1 X38.703 Y15.680 E0.2229 F225
G1 X42.350 Y15.680 E0.7141
G1 X42.350 Y9.320 E1.5709
G1 X38.703 Y9.320 E2.0621
G1 X37.533 Y8.150 E2.2850
G1 X34.820 Y8.150 E2.6505
G1 X34.820 Y16.850 E3.8224
G1 X37.533 Y16.850 E4.1878
G92 E0.0000
G1 E-1.0000 F1800
G1 X21.180 Y16.850 F4800
G1 E0.0000 F1800
G92 E0.0000
G1 X21.180 Y8.150 E1.1719 F225
G1 X14.820 Y8.150 E2.0286
G1 X14.820 Y16.850 E3.2006
G1 X21.180 Y16.850 E4.0573
G92 E0.0000
G1 E-1.0000 F1800
G1 X1.180 Y16.850 F4800
G1 E0.0000 F1800
G92 E0.0000
G1 X1.180 Y8.150 E1.1719 F225
G1 X0.423 Y8.150 E1.2739
G1 X0.000 Y7.727 E1.3545
G1 X-0.423 Y8.150 E1.4351
G1 X-5.180 Y8.150 E2.0758
G1 X-5.180 Y16.850 E3.2478
G1 X-0.423 Y16.850 E3.8885
G1 X0.000 Y17.273 E3.9691
G1 X0.423 Y16.850 E4.0497
G1 X1.180 Y16.850 E4.1517
G92 E0.0000
G1 E-1.0000 F1800
G1 X-18.820 Y16.850 F4800
G1 E0.0000 F1800
G92 E0.0000
G1 X-18.820 Y8.150 E1.1719 F225
G1 X-26.350 Y8.150 E2.1862
G1 X-26.350 Y16.850 E3.3582
G1 X-18.820 Y16.850 E4.3725
G92 E0.0000
G1 E-1.0000 F1800
G1 X-18.140 Y16.000 F4800
G1 E0.0000 F1800
G92 E0.0000
G1 X-5.860 Y16.000 E1.6542 F225
G1 X-5.860 Y13.714 E1.9621
G1 X-18.140 Y13.714 E3.6162
G1 X-18.140 Y11.429 E3.9241
G1 X-5.860 Y11.429 E5.5783
G1 X-5.860 Y9.143 E5.8862
G1 X-18.140 Y9.143 E7.5403
G92 E0.0000
G1 E-1.0000 F1800
G1 X1.860 Y9.143 F4800
G1 E0.0000 F1800
G92 E0.0000
G1 X14.140 Y9.143 E1.6542 F225
G1 X14.140 Y11.429 E1.9621
G1 X1.860 Y11.429 E3.6162
G1 X1.860 Y13.714 E3.9241
G1 X14.140 Y13.714 E5.5783
G1 X14.140 Y16.000 E5.8862
G1 X1.860 Y16.000 E7.5403
G92 E0.0000
G1 E-1.0000 F1800
G1 X21.860 Y16.000 F4800
G1 E0.0000 F1800
G92 E0.0000
G1 X34.140 Y16.000 E1.6542 F225
G1 X34.140 Y13.714 E1.9621
G1 X21.860 Y13.714 E3.6162
G1 X21.860 Y11.429 E3.9241
G1 X34.140 Y11.429 E5.5783
G1 X34.140 Y9.143 E5.8862
G1 X21.860 Y9.143 E7.5403
G92 E0.0000
G1 E-1.0000 F1800
G1 X43.030 Y9.143 F4800
G1 E0.0000 F1800
G92 E0.0000
G1 X49.920 Y9.143 E0.9281 F225
G1 X49.920 Y11.429 E1.2360
G1 X43.030 Y11.429 E2.1641
G1 X43.030 Y13.714 E2.4720
G1 X49.920 Y13.714 E3.4001
G1 X49.920 Y16.000 E3.7080
G1 X43.030 Y16.000 E4.6361
G92 E0.0000
G1 E-1.0000 F1800
G1 X49.920 Y22.857 F4800
G1 E0.0000 F1800
G92 E0.0000
G1 X-49.920 Y22.857 E13.4488 F225
G1 X-49.920 Y20.571 E13.7567
G1 X49.920 Y20.571 E27.2055
G1 X49.920 Y18.286 E27.5134
G1 X-49.920 Y18.286 E40.9622
G1 X-49.920 Y16.000 E41.2701
G1 X-27.030 Y16.000 E44.3535
G1 X-27.030 Y13.714 E44.6613
G1 X-49.920 Y13.714 E47.7447
G1 X-49.920 Y11.429 E48.0526
G1 X-27.030 Y11.429 E51.1360
G1 X-27.030 Y9.143 E51.4439
G1 X-49.920 Y9.143 E54.5272
G1 X-49.920 Y6.857 E54.8351
G1 X-0.092 Y6.857 E61.5471
G1 X0.000 Y6.765 E61.5646
G1 X0.092 Y6.857 E61.5821
G1 X49.920 Y6.857 E68.2942
G1 X49.920 Y4.571 E68.6021
G1 X-49.920 Y4.571 E82.0509
G1 X-49.920 Y2.286 E82.3588
G1 X49.920 Y2.286 E95.8076
G1 X49.920 Y1.705 E95.8858
G1 X48.215 Y0.000 E96.2106
G1 X-48.215 Y0.000 E109.2001
G1 X-49.920 Y-1.705 E109.5249
G1 X-49.920 Y-2.286 E109.6031
G1 X49.920 Y-2.286 E123.0519
G1 X49.920 Y-4.571 E123.3598
G1 X-49.920 Y-4.571 E136.8086
G1 X-49.920 Y-6.857 E137.1165
G1 X49.920 Y-6.857 E150.5653
G1 X49.920 Y-9.143 E150.8732
G1 X-49.920 Y-9.143 E164.3220
G1 X-49.920 Y-11.429 E164.6299
G1 X49.920 Y-11.429 E178.0787
G1 X49.920 Y-13.714 E178.3866
G1 X-49.920 Y-13.714 E191.8354
G1 X-49.920 Y-16.000 E192.1433
G1 X49.920 Y-16.000 E205.5921
G1 X49.920 Y-18.286 E205.9000
G1 X-49.920 Y-18.286 E219.3488
G1 X-49.920 Y-20.571 E219.6567
G1 X49.920 Y-20.571 E233.1055
G1 X49.920 Y-22.857 E233.4134
G1 X-49.920 Y-22.857 E246.8622
G92 E0.0000
G1 E-1.0000 F1800
; layer 2, Z = 0.950
M106 S255
; feature skirt
; tool H0.500 W0.400
G1 Z0.950 F1000
G1 X-55.600 Y-24.658 F4800
G1 E0.0000 F1800
G92 E0.0000
G1 X-54.900 Y-26.348 E0.1369 F3000
G1 X-51.848 Y-29.400 E0.4599
G1 X-50.158 Y-30.100 E0.5968
G1 X50.158 Y-30.100 E8.1040
G1 X51.848 Y-29.400 E8.2409
G1 X54.900 Y-26.348 E8.5638
G1 X55.600 Y-24.658 E8.7008
G1 X55.600 Y-0.342 E10.5204
G1 X55.458 Y0.000 E10.5482
G1 X55.600 Y0.342 E10.5759
G1 X55.600 Y24.658 E12.3955
G1 X54.900 Y26.348 E12.5325
G1 X51.848 Y29.400 E12.8554
G1 X50.158 Y30.100 E12.9924
G1 X46.909 Y30.100 E13.2355
G1 X46.378 Y30.320 E13.2785
G1 X40.092 Y30.320 E13.7489
G1 X39.561 Y30.100 E13.7919
G1 X-41.091 Y30.100 E19.8275
G1 X-41.622 Y30.320 E19.8706
G1 X-47.858 Y30.320 E20.3372
G1 X-48.389 Y30.100 E20.3802
G1 X-50.158 Y30.100 E20.5126
G1 X-51.848 Y29.400 E20.6495
G1 X-54.900 Y26.348 E20.9725
G1 X-55.600 Y24.658 E21.1094
G1 X-55.600 Y0.342 E22.9291
G1 X-55.458 Y0.000 E22.9568
G1 X-55.600 Y-0.342 E22.9845
G1 X-55.600 Y-24.658 E24.8042
G92 E0.0000
G1 E-1.0000 F1800
G1 X-55.200 Y-24.578 F4800
G1 E0.0000 F1800
G92 E0.0000
G1 X-54.561 Y-26.122 E0.1250 F3000
G1 X-51.622 Y-29.061 E0.4361
G1 X-50.078 Y-29.700 E0.5611
G1 X50.078 Y-29.700 E8.0563
G1 X51.622 Y-29.061 E8.1814
G1 X54.561 Y-26.122 E8.4924
G1 X55.200 Y-24.578 E8.6174
G1 X55.200 Y-0.422 E10.4252
G1 X55.025 Y0.000 E10.4593
G1 X55.200 Y0.422 E10.4935
G1 X55.200 Y24.578 E12.3012
G1 X54.561 Y26.122 E12.4263
G1 X51.622 Y29.061 E12.7373
G1 X50.078 Y29.700 E12.8624
G1 X46.829 Y29.700 E13.1055
G1 X46.298 Y29.920 E13.1485
G1 X40.172 Y29.920 E13.6070
G1 X39.641 Y29.700 E13.6500
G1 X-41.171 Y29.700 E19.6975
G1 X-41.702 Y29.920 E19.7406
G1 X-47.778 Y29.920 E20.1953
G1 X-48.309 Y29.700 E20.2383
G1 X-50.078 Y29.700 E20.3707
G1 X-51.622 Y29.061 E20.4957
G1 X-54.561 Y26.122 E20.8067
G1 X-55.200 Y24.578 E20.9318
G1 X-55.200 Y0.422 E22.7395
G1 X-55.025 Y0.000 E22.7737
G1 X-55.200 Y-0.422 E22.8079
G1 X-55.200 Y-24.578 E24.6156
G92 E0.0000
G1 E-1.0000 F1800
; feature raft
; tool H0.500 W0.800
G1 X-50.600 Y-23.577 F4800
G1 E0.0000 F1800
G92 E0.0000
G1 X-49.077 Y-25.100 E0.3224 F750
G1 X49.077 Y-25.100 E15.0131
G1 X50.600 Y-23.577 E15.3355
G1 X50.600 Y-1.423 E18.6513
G1 X49.177 Y0.000 E18.9525
G1 X50.600 Y1.423 E19.2537
G1 X50.600 Y23.577 E22.5695
G1 X49.077 Y25.100 E22.8919
G1 X45.517 Y25.100 E23.4247
G1 X45.297 Y25.320 E23.4713
G1 X41.173 Y25.320 E24.0885
G1 X40.953 Y25.100 E24.1351
G1 X0.423 Y25.100 E30.2012
G1 X0.000 Y24.677 E30.2908
G1 X-0.423 Y25.100 E30.3803
G1 X-42.483 Y25.100 E36.6755
G1 X-42.703 Y25.320 E36.7220
G1 X-46.777 Y25.320 E37.3318
G1 X-46.997 Y25.100 E37.3783
G1 X-49.077 Y25.100 E37.6897
G1 X-50.600 Y23.577 E38.0120
