; G-Code generated by Simplify3D(R) Version 4.1.2
; Apr 6, 2021 at 3:46:29 PM
; Settings Summary
;   processName,Medium Quality
;   applyToModels,4x1_3_bottom_angle,4x1_3_bottom_flat,4x1_3_top
;   profileName,Medium Quality
;   profileVersion,2021-04-06 09:56:37
;   baseProfile,FlashForge Finder
;   printMaterial,PLA
;   printQuality,Fast
;   printExtruders,
;   extruderName,Primary Extruder
;   extruderToolheadNumber,0
;   extruderDiameter,0.4
;   extruderAutoWidth,0
;   extruderWidth,0.4
;   extrusionMultiplier,0.9
;   extruderUseRetract,1
;   extruderRetractionDistance,1
;   extruderExtraRestartDistance,0
;   extruderRetractionZLift,0
;   extruderRetractionSpeed,1800
;   extruderUseCoasting,0
;   extruderCoastingDistance,0.2
;   extruderUseWipe,0
;   extruderWipeDistance,5
;   primaryExtruder,0
;   layerHeight,0.3
;   topSolidLayers,3
;   bottomSolidLayers,3
;   perimeterOutlines,2
;   printPerimetersInsideOut,1
;   startPointOption,2
;   startPointOriginX,0
;   startPointOriginY,0
;   sequentialIslands,0
;   spiralVaseMode,0
;   firstLayerHeightPercentage,90
;   firstLayerWidthPercentage,125
;   firstLayerUnderspeed,0.3
;   useRaft,1
;   raftExtruder,0
;   raftTopLayers,3
;   raftBaseLayers,2
;   raftOffset,3
;   raftSeparationDistance,0.14
;   raftTopInfill,100
;   aboveRaftSpeedMultiplier,0.3
;   useSkirt,1
;   skirtExtruder,0
;   skirtLayers,1
;   skirtOutlines,2
;   skirtOffset,4
;   usePrimePillar,0
;   primePillarExtruder,999
;   primePillarWidth,12
;   primePillarLocation,7
;   primePillarSpeedMultiplier,1
;   useOozeShield,0
;   oozeShieldExtruder,999
;   oozeShieldOffset,2
;   oozeShieldOutlines,1
;   oozeShieldSidewallShape,1
;   oozeShieldSidewallAngle,30
;   oozeShieldSpeedMultiplier,1
;   infillExtruder,0
;   internalInfillPattern,Rectilinear
;   externalInfillPattern,Rectilinear
;   infillPercentage,50
;   outlineOverlapPercentage,15
;   infillExtrusionWidthPercentage,100
;   minInfillLength,5
;   infillLayerInterval,1
;   internalInfillAngles,45,-45
;   overlapInternalInfillAngles,0
;   externalInfillAngles,45,-45
;   generateSupport,1
;   supportExtruder,0
;   supportInfillPercentage,15
;   supportExtraInflation,0
;   supportBaseLayers,0
;   denseSupportExtruder,0
;   denseSupportLayers,0
;   denseSupportInfillPercentage,70
;   supportLayerInterval,1
;   supportHorizontalPartOffset,0.3
;   supportUpperSeparationLayers,1
;   supportLowerSeparationLayers,1
;   supportType,0
;   supportGridSpacing,4
;   maxOverhangAngle,45
;   supportAngles,0
;   temperatureName,Primary Extruder
;   temperatureNumber,0
;   temperatureSetpointCount,1
;   temperatureSetpointLayers,1
;   temperatureSetpointTemperatures,200
;   temperatureStabilizeAtStartup,0
;   temperatureHeatedBed,0
;   fanLayers,1,2
;   fanSpeeds,0,100
;   blipFanToFullPower,0
;   adjustSpeedForCooling,1
;   minSpeedLayerTime,15
;   minCoolingSpeedSlowdown,20
;   increaseFanForCooling,0
;   minFanLayerTime,45
;   maxCoolingFanSpeed,100
;   increaseFanForBridging,0
;   bridgingFanSpeed,100
;   use5D,1
;   relativeEdistances,0
;   allowEaxisZeroing,1
;   independentExtruderAxes,1
;   includeM10123,0
;   stickySupport,1
;   applyToolheadOffsets,0
;   gcodeXoffset,0
;   gcodeYoffset,0
;   gcodeZoffset,0
;   overrideMachineDefinition,1
;   machineTypeOverride,0
;   strokeXoverride,140
;   strokeYoverride,140
;   strokeZoverride,140
;   originOffsetXoverride,70
;   originOffsetYoverride,70
;   originOffsetZoverride,0
;   homeXdirOverride,1
;   homeYdirOverride,1
;   homeZdirOverride,-1
;   flipXoverride,1
;   flipYoverride,-1
;   flipZoverride,1
;   toolheadOffsets,0,0|0,0|0,0|0,0|0,0|0,0
;   overrideFirmwareConfiguration,1
;   firmwareTypeOverride,FlashForge Dreamer Firmware
;   GPXconfigOverride,r2
;   baudRateOverride,115200
;   overridePrinterModels,1
;   printerModelsOverride
;   startingGcode,M146 r255 g0 b0 ; Set lights to red while preheating,M907 X100 Y100 Z40 A100 B100 ; Set motor current,M132 X Y Z A B ; Recall home offsets,G28 ; Home axes,G1 Z100 F3300 ; Lower Z,G1 X-70 Y-70 F6000 ; Move to wait position,M7 ; Wait for bed to stabilize,M6 T0 ; Wait for right extruder to reach target temp,G1 X-68 Y-68 F9000 ; Move to front left corner of bed,G1 Z0.3 F6000 ; Move down to purge,G92 E0 ; Zero extruders,G1 X50 Y-68 E20 F2000 ; Extrude a line of filament across the front edge of the bed,G1 X60 Y-68 F180 ; Wait for ooze,G1 X68 Y-68 F5000 ; Fast wipe,G1 Z1 F100 ; Lift,G92 E0 ; Zero extruders again,M146 r255 g255 b255 ; Turn lights on for print,G1 Z0.5 F3300 ; Position nozzle
;   layerChangeGcode,
;   retractionGcode,
;   toolChangeGcode,
;   endingGcode,M104 S0 T0 ; cool down extruder,G1 Z140 F3300 ; send Z axis to bottom of machine,M107 ; disable cooling fan,G28 X0 Y0 ; home XY axes,M146 r0 g0 b0 ; Turn lights off,M18 ; disable stepper
;   exportFileFormat,gcode
;   celebration,0
;   celebrationSong,Random Song
;   postProcessing,{EXTENSION "g"}
;   defaultSpeed,3000
;   outlineUnderspeed,0.5
;   solidInfillUnderspeed,0.8
;   supportUnderspeed,0.8
;   rapidXYspeed,4800
;   rapidZspeed,1000
;   minBridgingArea,50
;   bridgingExtraInflation,0
;   bridgingExtrusionMultiplier,1
;   bridgingSpeedMultiplier,1
;   useFixedBridgingAngle,0
;   fixedBridgingAngle,0
;   applyBridgingToPerimeters,0
;   filamentDiameters,1.75|1.75|1.75|1.75|1.75|1.75
;   filamentPricesPerKg,46|46|46|46|46|46
;   filamentDensities,1.25|1.25|1.25|1.25|1.25|1.25
;   useMinPrintHeight,0
;   minPrintHeight,0
;   useMaxPrintHeight,0
;   maxPrintHeight,0
;   useDiaphragm,0
;   diaphragmLayerInterval,20
;   robustSlicing,1
;   mergeAllIntoSolid,0
;   onlyRetractWhenCrossingOutline,1
;   retractBetweenLayers,1
;   useRetractionMinTravel,0
;   retractionMinTravel,3
;   retractWhileWiping,0
;   onlyWipeOutlines,1
;   avoidCrossingOutline,0
;   maxMovementDetourFactor,3
;   toolChangeRetractionDistance,12
;   toolChangeExtraRestartDistance,-0.5
;   toolChangeRetractionSpeed,600
;   externalThinWallType,0
;   internalThinWallType,2
;   thinWallAllowedOverlapPercentage,10
;   singleExtrusionMinLength,1
;   singleExtrusionMinPrintingWidthPercentage,50
;   singleExtrusionMaxPrintingWidthPercentage,200
;   singleExtrusionEndpointExtension,0.2
;   horizontalSizeCompensation,0
G90
M82
M107
M104 S200 T0
M146 r255 g0 b0 ; Set lights to red while preheating
M907 X100 Y100 Z40 A100 B100 ; Set motor current
M132 X Y Z A B ; Recall home offsets
G28 ; Home axes
G1 Z100 F3300 ; Lower Z
G1 X-70 Y-70 F6000 ; Move to wait position
M7 ; Wait for bed to stabilize
M6 T0 ; Wait for right extruder to reach target temp
G1 X-68 Y-68 F9000 ; Move to front left corner of bed
G1 Z0.3 F6000 ; Move down to purge
G92 E0 ; Zero extruders
G1 X50 Y-68 E20 F2000 ; Extrude a line of filament across the front edge of the bed
G1 X60 Y-68 F180 ; Wait for ooze
G1 X68 Y-68 F5000 ; Fast wipe
G1 Z1 F100 ; Lift
G92 E0 ; Zero extruders again
M146 r255 g255 b255 ; Turn lights on for print
G1 Z0.5 F3300 ; Position nozzle
; process Medium Quality
; layer 1, Z = 0.450
M108 T0
G92 E0.0000
G1 E-1.0000 F1800
; feature skirt
; tool H0.450 W0.500
G1 Z0.450 F1000
G1 X1.419 Y42.750 F4800
G1 E0.0000 F1800
G92 E0.0000
G1 X0.887 Y42.970 E0.0484 F900
G1 X-5.887 Y42.970 E0.6188
G1 X-6.419 Y42.750 E0.6672
G1 X-47.687 Y42.750 E4.1416
G1 X-49.433 Y42.027 E4.3007
G1 X-52.527 Y38.933 E4.6690
G1 X-53.250 Y37.187 E4.8281
G1 X-53.250 Y12.813 E6.8802
G1 X-53.121 Y12.500 E6.9087
G1 X-53.250 Y12.187 E6.9372
G1 X-53.250 Y-12.187 E8.9893
G1 X-52.527 Y-13.933 E9.1484
G1 X-51.970 Y-14.490 E9.2147
G1 X-51.970 Y-37.407 E11.1441
G1 X-51.247 Y-39.153 E11.3032
G1 X-48.153 Y-42.247 E11.6715
G1 X-46.407 Y-42.970 E11.8306
G1 X41.437 Y-42.970 E19.2262
G1 X41.969 Y-42.750 E19.2746
G1 X44.537 Y-42.750 E19.4909
G1 X46.283 Y-42.027 E19.6500
G1 X49.377 Y-38.933 E20.0183
G1 X50.100 Y-37.187 E20.1774
G1 X50.100 Y-36.300 E20.2521
G1 X51.247 Y-35.153 E20.3887
G1 X51.970 Y-33.407 E20.5478
G1 X51.970 Y-16.593 E21.9634
G1 X51.354 Y-15.106 E22.0989
G1 X52.527 Y-13.933 E22.2385
G1 X53.250 Y-12.187 E22.3976
G1 X53.250 Y12.187 E24.4497
G1 X53.121 Y12.500 E24.4782
G1 X53.250 Y12.813 E24.5067
G1 X53.250 Y37.187 E26.5588
G1 X52.527 Y38.933 E26.7179
G1 X49.433 Y42.027 E27.0862
G1 X47.687 Y42.750 E27.2453
G1 X44.869 Y42.750 E27.4826
G1 X44.337 Y42.970 E27.5310
G1 X37.593 Y42.970 E28.0989
G1 X37.061 Y42.750 E28.1473
G1 X1.419 Y42.750 E31.1480
G92 E0.0000
G1 E-1.0000 F1800
G1 X1.319 Y42.250 F4800
G1 E0.0000 F1800
G92 E0.0000
G1 X0.788 Y42.470 E0.0484 F900
G1 X-5.788 Y42.470 E0.6020
G1 X-6.319 Y42.250 E0.6504
G1 X-47.588 Y42.250 E4.1248
G1 X-49.150 Y41.603 E4.2672
G1 X-52.103 Y38.650 E4.6188
G1 X-52.750 Y37.088 E4.7611
G1 X-52.750 Y12.912 E6.7965
G1 X-52.579 Y12.500 E6.8340
G1 X-52.750 Y12.088 E6.8716
G1 X-52.750 Y-12.088 E8.9069
G1 X-52.103 Y-13.650 E9.0493
G1 X-51.470 Y-14.283 E9.1247
G1 X-51.470 Y-37.308 E11.0631
G1 X-50.823 Y-38.870 E11.2055
G1 X-47.870 Y-41.823 E11.5570
G1 X-46.308 Y-42.470 E11.6994
G1 X41.338 Y-42.470 E19.0783
G1 X41.869 Y-42.250 E19.1267
G1 X44.438 Y-42.250 E19.3430
G1 X46.000 Y-41.603 E19.4853
G1 X48.953 Y-38.650 E19.8369
G1 X49.600 Y-37.088 E19.9792
G1 X49.600 Y-36.093 E20.0630
G1 X50.823 Y-34.870 E20.2086
G1 X51.470 Y-33.308 E20.3509
G1 X51.470 Y-16.692 E21.7498
G1 X50.823 Y-15.130 E21.8922
G1 X50.723 Y-15.030 E21.9041
G1 X52.103 Y-13.650 E22.0684
G1 X52.750 Y-12.088 E22.2107
G1 X52.750 Y12.088 E24.2461
G1 X52.579 Y12.500 E24.2836
G1 X52.750 Y12.912 E24.3212
G1 X52.750 Y37.088 E26.3566
G1 X52.103 Y38.650 E26.4989
G1 X49.150 Y41.603 E26.8505
G1 X47.588 Y42.250 E26.9928
G1 X44.769 Y42.250 E27.2301
G1 X44.238 Y42.470 E27.2785
G1 X37.692 Y42.470 E27.8297
G1 X37.161 Y42.250 E27.8780
G1 X1.319 Y42.250 E30.8956
G92 E0.0000
G1 E-1.0000 F1800
; feature raft
; tool H0.450 W0.800
G1 X-0.223 Y37.820 F4800
G1 E0.0000 F1800
G92 E0.0000
G1 X-4.777 Y37.820 E0.6134 F225
G1 X-4.997 Y37.600 E0.6553
G1 X-39.577 Y37.600 E5.3134
G1 X-40.000 Y37.177 E5.3940
G1 X-40.423 Y37.600 E5.4746
G1 X-46.577 Y37.600 E6.3035
G1 X-48.100 Y36.077 E6.5937
G1 X-48.100 Y13.923 E9.5779
G1 X-46.677 Y12.500 E9.8490
G1 X-48.100 Y11.077 E10.1201
G1 X-48.100 Y-11.077 E13.1043
G1 X-46.577 Y-12.600 E13.3944
G1 X-45.717 Y-12.600 E13.5103
G1 X-46.820 Y-13.703 E13.7204
G1 X-46.820 Y-36.297 E16.7639
G1 X-45.297 Y-37.820 E17.0540
G1 X-40.623 Y-37.820 E17.6836
G1 X-40.403 Y-37.600 E17.7255
G1 X-39.597 Y-37.600 E17.8341
G1 X-39.377 Y-37.820 E17.8760
G1 X-3.123 Y-37.820 E22.7595
G1 X-2.903 Y-37.600 E22.8014
G1 X-1.517 Y-37.600 E22.9881
G1 X-1.297 Y-37.820 E23.0301
G1 X40.327 Y-37.820 E28.6369
G1 X40.547 Y-37.600 E28.6789
G1 X43.427 Y-37.600 E29.0668
G1 X44.950 Y-36.077 E29.3569
G1 X44.950 Y-33.820 E29.6610
G1 X45.297 Y-33.820 E29.7077
G1 X46.820 Y-32.297 E29.9978
G1 X46.820 Y-17.703 E31.9637
G1 X45.297 Y-16.180 E32.2538
G1 X44.950 Y-16.180 E32.3006
G1 X44.950 Y-13.923 E32.6046
G1 X43.627 Y-12.600 E32.8566
G1 X46.577 Y-12.600 E33.2540
G1 X48.100 Y-11.077 E33.5441
G1 X48.100 Y11.077 E36.5284
G1 X46.677 Y12.500 E36.7994
G1 X48.100 Y13.923 E37.0705
G1 X48.100 Y36.077 E40.0547
G1 X46.577 Y37.600 E40.3449
G1 X43.447 Y37.600 E40.7665
G1 X43.227 Y37.820 E40.8084
G1 X38.703 Y37.820 E41.4178
G1 X38.483 Y37.600 E41.4597
G1 X-0.003 Y37.600 E46.6439
G1 X-0.223 Y37.820 E46.6858
G92 E0.0000
G1 E-1.0000 F1800
G1 X1.180 Y28.180 F4800
G1 E0.0000 F1800
G92 E0.0000
G1 X1.180 Y21.820 E0.8567 F225
G1 X-5.297 Y21.820 E1.7292
G1 X-6.467 Y20.650 E1.9521
G1 X-9.180 Y20.650 E2.3175
G1 X-9.180 Y29.350 E3.4894
G1 X-6.467 Y29.350 E3.8549
G1 X-5.297 Y28.180 E4.0778
G1 X1.180 Y28.180 E4.9503
G92 E0.0000
G1 E-1.0000 F1800
G1 X10.820 Y29.350 F4800
G1 E0.0000 F1800
G92 E0.0000
G1 X21.180 Y29.350 E1.3955 F225
G1 X21.180 Y20.650 E2.5675
G1 X10.820 Y20.650 E3.9630
G1 X10.820 Y29.350 E5.1349
G92 E0.0000
G1 E-1.0000 F1800
G1 X30.820 Y29.350 F4800
G1 E0.0000 F1800
G92 E0.0000
G1 X37.533 Y29.350 E0.9043 F225
G1 X38.703 Y28.180 E1.1272
G1 X39.850 Y28.180 E1.2817
G1 X39.850 Y21.820 E2.1384
G1 X38.703 Y21.820 E2.2929
G1 X37.533 Y20.650 E2.5157
G1 X30.820 Y20.650 E3.4200
G1 X30.820 Y29.350 E4.5919
G92 E0.0000
G1 E-1.0000 F1800
G1 X-18.820 Y29.350 F4800
G1 E0.0000 F1800
G92 E0.0000
G1 X-18.820 Y20.650 E1.1719 F225
G1 X-28.850 Y20.650 E2.5230
G1 X-28.850 Y29.350 E3.6949
G1 X-18.820 Y29.350 E5.0460
G92 E0.0000
G1 E-1.0000 F1800
G1 X-18.140 Y29.714 F4800
G1 E0.0000 F1800
G92 E0.0000
G1 X-9.860 Y29.714 E1.1153 F225
G1 X-9.860 Y27.429 E1.4232
G1 X-18.140 Y27.429 E2.5386
G1 X-18.140 Y25.143 E2.8465
G1 X-9.860 Y25.143 E3.9618
G1 X-9.860 Y22.857 E4.2697
G1 X-18.140 Y22.857 E5.3851
G92 E0.0000
G1 E-1.0000 F1800
G1 X-5.870 Y29.714 F4800
G1 E0.0000 F1800
G92 E0.0000
G1 X10.140 Y29.714 E2.1565 F225
G1 X10.140 Y27.429 E2.4644
G1 X1.860 Y27.429 E3.5798
G1 X1.860 Y25.143 E3.8877
G1 X10.140 Y25.143 E5.0030
G1 X10.140 Y22.857 E5.3109
G1 X1.860 Y22.857 E6.4263
G92 E0.0000
G1 E-1.0000 F1800
G1 X21.860 Y22.857 F4800
G1 E0.0000 F1800
G92 E0.0000
G1 X30.140 Y22.857 E1.1153 F225
G1 X30.140 Y25.143 E1.4232
G1 X21.860 Y25.143 E2.5386
G1 X21.860 Y27.429 E2.8465
G1 X30.140 Y27.429 E3.9618
G1 X30.140 Y29.714 E4.2697
G1 X21.860 Y29.714 E5.3851
G92 E0.0000
G1 E-1.0000 F1800
G1 X38.130 Y29.714 F4800
G1 E0.0000 F1800
G92 E0.0000
G1 X47.420 Y29.714 E1.2513 F225
G1 X47.420 Y27.429 E1.5592
G1 X40.530 Y27.429 E2.4873
G1 X40.530 Y25.143 E2.7952
G1 X47.420 Y25.143 E3.7233
G1 X47.420 Y22.857 E4.0312
G1 X40.530 Y22.857 E4.9593
G92 E0.0000
G1 E-1.0000 F1800
G1 X46.644 Y36.571 F4800
G1 E0.0000 F1800
G92 E0.0000
G1 X-39.644 Y36.571 E11.6233 F225
G1 X-40.000 Y36.215 E11.6911
G1 X-40.356 Y36.571 E11.7590
G1 X-46.644 Y36.571 E12.6059
G1 X-47.420 Y35.795 E12.7538
G1 X-47.420 Y34.286 E12.9571
G1 X47.420 Y34.286 E25.7324
G1 X47.420 Y32.000 E26.0403
G1 X-47.420 Y32.000 E38.8156
G1 X-47.420 Y29.714 E39.1235
G1 X-29.530 Y29.714 E41.5333
G1 X-29.530 Y27.429 E41.8412
G1 X-47.420 Y27.429 E44.2511
G1 X-47.420 Y25.143 E44.5590
G1 X-29.530 Y25.143 E46.9688
G1 X-29.530 Y22.857 E47.2767
G1 X-47.420 Y22.857 E49.6866
G1 X-47.420 Y20.571 E49.9944
G1 X-29.530 Y20.571 E52.4043
G1 X-29.530 Y19.970 E52.4853
G1 X-18.140 Y19.970 E54.0196
G1 X-18.140 Y20.571 E54.1006
G1 X-9.860 Y20.571 E55.2160
G1 X-9.860 Y19.970 E55.2970
G1 X-6.185 Y19.970 E55.7920
G1 X-5.584 Y20.571 E55.9065
G1 X10.140 Y20.571 E58.0246
G1 X10.140 Y19.970 E58.1056
G1 X21.860 Y19.970 E59.6843
G1 X21.860 Y20.571 E59.7654
G1 X30.140 Y20.571 E60.8807
G1 X30.140 Y19.970 E60.9617
G1 X37.815 Y19.970 E61.9955
G1 X38.416 Y20.571 E62.1101
G1 X47.420 Y20.571 E63.3230
G1 X47.420 Y18.286 E63.6308
G1 X-47.420 Y18.286 E76.4061
G1 X-47.420 Y16.000 E76.7140
G1 X47.420 Y16.000 E89.4893
G1 X47.420 Y14.205 E89.7311
G1 X46.930 Y13.714 E89.8246
G1 X-46.930 Y13.714 E102.4677
G1 X-45.715 Y12.500 E102.6991
G1 X-46.787 Y11.429 E102.9032
G1 X46.787 Y11.429 E115.5078
G1 X47.420 Y10.795 E115.6285
G1 X47.420 Y9.143 E115.8511
G1 X-47.420 Y9.143 E128.6263
G1 X-47.420 Y6.857 E128.9342
G1 X47.420 Y6.857 E141.7095
G1 X47.420 Y4.571 E142.0174
G1 X-47.420 Y4.571 E154.7927
G1 X-47.420 Y2.286 E155.1006
G1 X47.420 Y2.286 E167.8759
G1 X47.420 Y0.000 E168.1838
G1 X-47.420 Y0.000 E180.9591
G1 X-47.420 Y-2.286 E181.2670
G1 X47.420 Y-2.286 E194.0422
G1 X47.420 Y-4.571 E194.3501
G1 X-47.420 Y-4.571 E207.1254
G1 X-47.420 Y-6.857 E207.4333
G1 X47.420 Y-6.857 E220.2086
G1 X47.420 Y-9.143 E220.5165
G1 X-47.420 Y-9.143 E233.2918
G1 X-47.420 Y-10.795 E233.5144
G1 X-46.787 Y-11.429 E233.6350
G1 X46.787 Y-11.429 E246.2397
G1 X46.295 Y-11.920 E246.3333
G1 X41.985 Y-11.920 E246.9139
G1 X43.780 Y-13.714 E247.2557
G1 X-45.870 Y-13.714 E259.3317
G1 X-46.140 Y-13.985 E259.3832
G1 X-46.140 Y-16.000 E259.6547
G1 X44.270 Y-16.000 E271.8333
G1 X44.270 Y-16.860 E271.9491
G1 X45.015 Y-16.860 E272.0495
G1 X46.140 Y-17.985 E272.2638
G1 X46.140 Y-18.286 E272.3043
G1 X-46.140 Y-18.286 E284.7347
G1 X-46.140 Y-20.571 E285.0426
G1 X46.140 Y-20.571 E297.4731
G1 X46.140 Y-22.857 E297.7810
G1 X-46.140 Y-22.857 E310.2114
G1 X-46.140 Y-25.143 E310.5193
G1 X46.140 Y-25.143 E322.9498
G1 X46.140 Y-27.429 E323.2576
G1 X-46.140 Y-27.429 E335.6881
G1 X-46.140 Y-29.714 E335.9960
G1 X46.140 Y-29.714 E348.4264
