; G-Code generated by Simplify3D(R) Version 4.1.2
; Apr 5, 2021 at 8:01:39 PM
; Settings Summary
;   processName,Process1
;   applyToModels,4x1_0_top,4x1_0_bottom
;   profileName,FlashForge Finder (modified)
;   profileVersion,2018-11-09 08:00:00
;   baseProfile,
;   printMaterial,PLA
;   printQuality,Fast
;   printExtruders,
;   extruderName,Primary Extruder
;   extruderToolheadNumber,0
;   extruderDiameter,0.4
;   extruderAutoWidth,0
;   extruderWidth,0.4
;   extrusionMultiplier,0.9
;   extruderUseRetract,1
;   extruderRetractionDistance,1
;   extruderExtraRestartDistance,0
;   extruderRetractionZLift,0
;   extruderRetractionSpeed,1800
;   extruderUseCoasting,0
;   extruderCoastingDistance,0.2
;   extruderUseWipe,0
;   extruderWipeDistance,5
;   primaryExtruder,0
;   layerHeight,0.3
;   topSolidLayers,3
;   bottomSolidLayers,3
;   perimeterOutlines,2
;   printPerimetersInsideOut,1
;   startPointOption,2
;   startPointOriginX,0
;   startPointOriginY,0
;   sequentialIslands,0
;   spiralVaseMode,0
;   firstLayerHeightPercentage,90
;   firstLayerWidthPercentage,125
;   firstLayerUnderspeed,0.3
;   useRaft,1
;   raftExtruder,0
;   raftTopLayers,3
;   raftBaseLayers,2
;   raftOffset,3
;   raftSeparationDistance,0.14
;   raftTopInfill,100
;   aboveRaftSpeedMultiplier,0.3
;   useSkirt,1
;   skirtExtruder,0
;   skirtLayers,1
;   skirtOutlines,2
;   skirtOffset,4
;   usePrimePillar,0
;   primePillarExtruder,999
;   primePillarWidth,12
;   primePillarLocation,7
;   primePillarSpeedMultiplier,1
;   useOozeShield,0
;   oozeShieldExtruder,999
;   oozeShieldOffset,2
;   oozeShieldOutlines,1
;   oozeShieldSidewallShape,1
;   oozeShieldSidewallAngle,30
;   oozeShieldSpeedMultiplier,1
;   infillExtruder,0
;   internalInfillPattern,Rectilinear
;   externalInfillPattern,Rectilinear
;   infillPercentage,15
;   outlineOverlapPercentage,15
;   infillExtrusionWidthPercentage,100
;   minInfillLength,5
;   infillLayerInterval,1
;   internalInfillAngles,45,-45
;   overlapInternalInfillAngles,0
;   externalInfillAngles,45,-45
;   generateSupport,1
;   supportExtruder,0
;   supportInfillPercentage,25
;   supportExtraInflation,0
;   supportBaseLayers,0
;   denseSupportExtruder,0
;   denseSupportLayers,0
;   denseSupportInfillPercentage,70
;   supportLayerInterval,1
;   supportHorizontalPartOffset,0.3
;   supportUpperSeparationLayers,1
;   supportLowerSeparationLayers,1
;   supportType,0
;   supportGridSpacing,4
;   maxOverhangAngle,45
;   supportAngles,0
;   temperatureName,Primary Extruder
;   temperatureNumber,0
;   temperatureSetpointCount,1
;   temperatureSetpointLayers,1
;   temperatureSetpointTemperatures,200
;   temperatureStabilizeAtStartup,0
;   temperatureHeatedBed,0
;   fanLayers,1,2
;   fanSpeeds,0,100
;   blipFanToFullPower,0
;   adjustSpeedForCooling,1
;   minSpeedLayerTime,15
;   minCoolingSpeedSlowdown,20
;   increaseFanForCooling,0
;   minFanLayerTime,45
;   maxCoolingFanSpeed,100
;   increaseFanForBridging,0
;   bridgingFanSpeed,100
;   use5D,1
;   relativeEdistances,0
;   allowEaxisZeroing,1
;   independentExtruderAxes,1
;   includeM10123,0
;   stickySupport,1
;   applyToolheadOffsets,0
;   gcodeXoffset,0
;   gcodeYoffset,0
;   gcodeZoffset,0
;   overrideMachineDefinition,1
;   machineTypeOverride,0
;   strokeXoverride,140
;   strokeYoverride,140
;   strokeZoverride,140
;   originOffsetXoverride,70
;   originOffsetYoverride,70
;   originOffsetZoverride,0
;   homeXdirOverride,1
;   homeYdirOverride,1
;   homeZdirOverride,-1
;   flipXoverride,1
;   flipYoverride,-1
;   flipZoverride,1
;   toolheadOffsets,0,0|0,0|0,0|0,0|0,0|0,0
;   overrideFirmwareConfiguration,1
;   firmwareTypeOverride,FlashForge Dreamer Firmware
;   GPXconfigOverride,r2
;   baudRateOverride,115200
;   overridePrinterModels,1
;   printerModelsOverride
;   startingGcode,M146 r255 g0 b0 ; Set lights to red while preheating,M907 X100 Y100 Z40 A100 B100 ; Set motor current,M132 X Y Z A B ; Recall home offsets,G28 ; Home axes,G1 Z100 F3300 ; Lower Z,G1 X-70 Y-70 F6000 ; Move to wait position,M7 ; Wait for bed to stabilize,M6 T0 ; Wait for right extruder to reach target temp,G1 X-68 Y-68 F9000 ; Move to front left corner of bed,G1 Z0.3 F6000 ; Move down to purge,G92 E0 ; Zero extruders,G1 X50 Y-68 E20 F2000 ; Extrude a line of filament across the front edge of the bed,G1 X60 Y-68 F180 ; Wait for ooze,G1 X68 Y-68 F5000 ; Fast wipe,G1 Z1 F100 ; Lift,G92 E0 ; Zero extruders again,M146 r255 g255 b255 ; Turn lights on for print,G1 Z0.5 F3300 ; Position nozzle
;   layerChangeGcode,
;   retractionGcode,
;   toolChangeGcode,
;   endingGcode,M104 S0 T0 ; cool down extruder,G1 Z140 F3300 ; send Z axis to bottom of machine,M107 ; disable cooling fan,G28 X0 Y0 ; home XY axes,M146 r0 g0 b0 ; Turn lights off,M18 ; disable stepper
;   exportFileFormat,gcode
;   celebration,0
;   celebrationSong,Random Song
;   postProcessing,
;   defaultSpeed,3000
;   outlineUnderspeed,0.5
;   solidInfillUnderspeed,0.8
;   supportUnderspeed,0.8
;   rapidXYspeed,4800
;   rapidZspeed,1000
;   minBridgingArea,50
;   bridgingExtraInflation,0
;   bridgingExtrusionMultiplier,1
;   bridgingSpeedMultiplier,1
;   useFixedBridgingAngle,0
;   fixedBridgingAngle,0
;   applyBridgingToPerimeters,0
;   filamentDiameters,1.75|1.75|1.75|1.75|1.75|1.75
;   filamentPricesPerKg,46|46|46|46|46|46
;   filamentDensities,1.25|1.25|1.25|1.25|1.25|1.25
;   useMinPrintHeight,0
;   minPrintHeight,0
;   useMaxPrintHeight,0
;   maxPrintHeight,0
;   useDiaphragm,0
;   diaphragmLayerInterval,20
;   robustSlicing,1
;   mergeAllIntoSolid,0
;   onlyRetractWhenCrossingOutline,1
;   retractBetweenLayers,1
;   useRetractionMinTravel,0
;   retractionMinTravel,3
;   retractWhileWiping,0
;   onlyWipeOutlines,1
;   avoidCrossingOutline,0
;   maxMovementDetourFactor,3
;   toolChangeRetractionDistance,12
;   toolChangeExtraRestartDistance,-0.5
;   toolChangeRetractionSpeed,600
;   externalThinWallType,0
;   internalThinWallType,2
;   thinWallAllowedOverlapPercentage,10
;   singleExtrusionMinLength,1
;   singleExtrusionMinPrintingWidthPercentage,50
;   singleExtrusionMaxPrintingWidthPercentage,200
;   singleExtrusionEndpointExtension,0.2
;   horizontalSizeCompensation,0
G90
M82
M107
M104 S200 T0
M146 r255 g0 b0 ; Set lights to red while preheating
M907 X100 Y100 Z40 A100 B100 ; Set motor current
M132 X Y Z A B ; Recall home offsets
G28 ; Home axes
G1 Z100 F3300 ; Lower Z
G1 X-70 Y-70 F6000 ; Move to wait position
M7 ; Wait for bed to stabilize
M6 T0 ; Wait for right extruder to reach target temp
G1 X-68 Y-68 F9000 ; Move to front left corner of bed
G1 Z0.3 F6000 ; Move down to purge
G92 E0 ; Zero extruders
G1 X50 Y-68 E20 F2000 ; Extrude a line of filament across the front edge of the bed
G1 X60 Y-68 F180 ; Wait for ooze
G1 X68 Y-68 F5000 ; Fast wipe
G1 Z1 F100 ; Lift
G92 E0 ; Zero extruders again
M146 r255 g255 b255 ; Turn lights on for print
G1 Z0.5 F3300 ; Position nozzle
; process Process1
; layer 1, Z = 0.450
M108 T0
G92 E0.0000
G1 E-1.0000 F1800
; feature skirt
; tool H0.450 W0.500
G1 Z0.450 F1000
G1 X39.531 Y-30.250 F4800
G1 E0.0000 F1800
G92 E0.0000
G1 X40.063 Y-30.470 E0.0484 F900
G1 X46.407 Y-30.470 E0.5826
G1 X46.939 Y-30.250 E0.6310
G1 X50.187 Y-30.250 E0.9045
G1 X51.933 Y-29.527 E1.0636
G1 X55.027 Y-26.433 E1.4319
G1 X55.750 Y-24.687 E1.5910
G1 X55.750 Y-0.313 E3.6431
G1 X55.621 Y0.000 E3.6716
G1 X55.750 Y0.313 E3.7001
G1 X55.750 Y24.687 E5.7522
G1 X55.027 Y26.433 E5.9113
G1 X51.933 Y29.527 E6.2796
G1 X50.187 Y30.250 E6.4387
G1 X-50.187 Y30.250 E14.8893
G1 X-51.933 Y29.527 E15.0483
G1 X-55.027 Y26.433 E15.4167
G1 X-55.750 Y24.687 E15.5758
G1 X-55.750 Y0.313 E17.6279
G1 X-55.621 Y0.000 E17.6564
G1 X-55.750 Y-0.313 E17.6848
G1 X-55.750 Y-24.687 E19.7370
G1 X-55.027 Y-26.433 E19.8960
G1 X-51.933 Y-29.527 E20.2644
G1 X-50.187 Y-30.250 E20.4235
G1 X-48.419 Y-30.250 E20.5724
G1 X-47.887 Y-30.470 E20.6208
G1 X-41.592 Y-30.470 E21.1508
G1 X-41.061 Y-30.250 E21.1992
G1 X39.531 Y-30.250 E27.9842
G92 E0.0000
G1 E-1.0000 F1800
G1 X39.631 Y-29.750 F4800
G1 E0.0000 F1800
G92 E0.0000
G1 X40.162 Y-29.970 E0.0484 F900
G1 X46.308 Y-29.970 E0.5658
G1 X46.839 Y-29.750 E0.6142
G1 X50.088 Y-29.750 E0.8878
G1 X51.650 Y-29.103 E1.0301
G1 X54.603 Y-26.150 E1.3817
G1 X55.250 Y-24.588 E1.5240
G1 X55.250 Y-0.412 E3.5594
G1 X55.079 Y0.000 E3.5969
G1 X55.250 Y0.412 E3.6345
G1 X55.250 Y24.588 E5.6699
G1 X54.603 Y26.150 E5.8122
G1 X51.650 Y29.103 E6.1638
G1 X50.088 Y29.750 E6.3061
G1 X-50.088 Y29.750 E14.7399
G1 X-51.650 Y29.103 E14.8823
G1 X-54.603 Y26.150 E15.2338
G1 X-55.250 Y24.588 E15.3762
G1 X-55.250 Y0.412 E17.4116
G1 X-55.079 Y0.000 E17.4491
G1 X-55.250 Y-0.412 E17.4866
G1 X-55.250 Y-24.588 E19.5220
G1 X-54.603 Y-26.150 E19.6644
G1 X-51.650 Y-29.103 E20.0159
G1 X-50.088 Y-29.750 E20.1583
G1 X-48.319 Y-29.750 E20.3072
G1 X-47.788 Y-29.970 E20.3556
G1 X-41.692 Y-29.970 E20.8688
G1 X-41.161 Y-29.750 E20.9172
G1 X39.631 Y-29.750 E27.7191
G92 E0.0000
G1 E-1.0000 F1800
; feature raft
; tool H0.450 W0.800
G1 X41.173 Y-25.320 F4800
G1 E0.0000 F1800
G92 E0.0000
G1 X45.297 Y-25.320 E0.5555 F225
G1 X45.517 Y-25.100 E0.5974
G1 X49.077 Y-25.100 E1.0770
G1 X50.600 Y-23.577 E1.3671
G1 X50.600 Y-1.423 E4.3513
G1 X49.177 Y0.000 E4.6224
G1 X50.600 Y1.423 E4.8935
G1 X50.600 Y23.577 E7.8777
G1 X49.077 Y25.100 E8.1678
G1 X-49.077 Y25.100 E21.3895
G1 X-50.600 Y23.577 E21.6797
G1 X-50.600 Y1.423 E24.6639
G1 X-49.177 Y0.000 E24.9350
G1 X-50.600 Y-1.423 E25.2061
G1 X-50.600 Y-23.577 E28.1903
G1 X-49.077 Y-25.100 E28.4804
G1 X-46.997 Y-25.100 E28.7606
G1 X-46.777 Y-25.320 E28.8025
G1 X-42.703 Y-25.320 E29.3513
G1 X-42.483 Y-25.100 E29.3932
G1 X-0.423 Y-25.100 E35.0588
G1 X0.000 Y-24.677 E35.1394
G1 X0.423 Y-25.100 E35.2200
G1 X40.953 Y-25.100 E40.6795
G1 X41.173 Y-25.320 E40.7214
G92 E0.0000
G1 E-1.0000 F1800
G1 X37.533 Y-16.850 F4800
G1 E0.0000 F1800
G92 E0.0000
G1 X34.820 Y-16.850 E0.3655 F225
G1 X34.820 Y-8.150 E1.5374
G1 X37.533 Y-8.150 E1.9028
G1 X38.703 Y-9.320 E2.1257
G1 X42.350 Y-9.320 E2.6170
G1 X42.350 Y-15.680 E3.4737
G1 X38.703 Y-15.680 E3.9649
G1 X37.533 Y-16.850 E4.1878
G92 E0.0000
G1 E-1.0000 F1800
G1 X21.180 Y-16.850 F4800
G1 E0.0000 F1800
G92 E0.0000
G1 X14.820 Y-16.850 E0.8567 F225
G1 X14.820 Y-8.150 E2.0286
G1 X21.180 Y-8.150 E2.8853
G1 X21.180 Y-16.850 E4.0573
G92 E0.0000
G1 E-1.0000 F1800
G1 X1.180 Y-16.850 F4800
G1 E0.0000 F1800
G92 E0.0000
G1 X0.423 Y-16.850 E0.1020 F225
G1 X0.000 Y-17.273 E0.1826
G1 X-0.423 Y-16.850 E0.2631
G1 X-5.180 Y-16.850 E0.9039
G1 X-5.180 Y-8.150 E2.0758
G1 X-0.423 Y-8.150 E2.7166
G1 X0.000 Y-7.727 E2.7972
G1 X0.423 Y-8.150 E2.8778
G1 X1.180 Y-8.150 E2.9798
G1 X1.180 Y-16.850 E4.1517
G92 E0.0000
G1 E-1.0000 F1800
G1 X-18.820 Y-16.850 F4800
G1 E0.0000 F1800
G92 E0.0000
G1 X-26.350 Y-16.850 E1.0143 F225
G1 X-26.350 Y-8.150 E2.1862
G1 X-18.820 Y-8.150 E3.2006
G1 X-18.820 Y-16.850 E4.3725
G92 E0.0000
G1 E-1.0000 F1800
G1 X-18.140 Y-13.714 F4800
G1 E0.0000 F1800
G92 E0.0000
G1 X-5.860 Y-13.714 E1.6542 F225
G1 X-5.860 Y-11.429 E1.9621
G1 X-18.140 Y-11.429 E3.6162
G92 E0.0000
G1 E-1.0000 F1800
G1 X0.092 Y-6.857 F4800
G1 E0.0000 F1800
G92 E0.0000
G1 X49.920 Y-6.857 E6.7120 F225
G1 X49.920 Y-9.143 E7.0199
G1 X43.030 Y-9.143 E7.9480
G1 X43.030 Y-8.640 E8.0158
G1 X38.985 Y-8.640 E8.5607
G1 X37.815 Y-7.470 E8.7836
G1 X34.140 Y-7.470 E9.2786
G1 X34.140 Y-9.143 E9.5039
G1 X21.860 Y-9.143 E11.1581
G1 X21.860 Y-7.470 E11.3834
G1 X14.140 Y-7.470 E12.4233
G1 X14.140 Y-9.143 E12.6486
G1 X1.860 Y-9.143 E14.3028
G1 X1.860 Y-11.429 E14.6107
G1 X14.140 Y-11.429 E16.2649
G1 X14.140 Y-13.714 E16.5728
G1 X1.860 Y-13.714 E18.2269
G92 E0.0000
G1 E-1.0000 F1800
G1 X21.860 Y-13.714 F4800
G1 E0.0000 F1800
G92 E0.0000
G1 X34.140 Y-13.714 E1.6542 F225
G1 X34.140 Y-11.429 E1.9621
G1 X21.860 Y-11.429 E3.6162
G92 E0.0000
G1 E-1.0000 F1800
G1 X43.030 Y-11.429 F4800
G1 E0.0000 F1800
G92 E0.0000
G1 X49.920 Y-11.429 E0.9281 F225
G1 X49.920 Y-13.714 E1.2360
G1 X43.030 Y-13.714 E2.1641
G92 E0.0000
G1 E-1.0000 F1800
G1 X49.920 Y22.857 F4800
G1 E0.0000 F1800
G92 E0.0000
G1 X-49.920 Y22.857 E13.4488 F225
G1 X-49.920 Y20.571 E13.7567
G1 X49.920 Y20.571 E27.2055
G1 X49.920 Y18.286 E27.5134
G1 X-49.920 Y18.286 E40.9622
G1 X-49.920 Y16.000 E41.2701
G1 X49.920 Y16.000 E54.7189
G1 X49.920 Y13.714 E55.0268
G1 X-49.920 Y13.714 E68.4756
G1 X-49.920 Y11.429 E68.7835
G1 X49.920 Y11.429 E82.2323
G1 X49.920 Y9.143 E82.5402
G1 X-49.920 Y9.143 E95.9890
G1 X-49.920 Y6.857 E96.2969
G1 X49.920 Y6.857 E109.7457
G1 X49.920 Y4.571 E110.0536
G1 X-49.920 Y4.571 E123.5024
G1 X-49.920 Y2.286 E123.8103
G1 X49.920 Y2.286 E137.2591
G1 X49.920 Y1.705 E137.3373
G1 X48.215 Y0.000 E137.6621
G1 X-48.215 Y0.000 E150.6516
G1 X-49.920 Y-1.705 E150.9764
G1 X-49.920 Y-2.286 E151.0546
G1 X49.920 Y-2.286 E164.5034
G1 X49.920 Y-4.571 E164.8113
G1 X-49.920 Y-4.571 E178.2601
G1 X-49.920 Y-6.857 E178.5680
G1 X-0.092 Y-6.857 E185.2800
G1 X-0.705 Y-7.470 E185.3968
G1 X-5.860 Y-7.470 E186.0912
G1 X-5.860 Y-9.143 E186.3166
G1 X-18.140 Y-9.143 E187.9707
G1 X-18.140 Y-7.470 E188.1961
G1 X-27.030 Y-7.470 E189.3936
G1 X-27.030 Y-9.143 E189.6189
G1 X-49.920 Y-9.143 E192.7023
G1 X-49.920 Y-11.429 E193.0102
G1 X-27.030 Y-11.429 E196.0935
G1 X-27.030 Y-13.714 E196.4014
G1 X-49.920 Y-13.714 E199.4848
G1 X-49.920 Y-16.000 E199.7927
G1 X-27.030 Y-16.000 E202.8761
G1 X-27.030 Y-17.530 E203.0822
G1 X-18.140 Y-17.530 E204.2797
G1 X-18.140 Y-16.000 E204.4858
G1 X-5.860 Y-16.000 E206.1399
G1 X-5.860 Y-17.530 E206.3460
G1 X-0.705 Y-17.530 E207.0405
G1 X0.000 Y-18.235 E207.1747
G1 X0.705 Y-17.530 E207.3090
G1 X1.860 Y-17.530 E207.4646
G1 X1.860 Y-16.000 E207.6707
G1 X14.140 Y-16.000 E209.3248
G1 X14.140 Y-17.530 E209.5309
G1 X21.860 Y-17.530 E210.5708
G1 X21.860 Y-16.000 E210.7769
G1 X34.140 Y-16.000 E212.4311
G1 X34.140 Y-17.530 E212.6372
G1 X37.815 Y-17.530 E213.1322
G1 X38.985 Y-16.360 E213.3551
G1 X43.030 Y-16.360 E213.9000
G1 X43.030 Y-16.000 E213.9485
G1 X49.920 Y-16.000 E214.8766
G1 X49.920 Y-18.286 E215.1845
G1 X-49.920 Y-18.286 E228.6333
G1 X-49.920 Y-20.571 E228.9412
G1 X49.920 Y-20.571 E242.3900
G1 X49.920 Y-22.857 E242.6979
G1 X-49.920 Y-22.857 E256.1467
G92 E0.0000
G1 E-1.0000 F1800
; layer 2, Z = 0.950
M106 S255
; tool H0.500 W0.800
G1 Z0.950 F1000
G1 X-50.600 Y-23.577 F4800
G1 E0.0000 F1800
G92 E0.0000
G1 X-49.077 Y-25.100 E0.3224 F750
G1 X-46.997 Y-25.100 E0.6337
G1 X-46.777 Y-25.320 E0.6803
G1 X-42.703 Y-25.320 E1.2900
G1 X-42.483 Y-25.100 E1.3366
G1 X-0.423 Y-25.100 E7.6317
G1 X0.000 Y-24.677 E7.7213
G1 X0.423 Y-25.100 E7.8108
G1 X40.953 Y-25.100 E13.8770
G1 X41.173 Y-25.320 E13.9235
G1 X45.297 Y-25.320 E14.5408
G1 X45.517 Y-25.100 E14.5873
G1 X49.077 Y-25.100 E15.1201
G1 X50.600 Y-23.577 E15.4425
G1 X50.600 Y-1.423 E18.7583
G1 X49.177 Y0.000 E19.0595
G1 X50.600 Y1.423 E19.3607
G1 X50.600 Y23.577 E22.6765
G1 X49.077 Y25.100 E22.9989
G1 X-49.077 Y25.100 E37.6897
G1 X-50.600 Y23.577 E38.0120
G1 X-50.600 Y1.423 E41.3278
G1 X-49.177 Y0.000 E41.6290
G1 X-50.600 Y-1.423 E41.9302
G1 X-50.600 Y-23.577 E45.2460
G92 E0.0000
G1 E-1.0000 F1800
G1 X-26.350 Y-16.850 F4800
G1 E0.0000 F1800
G92 E0.0000
G1 X-26.350 Y-8.150 E1.3021 F750
G1 X-18.820 Y-8.150 E2.4292
G1 X-18.820 Y-16.850 E3.7313
G1 X-26.350 Y-16.850 E4.8583
G92 E0.0000
G1 E-1.0000 F1800
G1 X-5.180 Y-16.850 F4800
G1 E0.0000 F1800
G92 E0.0000
G1 X-5.180 Y-8.150 E1.3021 F750
G1 X-0.423 Y-8.150 E2.0141
G1 X0.000 Y-7.727 E2.1037
G1 X0.423 Y-8.150 E2.1932
G1 X1.180 Y-8.150 E2.3065
G1 X1.180 Y-16.850 E3.6086
G1 X0.423 Y-16.850 E3.7219
G1 X0.000 Y-17.273 E3.8115
G1 X-0.423 Y-16.850 E3.9010
G1 X-5.180 Y-16.850 E4.6130
G92 E0.0000
G1 E-1.0000 F1800
G1 X14.820 Y-16.850 F4800
G1 E0.0000 F1800
G92 E0.0000
G1 X14.820 Y-8.150 E1.3021 F750
G1 X21.180 Y-8.150 E2.2540
G1 X21.180 Y-16.850 E3.5562
G1 X14.820 Y-16.850 E4.5081
G92 E0.0000
G1 E-1.0000 F1800
G1 X34.820 Y-16.850 F4800
G1 E0.0000 F1800
G92 E0.0000
G1 X34.820 Y-8.150 E1.3021 F750
G1 X37.533 Y-8.150 E1.7082
G1 X38.703 Y-9.320 E1.9558
G1 X42.350 Y-9.320 E2.5017
G1 X42.350 Y-15.680 E3.4536
G1 X38.703 Y-15.680 E3.9994
G1 X37.533 Y-16.850 E4.2471
G1 X34.820 Y-16.850 E4.6531
G92 E0.0000
G1 E-1.0000 F1800
