; G-Code generated by Simplify3D(R) Version 4.1.2
; Apr 6, 2021 at 9:50:27 AM
; Settings Summary
;   processName,Medium Quality
;   applyToModels,4x1_2_bottom_angle,4x1_2_top
;   profileName,FlashForge Finder (modified)
;   profileVersion,2021-04-05 22:03:25
;   baseProfile,
;   printMaterial,PLA
;   printQuality,Fast
;   printExtruders,
;   extruderName,Primary Extruder
;   extruderToolheadNumber,0
;   extruderDiameter,0.4
;   extruderAutoWidth,0
;   extruderWidth,0.4
;   extrusionMultiplier,0.9
;   extruderUseRetract,1
;   extruderRetractionDistance,1
;   extruderExtraRestartDistance,0
;   extruderRetractionZLift,0
;   extruderRetractionSpeed,1800
;   extruderUseCoasting,0
;   extruderCoastingDistance,0.2
;   extruderUseWipe,0
;   extruderWipeDistance,5
;   primaryExtruder,0
;   layerHeight,0.3
;   topSolidLayers,3
;   bottomSolidLayers,3
;   perimeterOutlines,2
;   printPerimetersInsideOut,1
;   startPointOption,2
;   startPointOriginX,0
;   startPointOriginY,0
;   sequentialIslands,0
;   spiralVaseMode,0
;   firstLayerHeightPercentage,90
;   firstLayerWidthPercentage,125
;   firstLayerUnderspeed,0.3
;   useRaft,1
;   raftExtruder,0
;   raftTopLayers,3
;   raftBaseLayers,2
;   raftOffset,3
;   raftSeparationDistance,0.14
;   raftTopInfill,100
;   aboveRaftSpeedMultiplier,0.3
;   useSkirt,1
;   skirtExtruder,0
;   skirtLayers,1
;   skirtOutlines,2
;   skirtOffset,4
;   usePrimePillar,0
;   primePillarExtruder,999
;   primePillarWidth,12
;   primePillarLocation,7
;   primePillarSpeedMultiplier,1
;   useOozeShield,0
;   oozeShieldExtruder,999
;   oozeShieldOffset,2
;   oozeShieldOutlines,1
;   oozeShieldSidewallShape,1
;   oozeShieldSidewallAngle,30
;   oozeShieldSpeedMultiplier,1
;   infillExtruder,0
;   internalInfillPattern,Rectilinear
;   externalInfillPattern,Rectilinear
;   infillPercentage,50
;   outlineOverlapPercentage,15
;   infillExtrusionWidthPercentage,100
;   minInfillLength,5
;   infillLayerInterval,1
;   internalInfillAngles,45,-45
;   overlapInternalInfillAngles,0
;   externalInfillAngles,45,-45
;   generateSupport,1
;   supportExtruder,0
;   supportInfillPercentage,15
;   supportExtraInflation,0
;   supportBaseLayers,0
;   denseSupportExtruder,0
;   denseSupportLayers,0
;   denseSupportInfillPercentage,70
;   supportLayerInterval,1
;   supportHorizontalPartOffset,0.3
;   supportUpperSeparationLayers,1
;   supportLowerSeparationLayers,1
;   supportType,0
;   supportGridSpacing,4
;   maxOverhangAngle,45
;   supportAngles,0
;   temperatureName,Primary Extruder
;   temperatureNumber,0
;   temperatureSetpointCount,1
;   temperatureSetpointLayers,1
;   temperatureSetpointTemperatures,200
;   temperatureStabilizeAtStartup,0
;   temperatureHeatedBed,0
;   fanLayers,1,2
;   fanSpeeds,0,100
;   blipFanToFullPower,0
;   adjustSpeedForCooling,1
;   minSpeedLayerTime,15
;   minCoolingSpeedSlowdown,20
;   increaseFanForCooling,0
;   minFanLayerTime,45
;   maxCoolingFanSpeed,100
;   increaseFanForBridging,0
;   bridgingFanSpeed,100
;   use5D,1
;   relativeEdistances,0
;   allowEaxisZeroing,1
;   independentExtruderAxes,1
;   includeM10123,0
;   stickySupport,1
;   applyToolheadOffsets,0
;   gcodeXoffset,0
;   gcodeYoffset,0
;   gcodeZoffset,0
;   overrideMachineDefinition,1
;   machineTypeOverride,0
;   strokeXoverride,140
;   strokeYoverride,140
;   strokeZoverride,140
;   originOffsetXoverride,70
;   originOffsetYoverride,70
;   originOffsetZoverride,0
;   homeXdirOverride,1
;   homeYdirOverride,1
;   homeZdirOverride,-1
;   flipXoverride,1
;   flipYoverride,-1
;   flipZoverride,1
;   toolheadOffsets,0,0|0,0|0,0|0,0|0,0|0,0
;   overrideFirmwareConfiguration,1
;   firmwareTypeOverride,FlashForge Dreamer Firmware
;   GPXconfigOverride,r2
;   baudRateOverride,115200
;   overridePrinterModels,1
;   printerModelsOverride
;   startingGcode,M146 r255 g0 b0 ; Set lights to red while preheating,M907 X100 Y100 Z40 A100 B100 ; Set motor current,M132 X Y Z A B ; Recall home offsets,G28 ; Home axes,G1 Z100 F3300 ; Lower Z,G1 X-70 Y-70 F6000 ; Move to wait position,M7 ; Wait for bed to stabilize,M6 T0 ; Wait for right extruder to reach target temp,G1 X-68 Y-68 F9000 ; Move to front left corner of bed,G1 Z0.3 F6000 ; Move down to purge,G92 E0 ; Zero extruders,G1 X50 Y-68 E20 F2000 ; Extrude a line of filament across the front edge of the bed,G1 X60 Y-68 F180 ; Wait for ooze,G1 X68 Y-68 F5000 ; Fast wipe,G1 Z1 F100 ; Lift,G92 E0 ; Zero extruders again,M146 r255 g255 b255 ; Turn lights on for print,G1 Z0.5 F3300 ; Position nozzle
;   layerChangeGcode,
;   retractionGcode,
;   toolChangeGcode,
;   endingGcode,M104 S0 T0 ; cool down extruder,G1 Z140 F3300 ; send Z axis to bottom of machine,M107 ; disable cooling fan,G28 X0 Y0 ; home XY axes,M146 r0 g0 b0 ; Turn lights off,M18 ; disable stepper
;   exportFileFormat,gcode
;   celebration,0
;   celebrationSong,Random Song
;   postProcessing,
;   defaultSpeed,3000
;   outlineUnderspeed,0.5
;   solidInfillUnderspeed,0.8
;   supportUnderspeed,0.8
;   rapidXYspeed,4800
;   rapidZspeed,1000
;   minBridgingArea,50
;   bridgingExtraInflation,0
;   bridgingExtrusionMultiplier,1
;   bridgingSpeedMultiplier,1
;   useFixedBridgingAngle,0
;   fixedBridgingAngle,0
;   applyBridgingToPerimeters,0
;   filamentDiameters,1.75|1.75|1.75|1.75|1.75|1.75
;   filamentPricesPerKg,46|46|46|46|46|46
;   filamentDensities,1.25|1.25|1.25|1.25|1.25|1.25
;   useMinPrintHeight,0
;   minPrintHeight,0
;   useMaxPrintHeight,0
;   maxPrintHeight,0
;   useDiaphragm,0
;   diaphragmLayerInterval,20
;   robustSlicing,1
;   mergeAllIntoSolid,0
;   onlyRetractWhenCrossingOutline,1
;   retractBetweenLayers,1
;   useRetractionMinTravel,0
;   retractionMinTravel,3
;   retractWhileWiping,0
;   onlyWipeOutlines,1
;   avoidCrossingOutline,0
;   maxMovementDetourFactor,3
;   toolChangeRetractionDistance,12
;   toolChangeExtraRestartDistance,-0.5
;   toolChangeRetractionSpeed,600
;   externalThinWallType,0
;   internalThinWallType,2
;   thinWallAllowedOverlapPercentage,10
;   singleExtrusionMinLength,1
;   singleExtrusionMinPrintingWidthPercentage,50
;   singleExtrusionMaxPrintingWidthPercentage,200
;   singleExtrusionEndpointExtension,0.2
;   horizontalSizeCompensation,0
G90
M82
M107
M104 S200 T0
M146 r255 g0 b0 ; Set lights to red while preheating
M907 X100 Y100 Z40 A100 B100 ; Set motor current
M132 X Y Z A B ; Recall home offsets
G28 ; Home axes
G1 Z100 F3300 ; Lower Z
G1 X-70 Y-70 F6000 ; Move to wait position
M7 ; Wait for bed to stabilize
M6 T0 ; Wait for right extruder to reach target temp
G1 X-68 Y-68 F9000 ; Move to front left corner of bed
G1 Z0.3 F6000 ; Move down to purge
G92 E0 ; Zero extruders
G1 X50 Y-68 E20 F2000 ; Extrude a line of filament across the front edge of the bed
G1 X60 Y-68 F180 ; Wait for ooze
G1 X68 Y-68 F5000 ; Fast wipe
G1 Z1 F100 ; Lift
G92 E0 ; Zero extruders again
M146 r255 g255 b255 ; Turn lights on for print
G1 Z0.5 F3300 ; Position nozzle
; process Medium Quality
; layer 1, Z = 0.450
M108 T0
G92 E0.0000
G1 E-1.0000 F1800
; feature skirt
; tool H0.450 W0.500
G1 Z0.450 F1000
G1 X0.419 Y33.297 F4800
G1 E0.0000 F1800
G92 E0.0000
G1 X-0.113 Y33.517 E0.0484 F900
G1 X-6.887 Y33.517 E0.6188
G1 X-7.419 Y33.297 E0.6672
G1 X-48.687 Y33.297 E4.1416
G1 X-50.433 Y32.574 E4.3007
G1 X-53.527 Y29.480 E4.6690
G1 X-54.250 Y27.734 E4.8281
G1 X-54.250 Y3.360 E6.8802
G1 X-53.527 Y1.614 E7.0393
G1 X-52.310 Y0.397 E7.1842
G1 X-54.231 Y-21.785 E9.0587
G1 X-54.238 Y-21.888 E9.0673
G1 X-54.248 Y-22.120 E9.0869
G1 X-54.250 Y-22.222 E9.0955
G1 X-54.250 Y-24.821 E9.3143
G1 X-53.527 Y-26.567 E9.4734
G1 X-50.433 Y-29.660 E9.8417
G1 X-48.687 Y-30.384 E10.0008
G1 X46.559 Y-30.384 E18.0196
G1 X48.221 Y-29.737 E18.1697
G1 X51.256 Y-26.953 E18.5164
G1 X52.043 Y-25.354 E18.6666
G1 X54.049 Y-2.192 E20.6239
G1 X54.051 Y-2.177 E20.6250
G1 X54.053 Y-2.143 E20.6279
G1 X54.054 Y-2.127 E20.6293
G1 X54.373 Y2.182 E20.9931
G1 X53.717 Y4.051 E21.1598
G1 X52.250 Y5.630 E21.3413
G1 X52.250 Y27.734 E23.2022
G1 X51.527 Y29.480 E23.3613
G1 X48.433 Y32.574 E23.7297
G1 X46.687 Y33.297 E23.8887
G1 X43.869 Y33.297 E24.1261
G1 X43.337 Y33.517 E24.1745
G1 X36.593 Y33.517 E24.7423
G1 X36.061 Y33.297 E24.7907
G1 X0.419 Y33.297 E27.7915
G92 E0.0000
G1 E-1.0000 F1800
G1 X0.319 Y32.797 F4800
G1 E0.0000 F1800
G92 E0.0000
G1 X-0.212 Y33.017 E0.0484 F900
G1 X-6.788 Y33.017 E0.6020
G1 X-7.319 Y32.797 E0.6504
G1 X-48.588 Y32.797 E4.1248
G1 X-50.150 Y32.150 E4.2672
G1 X-53.103 Y29.197 E4.6188
G1 X-53.750 Y27.635 E4.7611
G1 X-53.750 Y3.459 E6.7965
G1 X-53.103 Y1.897 E6.9388
G1 X-51.792 Y0.586 E7.0949
G1 X-53.733 Y-21.823 E8.9886
G1 X-53.738 Y-21.915 E8.9963
G1 X-53.748 Y-22.136 E9.0150
G1 X-53.750 Y-22.228 E9.0227
G1 X-53.750 Y-24.722 E9.2327
G1 X-53.103 Y-26.284 E9.3750
G1 X-50.150 Y-29.237 E9.7266
G1 X-48.588 Y-29.884 E9.8689
G1 X46.465 Y-29.884 E17.8714
G1 X47.952 Y-29.305 E18.0058
G1 X50.849 Y-26.648 E18.3367
G1 X51.553 Y-25.217 E18.4710
G1 X53.551 Y-2.149 E20.4203
G1 X53.552 Y-2.137 E20.4214
G1 X53.555 Y-2.104 E20.4241
G1 X53.556 Y-2.090 E20.4253
G1 X53.866 Y2.115 E20.7803
G1 X53.280 Y3.787 E20.9295
G1 X51.750 Y5.434 E21.1187
G1 X51.750 Y27.635 E22.9878
G1 X51.103 Y29.197 E23.1302
G1 X48.150 Y32.150 E23.4817
G1 X46.588 Y32.797 E23.6241
G1 X43.769 Y32.797 E23.8614
G1 X43.238 Y33.017 E23.9098
G1 X36.692 Y33.017 E24.4609
G1 X36.161 Y32.797 E24.5093
G1 X0.319 Y32.797 E27.5268
G92 E0.0000
G1 E-1.0000 F1800
; feature raft
; tool H0.450 W0.800
G1 X-1.223 Y28.367 F4800
G1 E0.0000 F1800
G92 E0.0000
G1 X-5.777 Y28.367 E0.6134 F225
G1 X-5.997 Y28.147 E0.6553
G1 X-40.577 Y28.147 E5.3134
G1 X-41.000 Y27.724 E5.3940
G1 X-41.423 Y28.147 E5.4746
G1 X-47.577 Y28.147 E6.3035
G1 X-49.100 Y26.624 E6.5937
G1 X-49.100 Y4.470 E9.5779
G1 X-47.577 Y2.947 E9.8680
G1 X-45.661 Y2.947 E10.1261
G1 X-47.029 Y1.693 E10.3761
G1 X-49.095 Y-22.170 E13.6025
G1 X-49.100 Y-22.282 E13.6176
G1 X-49.100 Y-23.711 E13.8100
G1 X-47.577 Y-25.234 E14.1002
G1 X45.512 Y-25.234 E26.6395
G1 X47.003 Y-23.866 E26.9121
G1 X48.918 Y-1.756 E29.9016
G1 X48.919 Y-1.738 E29.9040
G1 X49.151 Y1.399 E30.3277
G1 X47.608 Y3.060 E30.6331
G1 X45.690 Y3.060 E30.8914
G1 X47.100 Y4.470 E31.1600
G1 X47.100 Y26.624 E34.1442
G1 X45.577 Y28.147 E34.4343
G1 X42.447 Y28.147 E34.8559
G1 X42.227 Y28.367 E34.8978
G1 X37.703 Y28.367 E35.5072
G1 X37.483 Y28.147 E35.5491
G1 X-1.003 Y28.147 E40.7334
G1 X-1.223 Y28.367 E40.7753
G92 E0.0000
G1 E-1.0000 F1800
G1 X0.180 Y18.727 F4800
G1 E0.0000 F1800
G92 E0.0000
G1 X0.180 Y12.367 E0.8567 F225
G1 X-6.297 Y12.367 E1.7292
G1 X-7.467 Y11.197 E1.9521
G1 X-10.180 Y11.197 E2.3175
G1 X-10.180 Y19.897 E3.4894
G1 X-7.467 Y19.897 E3.8549
G1 X-6.297 Y18.727 E4.0778
G1 X0.180 Y18.727 E4.9503
G92 E0.0000
G1 E-1.0000 F1800
G1 X9.820 Y19.897 F4800
G1 E0.0000 F1800
G92 E0.0000
G1 X20.180 Y19.897 E1.3955 F225
G1 X20.180 Y11.197 E2.5674
G1 X9.820 Y11.197 E3.9630
G1 X9.820 Y19.897 E5.1349
G92 E0.0000
G1 E-1.0000 F1800
G1 X29.820 Y19.897 F4800
G1 E0.0000 F1800
G92 E0.0000
G1 X36.533 Y19.897 E0.9043 F225
G1 X37.703 Y18.727 E1.1272
G1 X38.850 Y18.727 E1.2817
G1 X38.850 Y12.367 E2.1384
G1 X37.703 Y12.367 E2.2929
G1 X36.533 Y11.197 E2.5157
G1 X29.820 Y11.197 E3.4200
G1 X29.820 Y19.897 E4.5919
G92 E0.0000
G1 E-1.0000 F1800
G1 X-19.820 Y19.897 F4800
G1 E0.0000 F1800
G92 E0.0000
G1 X-19.820 Y11.197 E1.1719 F225
G1 X-29.850 Y11.197 E2.5230
G1 X-29.850 Y19.897 E3.6949
G1 X-19.820 Y19.897 E5.0460
G92 E0.0000
G1 E-1.0000 F1800
G1 X-19.140 Y20.571 F4800
G1 E0.0000 F1800
G92 E0.0000
G1 X-10.860 Y20.571 E1.1153 F225
G1 X-10.860 Y18.286 E1.4232
G1 X-19.140 Y18.286 E2.5386
G1 X-19.140 Y16.000 E2.8465
G1 X-10.860 Y16.000 E3.9618
G1 X-10.860 Y13.714 E4.2697
G1 X-19.140 Y13.714 E5.3851
G92 E0.0000
G1 E-1.0000 F1800
G1 X-7.180 Y20.571 F4800
G1 E0.0000 F1800
G92 E0.0000
G1 X9.140 Y20.571 E2.1983 F225
G1 X9.140 Y18.286 E2.5062
G1 X0.860 Y18.286 E3.6216
G1 X0.860 Y16.000 E3.9295
G1 X9.140 Y16.000 E5.0448
G1 X9.140 Y13.714 E5.3527
G1 X0.860 Y13.714 E6.4680
G92 E0.0000
G1 E-1.0000 F1800
G1 X20.860 Y13.714 F4800
G1 E0.0000 F1800
G92 E0.0000
G1 X29.140 Y13.714 E1.1153 F225
G1 X29.140 Y16.000 E1.4232
G1 X20.860 Y16.000 E2.5386
G1 X20.860 Y18.286 E2.8465
G1 X29.140 Y18.286 E3.9618
G1 X29.140 Y20.571 E4.2697
G1 X20.860 Y20.571 E5.3851
G92 E0.0000
G1 E-1.0000 F1800
G1 X36.820 Y20.571 F4800
G1 E0.0000 F1800
G92 E0.0000
G1 X46.420 Y20.571 E1.2931 F225
G1 X46.420 Y18.286 E1.6010
G1 X39.530 Y18.286 E2.5291
G1 X39.530 Y16.000 E2.8370
G1 X46.420 Y16.000 E3.7651
G1 X46.420 Y13.714 E4.0730
G1 X39.530 Y13.714 E5.0011
G92 E0.0000
G1 E-1.0000 F1800
G1 X45.334 Y27.429 F4800
G1 E0.0000 F1800
G92 E0.0000
G1 X-40.334 Y27.429 E11.5397 F225
G1 X-41.000 Y26.762 E11.6666
G1 X-41.666 Y27.429 E11.7936
G1 X-47.334 Y27.429 E12.5570
G1 X-48.420 Y26.342 E12.7639
G1 X-48.420 Y25.143 E12.9255
G1 X46.420 Y25.143 E25.7008
G1 X46.420 Y22.857 E26.0087
G1 X-48.420 Y22.857 E38.7840
G1 X-48.420 Y20.571 E39.0918
G1 X-30.530 Y20.571 E41.5017
G1 X-30.530 Y18.286 E41.8096
G1 X-48.420 Y18.286 E44.2194
G1 X-48.420 Y16.000 E44.5273
G1 X-30.530 Y16.000 E46.9372
G1 X-30.530 Y13.714 E47.2451
G1 X-48.420 Y13.714 E49.6549
G1 X-48.420 Y11.429 E49.9628
G1 X-30.530 Y11.429 E52.3727
G1 X-30.530 Y10.517 E52.4954
G1 X-19.140 Y10.517 E54.0297
G1 X-19.140 Y11.429 E54.1525
G1 X-10.860 Y11.429 E55.2679
G1 X-10.860 Y10.517 E55.3907
G1 X-7.185 Y10.517 E55.8857
G1 X-6.274 Y11.429 E56.0593
G1 X9.140 Y11.429 E58.1356
G1 X9.140 Y10.517 E58.2584
G1 X20.860 Y10.517 E59.8371
G1 X20.860 Y11.429 E59.9599
G1 X29.140 Y11.429 E61.0752
G1 X29.140 Y10.517 E61.1980
G1 X36.815 Y10.517 E62.2319
G1 X37.726 Y11.429 E62.4055
G1 X46.420 Y11.429 E63.5766
G1 X46.420 Y9.143 E63.8845
G1 X-48.420 Y9.143 E76.6598
G1 X-48.420 Y6.857 E76.9676
G1 X46.420 Y6.857 E89.7429
G1 X46.420 Y4.752 E90.0265
G1 X46.240 Y4.571 E90.0609
G1 X-48.240 Y4.571 E102.7876
G1 X-47.295 Y3.627 E102.9675
G1 X-43.913 Y3.627 E103.4231
G1 X-45.376 Y2.286 E103.6904
G1 X47.399 Y2.286 E116.1875
G1 X48.451 Y1.154 E116.3956
G1 X48.366 Y0.000 E116.5515
G1 X-46.493 Y0.000 E129.3292
G1 X-46.691 Y-2.286 E129.6383
G1 X48.189 Y-2.286 E142.4189
G1 X47.991 Y-4.571 E142.7280
G1 X-46.889 Y-4.571 E155.5086
G1 X-47.086 Y-6.857 E155.8177
G1 X47.793 Y-6.857 E168.5984
G1 X47.596 Y-9.143 E168.9074
G1 X-47.284 Y-9.143 E181.6881
G1 X-47.482 Y-11.429 E181.9971
G1 X47.398 Y-11.429 E194.7778
G1 X47.200 Y-13.714 E195.0868
G1 X-47.680 Y-13.714 E207.8675
G1 X-47.878 Y-16.000 E208.1765
G1 X47.002 Y-16.000 E220.9572
G1 X46.804 Y-18.286 E221.2662
G1 X-48.076 Y-18.286 E234.0469
G1 X-48.274 Y-20.571 E234.3559
G1 X46.606 Y-20.571 E247.1366
G1 X46.408 Y-22.857 E247.4456
G1 X-48.420 Y-22.857 E260.2193
G92 E0.0000
G1 E-1.0000 F1800
; layer 2, Z = 0.950
M106 S255
; tool H0.500 W0.800
G1 Z0.950 F1000
G1 X-49.100 Y-22.282 F4800
G1 E0.0000 F1800
G92 E0.0000
G1 X-49.100 Y-23.711 E0.2138 F750
G1 X-47.577 Y-25.234 E0.5362
G1 X45.512 Y-25.234 E14.4688
G1 X47.003 Y-23.866 E14.7716
G1 X48.918 Y-1.756 E18.0933
G1 X48.919 Y-1.738 E18.0960
G1 X49.151 Y1.399 E18.5668
G1 X47.608 Y3.060 E18.9061
G1 X45.690 Y3.060 E19.1931
G1 X47.100 Y4.470 E19.4915
G1 X47.100 Y26.624 E22.8073
G1 X45.577 Y28.147 E23.1297
G1 X42.447 Y28.147 E23.5981
G1 X42.227 Y28.367 E23.6447
G1 X37.703 Y28.367 E24.3218
G1 X37.483 Y28.147 E24.3683
G1 X-1.003 Y28.147 E30.1286
G1 X-1.223 Y28.367 E30.1751
G1 X-5.777 Y28.367 E30.8567
G1 X-5.997 Y28.147 E30.9033
G1 X-40.577 Y28.147 E36.0789
G1 X-41.000 Y27.724 E36.1685
G1 X-41.423 Y28.147 E36.2580
G1 X-47.577 Y28.147 E37.1791
G1 X-49.100 Y26.624 E37.5014
G1 X-49.100 Y4.470 E40.8172
G1 X-47.577 Y2.947 E41.1396
G1 X-45.661 Y2.947 E41.4264
G1 X-47.029 Y1.693 E41.7041
G1 X-49.095 Y-22.170 E45.2890
G1 X-49.100 Y-22.282 E45.3059
G92 E0.0000
G1 E-1.0000 F1800
G1 X-29.850 Y11.197 F4800
G1 E0.0000 F1800
G92 E0.0000
G1 X-29.850 Y19.897 E1.3021 F750
G1 X-19.820 Y19.897 E2.8033
G1 X-19.820 Y11.197 E4.1055
G1 X-29.850 Y11.197 E5.6067
G92 E0.0000
G1 E-1.0000 F1800
G1 X-10.180 Y11.197 F4800
G1 E0.0000 F1800
G92 E0.0000
G1 X-10.180 Y19.897 E1.3021 F750
G1 X-7.467 Y19.897 E1.7082
G1 X-6.297 Y18.727 E1.9558
G1 X0.180 Y18.727 E2.9253
G1 X0.180 Y12.367 E3.8772
G1 X-6.297 Y12.367 E4.8466
