; G-Code generated by Simplify3D(R) Version 4.1.2
; Apr 7, 2021 at 11:04:57 AM
; Settings Summary
;   processName,High Quality
;   applyToModels,4x1_3_bottom_angle,4x1_3_top,4x1_3_bottom_angle_mirror,4x1_2_top
;   profileName,High Quality (modified)
;   profileVersion,2021-04-06 09:56:37
;   baseProfile,FlashForge Finder
;   printMaterial,PLA
;   printQuality,Medium
;   printExtruders,
;   extruderName,Primary Extruder
;   extruderToolheadNumber,0
;   extruderDiameter,0.4
;   extruderAutoWidth,0
;   extruderWidth,0.4
;   extrusionMultiplier,0.9
;   extruderUseRetract,1
;   extruderRetractionDistance,1
;   extruderExtraRestartDistance,0
;   extruderRetractionZLift,0
;   extruderRetractionSpeed,1800
;   extruderUseCoasting,0
;   extruderCoastingDistance,0.2
;   extruderUseWipe,0
;   extruderWipeDistance,5
;   primaryExtruder,0
;   layerHeight,0.2
;   topSolidLayers,3
;   bottomSolidLayers,3
;   perimeterOutlines,2
;   printPerimetersInsideOut,1
;   startPointOption,2
;   startPointOriginX,0
;   startPointOriginY,0
;   sequentialIslands,0
;   spiralVaseMode,0
;   firstLayerHeightPercentage,90
;   firstLayerWidthPercentage,125
;   firstLayerUnderspeed,0.3
;   useRaft,1
;   raftExtruder,0
;   raftTopLayers,3
;   raftBaseLayers,2
;   raftOffset,3
;   raftSeparationDistance,0.14
;   raftTopInfill,100
;   aboveRaftSpeedMultiplier,0.3
;   useSkirt,1
;   skirtExtruder,0
;   skirtLayers,1
;   skirtOutlines,2
;   skirtOffset,4
;   usePrimePillar,0
;   primePillarExtruder,999
;   primePillarWidth,12
;   primePillarLocation,7
;   primePillarSpeedMultiplier,1
;   useOozeShield,0
;   oozeShieldExtruder,999
;   oozeShieldOffset,2
;   oozeShieldOutlines,1
;   oozeShieldSidewallShape,1
;   oozeShieldSidewallAngle,30
;   oozeShieldSpeedMultiplier,1
;   infillExtruder,0
;   internalInfillPattern,Full Honeycomb
;   externalInfillPattern,Concentric
;   infillPercentage,20
;   outlineOverlapPercentage,15
;   infillExtrusionWidthPercentage,100
;   minInfillLength,5
;   infillLayerInterval,1
;   internalInfillAngles,0,120,-120
;   overlapInternalInfillAngles,0
;   externalInfillAngles,45,-45
;   generateSupport,1
;   supportExtruder,0
;   supportInfillPercentage,30
;   supportExtraInflation,0
;   supportBaseLayers,0
;   denseSupportExtruder,0
;   denseSupportLayers,0
;   denseSupportInfillPercentage,70
;   supportLayerInterval,1
;   supportHorizontalPartOffset,0.3
;   supportUpperSeparationLayers,1
;   supportLowerSeparationLayers,1
;   supportType,0
;   supportGridSpacing,4
;   maxOverhangAngle,45
;   supportAngles,0
;   temperatureName,Primary Extruder
;   temperatureNumber,0
;   temperatureSetpointCount,1
;   temperatureSetpointLayers,1
;   temperatureSetpointTemperatures,200
;   temperatureStabilizeAtStartup,0
;   temperatureHeatedBed,0
;   fanLayers,1,2
;   fanSpeeds,0,100
;   blipFanToFullPower,0
;   adjustSpeedForCooling,1
;   minSpeedLayerTime,15
;   minCoolingSpeedSlowdown,20
;   increaseFanForCooling,0
;   minFanLayerTime,45
;   maxCoolingFanSpeed,100
;   increaseFanForBridging,0
;   bridgingFanSpeed,100
;   use5D,1
;   relativeEdistances,0
;   allowEaxisZeroing,1
;   independentExtruderAxes,1
;   includeM10123,0
;   stickySupport,1
;   applyToolheadOffsets,0
;   gcodeXoffset,0
;   gcodeYoffset,0
;   gcodeZoffset,0
;   overrideMachineDefinition,1
;   machineTypeOverride,0
;   strokeXoverride,140
;   strokeYoverride,140
;   strokeZoverride,140
;   originOffsetXoverride,70
;   originOffsetYoverride,70
;   originOffsetZoverride,0
;   homeXdirOverride,1
;   homeYdirOverride,1
;   homeZdirOverride,-1
;   flipXoverride,1
;   flipYoverride,-1
;   flipZoverride,1
;   toolheadOffsets,0,0|0,0|0,0|0,0|0,0|0,0
;   overrideFirmwareConfiguration,1
;   firmwareTypeOverride,FlashForge Dreamer Firmware
;   GPXconfigOverride,r2
;   baudRateOverride,115200
;   overridePrinterModels,1
;   printerModelsOverride
;   startingGcode,M146 r255 g0 b0 ; Set lights to red while preheating,M907 X100 Y100 Z40 A100 B100 ; Set motor current,M132 X Y Z A B ; Recall home offsets,G28 ; Home axes,G1 Z100 F3300 ; Lower Z,G1 X-70 Y-70 F6000 ; Move to wait position,M7 ; Wait for bed to stabilize,M6 T0 ; Wait for right extruder to reach target temp,G1 X-68 Y-68 F9000 ; Move to front left corner of bed,G1 Z0.3 F6000 ; Move down to purge,G92 E0 ; Zero extruders,G1 X50 Y-68 E20 F2000 ; Extrude a line of filament across the front edge of the bed,G1 X60 Y-68 F180 ; Wait for ooze,G1 X68 Y-68 F5000 ; Fast wipe,G1 Z1 F100 ; Lift,G92 E0 ; Zero extruders again,M146 r255 g255 b255 ; Turn lights on for print,G1 Z0.5 F3300 ; Position nozzle
;   layerChangeGcode,
;   retractionGcode,
;   toolChangeGcode,
;   endingGcode,M104 S0 T0 ; cool down extruder,G1 Z140 F3300 ; send Z axis to bottom of machine,M107 ; disable cooling fan,G28 X0 Y0 ; home XY axes,M146 r0 g0 b0 ; Turn lights off,M18 ; disable stepper
;   exportFileFormat,gcode
;   celebration,0
;   celebrationSong,Random Song
;   postProcessing,{EXTENSION "g"}
;   defaultSpeed,3000
;   outlineUnderspeed,0.5
;   solidInfillUnderspeed,0.8
;   supportUnderspeed,0.8
;   rapidXYspeed,4800
;   rapidZspeed,1000
;   minBridgingArea,50
;   bridgingExtraInflation,0
;   bridgingExtrusionMultiplier,1
;   bridgingSpeedMultiplier,1
;   useFixedBridgingAngle,0
;   fixedBridgingAngle,0
;   applyBridgingToPerimeters,0
;   filamentDiameters,1.75|1.75|1.75|1.75|1.75|1.75
;   filamentPricesPerKg,46|46|46|46|46|46
;   filamentDensities,1.25|1.25|1.25|1.25|1.25|1.25
;   useMinPrintHeight,0
;   minPrintHeight,0
;   useMaxPrintHeight,0
;   maxPrintHeight,0
;   useDiaphragm,0
;   diaphragmLayerInterval,20
;   robustSlicing,1
;   mergeAllIntoSolid,0
;   onlyRetractWhenCrossingOutline,1
;   retractBetweenLayers,1
;   useRetractionMinTravel,0
;   retractionMinTravel,3
;   retractWhileWiping,0
;   onlyWipeOutlines,1
;   avoidCrossingOutline,0
;   maxMovementDetourFactor,3
;   toolChangeRetractionDistance,12
;   toolChangeExtraRestartDistance,-0.5
;   toolChangeRetractionSpeed,600
;   externalThinWallType,0
;   internalThinWallType,2
;   thinWallAllowedOverlapPercentage,10
;   singleExtrusionMinLength,1
;   singleExtrusionMinPrintingWidthPercentage,50
;   singleExtrusionMaxPrintingWidthPercentage,200
;   singleExtrusionEndpointExtension,0.2
;   horizontalSizeCompensation,0
G90
M82
M107
M104 S200 T0
M146 r255 g0 b0 ; Set lights to red while preheating
M907 X100 Y100 Z40 A100 B100 ; Set motor current
M132 X Y Z A B ; Recall home offsets
G28 ; Home axes
G1 Z100 F3300 ; Lower Z
G1 X-70 Y-70 F6000 ; Move to wait position
M7 ; Wait for bed to stabilize
M6 T0 ; Wait for right extruder to reach target temp
G1 X-68 Y-68 F9000 ; Move to front left corner of bed
G1 Z0.3 F6000 ; Move down to purge
G92 E0 ; Zero extruders
G1 X50 Y-68 E20 F2000 ; Extrude a line of filament across the front edge of the bed
G1 X60 Y-68 F180 ; Wait for ooze
G1 X68 Y-68 F5000 ; Fast wipe
G1 Z1 F100 ; Lift
G92 E0 ; Zero extruders again
M146 r255 g255 b255 ; Turn lights on for print
G1 Z0.5 F3300 ; Position nozzle
; process High Quality
; layer 1, Z = 0.450
M108 T0
G92 E0.0000
G1 E-1.0000 F1800
; feature skirt
; tool H0.450 W0.500
G1 Z0.450 F1000
G1 X51.354 Y2.606 F4800
G1 E0.0000 F1800
G92 E0.0000
G1 X51.970 Y4.093 E0.1355 F900
G1 X51.970 Y20.907 E1.5511
G1 X51.354 Y22.394 E1.6866
G1 X52.527 Y23.567 E1.8262
G1 X53.250 Y25.313 E1.9853
G1 X53.250 Y49.687 E4.0374
G1 X52.527 Y51.433 E4.1965
G1 X49.433 Y54.527 E4.5648
G1 X47.687 Y55.250 E4.7239
G1 X44.869 Y55.250 E4.9612
G1 X44.337 Y55.470 E5.0096
G1 X37.593 Y55.470 E5.5775
G1 X37.061 Y55.250 E5.6259
G1 X1.419 Y55.250 E8.6267
G1 X0.887 Y55.470 E8.6750
G1 X-5.887 Y55.470 E9.2454
G1 X-6.419 Y55.250 E9.2938
G1 X-47.687 Y55.250 E12.7682
G1 X-49.433 Y54.527 E12.9273
G1 X-52.527 Y51.433 E13.2957
G1 X-53.250 Y49.687 E13.4547
G1 X-53.250 Y25.313 E15.5069
G1 X-52.527 Y23.567 E15.6660
G1 X-51.970 Y23.010 E15.7323
G1 X-51.970 Y1.990 E17.5019
G1 X-52.527 Y1.433 E17.5682
G1 X-53.250 Y-0.313 E17.7273
G1 X-53.250 Y-24.687 E19.7794
G1 X-52.527 Y-26.433 E19.9385
G1 X-51.970 Y-26.990 E20.0048
G1 X-51.970 Y-49.907 E21.9342
G1 X-51.247 Y-51.653 E22.0933
G1 X-48.153 Y-54.747 E22.4616
G1 X-46.407 Y-55.470 E22.6207
G1 X41.437 Y-55.470 E30.0164
G1 X41.969 Y-55.250 E30.0648
G1 X44.537 Y-55.250 E30.2810
G1 X46.283 Y-54.527 E30.4401
G1 X49.377 Y-51.433 E30.8084
G1 X50.100 Y-49.687 E30.9675
G1 X50.100 Y-48.800 E31.0422
G1 X51.247 Y-47.653 E31.1788
G1 X51.970 Y-45.907 E31.3379
G1 X51.970 Y-29.093 E32.7535
G1 X51.354 Y-27.606 E32.8890
G1 X52.527 Y-26.433 E33.0286
G1 X53.250 Y-24.687 E33.1877
G1 X53.250 Y-0.313 E35.2398
G1 X52.527 Y1.433 E35.3989
G1 X51.354 Y2.606 E35.5385
G92 E0.0000
G1 E-1.0000 F1800
G1 X50.823 Y2.630 F4800
G1 E0.0000 F1800
G92 E0.0000
G1 X51.470 Y4.192 E0.1423 F900
G1 X51.470 Y20.808 E1.5412
G1 X50.823 Y22.370 E1.6836
G1 X50.723 Y22.470 E1.6955
G1 X52.103 Y23.850 E1.8598
G1 X52.750 Y25.412 E2.0021
G1 X52.750 Y49.588 E4.0375
G1 X52.103 Y51.150 E4.1798
G1 X49.150 Y54.103 E4.5314
G1 X47.588 Y54.750 E4.6738
G1 X44.769 Y54.750 E4.9111
G1 X44.238 Y54.970 E4.9595
G1 X37.692 Y54.970 E5.5106
G1 X37.161 Y54.750 E5.5590
G1 X1.319 Y54.750 E8.5765
G1 X0.788 Y54.970 E8.6249
G1 X-5.788 Y54.970 E9.1785
G1 X-6.319 Y54.750 E9.2269
G1 X-47.588 Y54.750 E12.7013
G1 X-49.150 Y54.103 E12.8437
G1 X-52.103 Y51.150 E13.1953
G1 X-52.750 Y49.588 E13.3376
G1 X-52.750 Y25.412 E15.3730
G1 X-52.103 Y23.850 E15.5153
G1 X-51.470 Y23.217 E15.5907
G1 X-51.470 Y1.783 E17.3952
G1 X-52.103 Y1.150 E17.4706
G1 X-52.750 Y-0.412 E17.6129
G1 X-52.750 Y-24.588 E19.6483
G1 X-52.103 Y-26.150 E19.7906
G1 X-51.470 Y-26.783 E19.8660
G1 X-51.470 Y-49.808 E21.8045
G1 X-50.823 Y-51.370 E21.9468
G1 X-47.870 Y-54.323 E22.2984
G1 X-46.308 Y-54.970 E22.4407
G1 X41.338 Y-54.970 E29.8196
G1 X41.869 Y-54.750 E29.8680
G1 X44.438 Y-54.750 E30.0843
G1 X46.000 Y-54.103 E30.2266
G1 X48.953 Y-51.150 E30.5782
G1 X49.600 Y-49.588 E30.7206
G1 X49.600 Y-48.593 E30.8043
G1 X50.823 Y-47.370 E30.9499
G1 X51.470 Y-45.808 E31.0923
G1 X51.470 Y-29.192 E32.4912
G1 X50.823 Y-27.630 E32.6335
G1 X50.723 Y-27.530 E32.6454
G1 X52.103 Y-26.150 E32.8097
G1 X52.750 Y-24.588 E32.9521
G1 X52.750 Y-0.412 E34.9874
G1 X52.103 Y1.150 E35.1298
G1 X50.723 Y2.530 E35.2941
G1 X50.823 Y2.630 E35.3060
G92 E0.0000
G1 E-1.0000 F1800
; feature raft
; tool H0.450 W0.800
G1 X46.820 Y5.203 F4800
G1 E0.0000 F1800
G92 E0.0000
G1 X46.820 Y19.797 E1.9659 F225
G1 X45.297 Y21.320 E2.2560
G1 X44.950 Y21.320 E2.3027
G1 X44.950 Y23.577 E2.6068
G1 X43.627 Y24.900 E2.8588
G1 X46.577 Y24.900 E3.2562
G1 X48.100 Y26.423 E3.5463
G1 X48.100 Y48.577 E6.5305
G1 X46.577 Y50.100 E6.8207
G1 X43.447 Y50.100 E7.2423
G1 X43.227 Y50.320 E7.2842
G1 X38.703 Y50.320 E7.8936
G1 X38.483 Y50.100 E7.9355
G1 X-0.003 Y50.100 E13.1197
G1 X-0.223 Y50.320 E13.1616
G1 X-4.777 Y50.320 E13.7750
G1 X-4.997 Y50.100 E13.8169
G1 X-39.577 Y50.100 E18.4750
G1 X-40.000 Y49.677 E18.5556
G1 X-40.423 Y50.100 E18.6362
G1 X-46.577 Y50.100 E19.4651
G1 X-48.100 Y48.577 E19.7553
G1 X-48.100 Y26.423 E22.7395
G1 X-46.577 Y24.900 E23.0296
G1 X-45.717 Y24.900 E23.1455
G1 X-46.820 Y23.797 E23.3556
G1 X-46.820 Y1.203 E26.3991
G1 X-45.717 Y0.100 E26.6092
G1 X-46.577 Y0.100 E26.7251
G1 X-48.100 Y-1.423 E27.0152
G1 X-48.100 Y-23.577 E29.9994
G1 X-46.577 Y-25.100 E30.2895
G1 X-45.717 Y-25.100 E30.4054
G1 X-46.820 Y-26.203 E30.6155
G1 X-46.820 Y-48.797 E33.6590
G1 X-45.297 Y-50.320 E33.9491
G1 X-40.623 Y-50.320 E34.5787
G1 X-40.403 Y-50.100 E34.6206
G1 X-39.597 Y-50.100 E34.7292
G1 X-39.377 Y-50.320 E34.7711
G1 X-3.123 Y-50.320 E39.6547
G1 X-2.903 Y-50.100 E39.6966
G1 X-1.517 Y-50.100 E39.8833
G1 X-1.297 Y-50.320 E39.9252
G1 X40.327 Y-50.320 E45.5321
G1 X40.547 Y-50.100 E45.5740
G1 X43.427 Y-50.100 E45.9619
G1 X44.950 Y-48.577 E46.2521
G1 X44.950 Y-46.320 E46.5561
G1 X45.297 Y-46.320 E46.6028
G1 X46.820 Y-44.797 E46.8930
G1 X46.820 Y-30.203 E48.8588
G1 X45.297 Y-28.680 E49.1490
G1 X44.950 Y-28.680 E49.1957
G1 X44.950 Y-26.423 E49.4997
G1 X43.627 Y-25.100 E49.7518
G1 X46.577 Y-25.100 E50.1492
G1 X48.100 Y-23.577 E50.4393
G1 X48.100 Y-1.423 E53.4235
G1 X46.577 Y0.100 E53.7136
G1 X43.627 Y0.100 E54.1110
G1 X44.950 Y1.423 E54.3631
G1 X44.950 Y3.680 E54.6671
G1 X45.297 Y3.680 E54.7138
G1 X46.820 Y5.203 E55.0040
G92 E0.0000
G1 E-1.0000 F1800
G1 X39.850 Y-9.320 F4800
G1 E0.0000 F1800
G92 E0.0000
G1 X39.850 Y-15.680 E0.8567 F225
G1 X38.703 Y-15.680 E1.0112
G1 X37.533 Y-16.850 E1.2341
G1 X30.820 Y-16.850 E2.1384
G1 X30.820 Y-8.150 E3.3103
G1 X37.533 Y-8.150 E4.2146
G1 X38.703 Y-9.320 E4.4374
G1 X39.850 Y-9.320 E4.5919
G92 E0.0000
G1 E-1.0000 F1800
G1 X21.180 Y-8.150 F4800
G1 E0.0000 F1800
G92 E0.0000
G1 X21.180 Y-16.850 E1.1719 F225
G1 X10.820 Y-16.850 E2.5674
G1 X10.820 Y-8.150 E3.7394
G1 X21.180 Y-8.150 E5.1349
G92 E0.0000
G1 E-1.0000 F1800
G1 X1.180 Y-9.320 F4800
G1 E0.0000 F1800
G92 E0.0000
G1 X1.180 Y-15.680 E0.8567 F225
G1 X-5.297 Y-15.680 E1.7292
G1 X-6.467 Y-16.850 E1.9521
G1 X-9.180 Y-16.850 E2.3175
G1 X-9.180 Y-8.150 E3.4894
G1 X-6.467 Y-8.150 E3.8549
G1 X-5.297 Y-9.320 E4.0778
G1 X1.180 Y-9.320 E4.9503
G92 E0.0000
G1 E-1.0000 F1800
G1 X-18.820 Y-8.150 F4800
G1 E0.0000 F1800
G92 E0.0000
G1 X-18.820 Y-16.850 E1.1719 F225
G1 X-28.850 Y-16.850 E2.5230
G1 X-28.850 Y-8.150 E3.6949
G1 X-18.820 Y-8.150 E5.0460
G92 E0.0000
G1 E-1.0000 F1800
G1 X-18.820 Y33.150 F4800
G1 E0.0000 F1800
G92 E0.0000
G1 X-28.850 Y33.150 E1.3511 F225
G1 X-28.850 Y41.850 E2.5230
G1 X-18.820 Y41.850 E3.8741
G1 X-18.820 Y33.150 E5.0460
G92 E0.0000
G1 E-1.0000 F1800
G1 X-9.180 Y33.150 F4800
G1 E0.0000 F1800
G92 E0.0000
G1 X-9.180 Y41.850 E1.1719 F225
G1 X-6.467 Y41.850 E1.5374
G1 X-5.297 Y40.680 E1.7603
G1 X1.180 Y40.680 E2.6327
G1 X1.180 Y34.320 E3.4894
G1 X-5.297 Y34.320 E4.3619
G1 X-6.467 Y33.150 E4.5848
G1 X-9.180 Y33.150 E4.9503
G92 E0.0000
G1 E-1.0000 F1800
G1 X10.820 Y33.150 F4800
G1 E0.0000 F1800
G92 E0.0000
G1 X10.820 Y41.850 E1.1719 F225
G1 X21.180 Y41.850 E2.5675
G1 X21.180 Y33.150 E3.7394
G1 X10.820 Y33.150 E5.1349
G92 E0.0000
G1 E-1.0000 F1800
G1 X30.820 Y33.150 F4800
G1 E0.0000 F1800
G92 E0.0000
G1 X30.820 Y41.850 E1.1719 F225
G1 X37.533 Y41.850 E2.0762
G1 X38.703 Y40.680 E2.2991
G1 X39.850 Y40.680 E2.4536
G1 X39.850 Y34.320 E3.3103
G1 X38.703 Y34.320 E3.4648
G1 X37.533 Y33.150 E3.6877
G1 X30.820 Y33.150 E4.5919
G92 E0.0000
G1 E-1.0000 F1800
G1 X21.860 Y34.286 F4800
G1 E0.0000 F1800
G92 E0.0000
G1 X30.140 Y34.286 E1.1153 F225
G1 X30.140 Y36.571 E1.4232
G1 X21.860 Y36.571 E2.5386
G1 X21.860 Y38.857 E2.8465
G1 X30.140 Y38.857 E3.9618
G1 X30.140 Y41.143 E4.2697
G1 X21.860 Y41.143 E5.3851
G92 E0.0000
G1 E-1.0000 F1800
G1 X40.530 Y41.143 F4800
G1 E0.0000 F1800
G92 E0.0000
G1 X47.420 Y41.143 E0.9281 F225
G1 X47.420 Y38.857 E1.2360
G1 X40.530 Y38.857 E2.1641
G1 X40.530 Y36.571 E2.4720
G1 X47.420 Y36.571 E3.4001
G1 X47.420 Y34.286 E3.7080
G1 X40.530 Y34.286 E4.6361
G92 E0.0000
G1 E-1.0000 F1800
G1 X47.420 Y48.000 F4800
G1 E0.0000 F1800
G92 E0.0000
G1 X-47.420 Y48.000 E12.7753 F225
G1 X-47.420 Y45.714 E13.0832
G1 X47.420 Y45.714 E25.8585
G1 X47.420 Y43.429 E26.1664
G1 X-47.420 Y43.429 E38.9416
G1 X-47.420 Y41.143 E39.2495
G1 X-29.530 Y41.143 E41.6594
G1 X-29.530 Y38.857 E41.9673
G1 X-47.420 Y38.857 E44.3771
G1 X-47.420 Y36.571 E44.6850
G1 X-29.530 Y36.571 E47.0949
G1 X-29.530 Y34.286 E47.4028
G1 X-47.420 Y34.286 E49.8126
G1 X-47.420 Y32.000 E50.1205
G1 X47.420 Y32.000 E62.8958
G1 X47.420 Y29.714 E63.2037
G1 X-47.420 Y29.714 E75.9790
G1 X-47.420 Y27.429 E76.2869
G1 X47.420 Y27.429 E89.0621
G1 X47.420 Y26.705 E89.1596
G1 X46.295 Y25.580 E89.3739
G1 X41.985 Y25.580 E89.9545
G1 X42.422 Y25.143 E90.0377
G1 X-44.512 Y25.143 E101.7482
G1 X-46.140 Y23.515 E102.0582
G1 X-46.140 Y22.857 E102.1469
G1 X44.270 Y22.857 E114.3254
G1 X44.270 Y20.640 E114.6241
G1 X45.015 Y20.640 E114.7245
G1 X45.084 Y20.571 E114.7375
G1 X-46.140 Y20.571 E127.0257
G1 X-46.140 Y18.286 E127.3336
G1 X46.140 Y18.286 E139.7640
G1 X46.140 Y16.000 E140.0719
G1 X-46.140 Y16.000 E152.5024
G1 X-46.140 Y13.714 E152.8103
G1 X46.140 Y13.714 E165.2407
G1 X46.140 Y11.429 E165.5486
G1 X-46.140 Y11.429 E177.9791
G1 X-46.140 Y9.143 E178.2869
G1 X46.140 Y9.143 E190.7174
