; G-Code generated by Simplify3D(R) Version 4.1.2
; Apr 5, 2021 at 2:14:45 PM
; Settings Summary
;   processName,Process1
;   applyToModels,4x1_0_bottom,4x1_0_top
;   profileName,FlashForge Finder (modified)
;   profileVersion,2018-11-09 08:00:00
;   baseProfile,
;   printMaterial,PLA
;   printQuality,Fast
;   printExtruders,
;   extruderName,Primary Extruder
;   extruderToolheadNumber,0
;   extruderDiameter,0.4
;   extruderAutoWidth,0
;   extruderWidth,0.4
;   extrusionMultiplier,0.9
;   extruderUseRetract,1
;   extruderRetractionDistance,1
;   extruderExtraRestartDistance,0
;   extruderRetractionZLift,0
;   extruderRetractionSpeed,1800
;   extruderUseCoasting,0
;   extruderCoastingDistance,0.2
;   extruderUseWipe,0
;   extruderWipeDistance,5
;   primaryExtruder,0
;   layerHeight,0.3
;   topSolidLayers,3
;   bottomSolidLayers,3
;   perimeterOutlines,2
;   printPerimetersInsideOut,1
;   startPointOption,2
;   startPointOriginX,0
;   startPointOriginY,0
;   sequentialIslands,0
;   spiralVaseMode,0
;   firstLayerHeightPercentage,90
;   firstLayerWidthPercentage,125
;   firstLayerUnderspeed,0.3
;   useRaft,1
;   raftExtruder,0
;   raftTopLayers,3
;   raftBaseLayers,2
;   raftOffset,3
;   raftSeparationDistance,0.14
;   raftTopInfill,100
;   aboveRaftSpeedMultiplier,0.3
;   useSkirt,1
;   skirtExtruder,0
;   skirtLayers,1
;   skirtOutlines,2
;   skirtOffset,4
;   usePrimePillar,0
;   primePillarExtruder,999
;   primePillarWidth,12
;   primePillarLocation,7
;   primePillarSpeedMultiplier,1
;   useOozeShield,0
;   oozeShieldExtruder,999
;   oozeShieldOffset,2
;   oozeShieldOutlines,1
;   oozeShieldSidewallShape,1
;   oozeShieldSidewallAngle,30
;   oozeShieldSpeedMultiplier,1
;   infillExtruder,0
;   internalInfillPattern,Rectilinear
;   externalInfillPattern,Rectilinear
;   infillPercentage,15
;   outlineOverlapPercentage,15
;   infillExtrusionWidthPercentage,100
;   minInfillLength,5
;   infillLayerInterval,1
;   internalInfillAngles,45,-45
;   overlapInternalInfillAngles,0
;   externalInfillAngles,45,-45
;   generateSupport,1
;   supportExtruder,0
;   supportInfillPercentage,25
;   supportExtraInflation,0
;   supportBaseLayers,0
;   denseSupportExtruder,0
;   denseSupportLayers,0
;   denseSupportInfillPercentage,70
;   supportLayerInterval,1
;   supportHorizontalPartOffset,0.3
;   supportUpperSeparationLayers,1
;   supportLowerSeparationLayers,1
;   supportType,0
;   supportGridSpacing,4
;   maxOverhangAngle,45
;   supportAngles,0
;   temperatureName,Primary Extruder
;   temperatureNumber,0
;   temperatureSetpointCount,1
;   temperatureSetpointLayers,1
;   temperatureSetpointTemperatures,200
;   temperatureStabilizeAtStartup,0
;   temperatureHeatedBed,0
;   fanLayers,1,2
;   fanSpeeds,0,100
;   blipFanToFullPower,0
;   adjustSpeedForCooling,1
;   minSpeedLayerTime,15
;   minCoolingSpeedSlowdown,20
;   increaseFanForCooling,0
;   minFanLayerTime,45
;   maxCoolingFanSpeed,100
;   increaseFanForBridging,0
;   bridgingFanSpeed,100
;   use5D,1
;   relativeEdistances,0
;   allowEaxisZeroing,1
;   independentExtruderAxes,1
;   includeM10123,0
;   stickySupport,1
;   applyToolheadOffsets,0
;   gcodeXoffset,0
;   gcodeYoffset,0
;   gcodeZoffset,0
;   overrideMachineDefinition,1
;   machineTypeOverride,0
;   strokeXoverride,140
;   strokeYoverride,140
;   strokeZoverride,140
;   originOffsetXoverride,70
;   originOffsetYoverride,70
;   originOffsetZoverride,0
;   homeXdirOverride,1
;   homeYdirOverride,1
;   homeZdirOverride,-1
;   flipXoverride,1
;   flipYoverride,-1
;   flipZoverride,1
;   toolheadOffsets,0,0|0,0|0,0|0,0|0,0|0,0
;   overrideFirmwareConfiguration,1
;   firmwareTypeOverride,FlashForge Dreamer Firmware
;   GPXconfigOverride,r2
;   baudRateOverride,115200
;   overridePrinterModels,1
;   printerModelsOverride
;   startingGcode,M146 r255 g0 b0 ; Set lights to red while preheating,M907 X100 Y100 Z40 A100 B100 ; Set motor current,M132 X Y Z A B ; Recall home offsets,G28 ; Home axes,G1 Z100 F3300 ; Lower Z,G1 X-70 Y-70 F6000 ; Move to wait position,M7 ; Wait for bed to stabilize,M6 T0 ; Wait for right extruder to reach target temp,G1 X-68 Y-68 F9000 ; Move to front left corner of bed,G1 Z0.3 F6000 ; Move down to purge,G92 E0 ; Zero extruders,G1 X50 Y-68 E20 F2000 ; Extrude a line of filament across the front edge of the bed,G1 X60 Y-68 F180 ; Wait for ooze,G1 X68 Y-68 F5000 ; Fast wipe,G1 Z1 F100 ; Lift,G92 E0 ; Zero extruders again,M146 r255 g255 b255 ; Turn lights on for print,G1 Z0.5 F3300 ; Position nozzle
;   layerChangeGcode,
;   retractionGcode,
;   toolChangeGcode,
;   endingGcode,M104 S0 T0 ; cool down extruder,G1 Z140 F3300 ; send Z axis to bottom of machine,M107 ; disable cooling fan,G28 X0 Y0 ; home XY axes,M146 r0 g0 b0 ; Turn lights off,M18 ; disable stepper
;   exportFileFormat,gcode
;   celebration,0
;   celebrationSong,Random Song
;   postProcessing,
;   defaultSpeed,3000
;   outlineUnderspeed,0.5
;   solidInfillUnderspeed,0.8
;   supportUnderspeed,0.8
;   rapidXYspeed,4800
;   rapidZspeed,1000
;   minBridgingArea,50
;   bridgingExtraInflation,0
;   bridgingExtrusionMultiplier,1
;   bridgingSpeedMultiplier,1
;   useFixedBridgingAngle,0
;   fixedBridgingAngle,0
;   applyBridgingToPerimeters,0
;   filamentDiameters,1.75|1.75|1.75|1.75|1.75|1.75
;   filamentPricesPerKg,46|46|46|46|46|46
;   filamentDensities,1.25|1.25|1.25|1.25|1.25|1.25
;   useMinPrintHeight,0
;   minPrintHeight,0
;   useMaxPrintHeight,0
;   maxPrintHeight,0
;   useDiaphragm,0
;   diaphragmLayerInterval,20
;   robustSlicing,1
;   mergeAllIntoSolid,0
;   onlyRetractWhenCrossingOutline,1
;   retractBetweenLayers,1
;   useRetractionMinTravel,0
;   retractionMinTravel,3
;   retractWhileWiping,0
;   onlyWipeOutlines,1
;   avoidCrossingOutline,0
;   maxMovementDetourFactor,3
;   toolChangeRetractionDistance,12
;   toolChangeExtraRestartDistance,-0.5
;   toolChangeRetractionSpeed,600
;   externalThinWallType,0
;   internalThinWallType,2
;   thinWallAllowedOverlapPercentage,10
;   singleExtrusionMinLength,1
;   singleExtrusionMinPrintingWidthPercentage,50
;   singleExtrusionMaxPrintingWidthPercentage,200
;   singleExtrusionEndpointExtension,0.2
;   horizontalSizeCompensation,0
G90
M82
M107
M104 S200 T0
M146 r255 g0 b0 ; Set lights to red while preheating
M907 X100 Y100 Z40 A100 B100 ; Set motor current
M132 X Y Z A B ; Recall home offsets
G28 ; Home axes
G1 Z100 F3300 ; Lower Z
G1 X-70 Y-70 F6000 ; Move to wait position
M7 ; Wait for bed to stabilize
M6 T0 ; Wait for right extruder to reach target temp
G1 X-68 Y-68 F9000 ; Move to front left corner of bed
G1 Z0.3 F6000 ; Move down to purge
G92 E0 ; Zero extruders
G1 X50 Y-68 E20 F2000 ; Extrude a line of filament across the front edge of the bed
G1 X60 Y-68 F180 ; Wait for ooze
G1 X68 Y-68 F5000 ; Fast wipe
G1 Z1 F100 ; Lift
G92 E0 ; Zero extruders again
M146 r255 g255 b255 ; Turn lights on for print
G1 Z0.5 F3300 ; Position nozzle
; process Process1
; layer 1, Z = 0.450
M108 T0
G92 E0.0000
G1 E-1.0000 F1800
; feature skirt
; tool H0.450 W0.500
G1 Z0.450 F1000
G1 X55.621 Y0.000 F4800
G1 E0.0000 F1800
G92 E0.0000
G1 X55.750 Y0.313 E0.0285 F900
G1 X55.750 Y24.687 E2.0806
G1 X55.027 Y26.433 E2.2397
G1 X51.933 Y29.527 E2.6080
G1 X50.187 Y30.250 E2.7671
G1 X-50.187 Y30.250 E11.2176
G1 X-51.933 Y29.527 E11.3767
G1 X-55.027 Y26.433 E11.7451
G1 X-55.750 Y24.687 E11.9042
G1 X-55.750 Y0.313 E13.9563
G1 X-55.621 Y0.000 E13.9848
G1 X-55.750 Y-0.313 E14.0132
G1 X-55.750 Y-24.687 E16.0654
G1 X-55.027 Y-26.433 E16.2244
G1 X-51.933 Y-29.527 E16.5928
G1 X-50.187 Y-30.250 E16.7519
G1 X50.187 Y-30.250 E25.2024
G1 X51.933 Y-29.527 E25.3615
G1 X55.027 Y-26.433 E25.7298
G1 X55.750 Y-24.687 E25.8889
G1 X55.750 Y-0.313 E27.9410
G1 X55.621 Y0.000 E27.9695
G92 E0.0000
G1 E-1.0000 F1800
G1 X55.079 Y0.000 F4800
G1 E0.0000 F1800
G92 E0.0000
G1 X55.250 Y0.412 E0.0375 F900
G1 X55.250 Y24.588 E2.0729
G1 X54.603 Y26.150 E2.2153
G1 X51.650 Y29.103 E2.5668
G1 X50.088 Y29.750 E2.7092
G1 X-50.088 Y29.750 E11.1430
G1 X-51.650 Y29.103 E11.2853
G1 X-54.603 Y26.150 E11.6369
G1 X-55.250 Y24.588 E11.7792
G1 X-55.250 Y0.412 E13.8146
G1 X-55.079 Y0.000 E13.8522
G1 X-55.250 Y-0.412 E13.8897
G1 X-55.250 Y-24.588 E15.9251
G1 X-54.603 Y-26.150 E16.0674
G1 X-51.650 Y-29.103 E16.4190
G1 X-50.088 Y-29.750 E16.5613
G1 X50.088 Y-29.750 E24.9951
G1 X51.650 Y-29.103 E25.1375
G1 X54.603 Y-26.150 E25.4891
G1 X55.250 Y-24.588 E25.6314
G1 X55.250 Y-0.412 E27.6668
G1 X55.079 Y0.000 E27.7043
G92 E0.0000
G1 E-1.0000 F1800
; feature raft
; tool H0.450 W0.800
G1 X50.600 Y-1.423 F4800
G1 E0.0000 F1800
G92 E0.0000
G1 X49.177 Y0.000 E0.2711 F225
G1 X50.600 Y1.423 E0.5422
G1 X50.600 Y23.577 E3.5264
G1 X49.077 Y25.100 E3.8165
G1 X-49.077 Y25.100 E17.0382
G1 X-50.600 Y23.577 E17.3283
G1 X-50.600 Y1.423 E20.3126
G1 X-49.177 Y0.000 E20.5836
G1 X-50.600 Y-1.423 E20.8547
G1 X-50.600 Y-23.577 E23.8390
G1 X-49.077 Y-25.100 E24.1291
G1 X49.077 Y-25.100 E37.3508
G1 X50.600 Y-23.577 E37.6409
G1 X50.600 Y-1.423 E40.6251
G92 E0.0000
G1 E-1.0000 F1800
G1 X41.533 Y8.150 F4800
G1 E0.0000 F1800
G92 E0.0000
G1 X-26.350 Y8.150 E9.1441 F225
G1 X-26.350 Y16.850 E10.3160
G1 X41.533 Y16.850 E19.4601
G1 X42.350 Y16.033 E19.6157
G1 X42.350 Y8.967 E20.5676
G1 X41.533 Y8.150 E20.7232
G92 E0.0000
G1 E-1.0000 F1800
G1 X43.030 Y9.143 F4800
G1 E0.0000 F1800
G92 E0.0000
G1 X49.920 Y9.143 E0.9281 F225
G1 X49.920 Y11.429 E1.2360
G1 X43.030 Y11.429 E2.1641
G1 X43.030 Y13.714 E2.4720
G1 X49.920 Y13.714 E3.4001
G1 X49.920 Y16.000 E3.7080
G1 X43.030 Y16.000 E4.6361
G92 E0.0000
G1 E-1.0000 F1800
G1 X49.920 Y22.857 F4800
G1 E0.0000 F1800
G92 E0.0000
G1 X-49.920 Y22.857 E13.4488 F225
G1 X-49.920 Y20.571 E13.7567
G1 X49.920 Y20.571 E27.2055
G1 X49.920 Y18.286 E27.5134
G1 X-49.920 Y18.286 E40.9622
G1 X-49.920 Y16.000 E41.2701
G1 X-27.030 Y16.000 E44.3535
G1 X-27.030 Y13.714 E44.6613
G1 X-49.920 Y13.714 E47.7447
G1 X-49.920 Y11.429 E48.0526
G1 X-27.030 Y11.429 E51.1360
G1 X-27.030 Y9.143 E51.4439
G1 X-49.920 Y9.143 E54.5272
G1 X-49.920 Y6.857 E54.8351
G1 X49.920 Y6.857 E68.2839
G1 X49.920 Y4.571 E68.5918
G1 X-49.920 Y4.571 E82.0406
G1 X-49.920 Y2.286 E82.3485
G1 X49.920 Y2.286 E95.7973
G1 X49.920 Y1.705 E95.8756
G1 X48.215 Y0.000 E96.2003
G1 X-48.215 Y0.000 E109.1899
G1 X-49.920 Y-1.705 E109.5146
G1 X-49.920 Y-2.286 E109.5929
G1 X49.920 Y-2.286 E123.0417
G1 X49.920 Y-4.571 E123.3496
G1 X-49.920 Y-4.571 E136.7984
G1 X-49.920 Y-6.857 E137.1063
G1 X49.920 Y-6.857 E150.5551
G1 X49.920 Y-9.143 E150.8630
G1 X-49.920 Y-9.143 E164.3118
G1 X-49.920 Y-11.429 E164.6197
G1 X49.920 Y-11.429 E178.0685
G1 X49.920 Y-13.714 E178.3764
G1 X-49.920 Y-13.714 E191.8252
G1 X-49.920 Y-16.000 E192.1330
G1 X49.920 Y-16.000 E205.5819
G1 X49.920 Y-18.286 E205.8897
G1 X-49.920 Y-18.286 E219.3385
G1 X-49.920 Y-20.571 E219.6464
G1 X49.920 Y-20.571 E233.0952
G1 X49.920 Y-22.857 E233.4031
G1 X-49.920 Y-22.857 E246.8519
G92 E0.0000
G1 E-1.0000 F1800
; layer 2, Z = 0.950
M106 S255
; tool H0.500 W0.800
G1 Z0.950 F1000
G1 X-50.600 Y-23.577 F4800
G1 E0.0000 F1800
G92 E0.0000
G1 X-49.077 Y-25.100 E0.3224 F750
G1 X49.077 Y-25.100 E15.0131
G1 X50.600 Y-23.577 E15.3355
G1 X50.600 Y-1.423 E18.6513
G1 X49.177 Y0.000 E18.9525
G1 X50.600 Y1.423 E19.2537
G1 X50.600 Y23.577 E22.5695
G1 X49.077 Y25.100 E22.8919
G1 X-49.077 Y25.100 E37.5826
G1 X-50.600 Y23.577 E37.9050
G1 X-50.600 Y1.423 E41.2208
G1 X-49.177 Y0.000 E41.5220
G1 X-50.600 Y-1.423 E41.8232
G1 X-50.600 Y-23.577 E45.1390
G92 E0.0000
G1 E-1.0000 F1800
G1 X-26.350 Y8.150 F4800
G1 E0.0000 F1800
G92 E0.0000
G1 X-26.350 Y16.850 E1.3021 F750
G1 X41.533 Y16.850 E11.4622
G1 X42.350 Y16.033 E11.6352
G1 X42.350 Y8.967 E12.6927
G1 X41.533 Y8.150 E12.8657
G1 X-26.350 Y8.150 E23.0258
G92 E0.0000
G1 E-1.0000 F1800
G1 X-49.920 Y-22.857 F4800
G1 E0.0000 F1800
G92 E0.0000
G1 X49.920 Y-22.857 E14.9431 F750
G1 X49.920 Y-20.571 E15.2852
G1 X-49.920 Y-20.571 E30.2283
G1 X-49.920 Y-18.286 E30.5704
G1 X49.920 Y-18.286 E45.5135
G1 X49.920 Y-16.000 E45.8557
G1 X-49.920 Y-16.000 E60.7988
G1 X-49.920 Y-13.714 E61.1409
G1 X49.920 Y-13.714 E76.0840
G1 X49.920 Y-11.429 E76.4261
G1 X-49.920 Y-11.429 E91.3692
G1 X-49.920 Y-9.143 E91.7113
G1 X49.920 Y-9.143 E106.6544
G1 X49.920 Y-6.857 E106.9965
G1 X-49.920 Y-6.857 E121.9396
G1 X-49.920 Y-4.571 E122.2817
G1 X49.920 Y-4.571 E137.2249
G1 X49.920 Y-2.286 E137.5670
G1 X-49.920 Y-2.286 E152.5101
G1 X-49.920 Y-1.705 E152.5970
G1 X-48.215 Y0.000 E152.9579
G1 X48.215 Y0.000 E167.3907
G1 X49.920 Y1.705 E167.7515
G1 X49.920 Y2.286 E167.8385
G1 X-49.920 Y2.286 E182.7816
G1 X-49.920 Y4.571 E183.1237
G1 X49.920 Y4.571 E198.0668
G1 X49.920 Y6.857 E198.4089
G1 X-49.920 Y6.857 E213.3520
G1 X-49.920 Y9.143 E213.6941
G1 X-27.030 Y9.143 E217.1201
G1 X-27.030 Y11.429 E217.4622
G1 X-49.920 Y11.429 E220.8882
G1 X-49.920 Y13.714 E221.2303
G1 X-27.030 Y13.714 E224.6562
G1 X-27.030 Y16.000 E224.9983
G1 X-49.920 Y16.000 E228.4243
G1 X-49.920 Y18.286 E228.7664
G1 X49.920 Y18.286 E243.7095
G1 X49.920 Y20.571 E244.0516
G1 X-49.920 Y20.571 E258.9947
G1 X-49.920 Y22.857 E259.3368
G1 X49.920 Y22.857 E274.2799
G92 E0.0000
G1 E-1.0000 F1800
G1 X43.030 Y16.000 F4800
G1 E0.0000 F1800
G92 E0.0000
G1 X49.920 Y16.000 E1.0312 F750
G1 X49.920 Y13.714 E1.3733
G1 X43.030 Y13.714 E2.4046
G1 X43.030 Y11.429 E2.7467
G1 X49.920 Y11.429 E3.7779
G1 X49.920 Y9.143 E4.1200
G1 X43.030 Y9.143 E5.1512
G92 E0.0000
G1 E-1.0000 F1800
; layer 3, Z = 1.172
; tool H0.222 W0.400
G1 Z1.172 F1000
G1 X42.150 Y15.550 F4800
G1 E0.0000 F1800
G92 E0.0000
G1 X50.800 Y6.900 E0.4069 F2250
G1 X50.800 Y6.334 E0.4257
G1 X42.150 Y14.984 E0.8326
G1 X42.150 Y14.419 E0.8514
G1 X50.800 Y5.769 E1.2582
G1 X50.800 Y5.203 E1.2771
G1 X42.150 Y13.853 E1.6839
G1 X42.150 Y13.287 E1.7027
G1 X50.800 Y4.637 E2.1096
G1 X50.800 Y4.072 E2.1284
G1 X42.150 Y12.722 E2.5353
G1 X42.150 Y12.156 E2.5541
G1 X50.800 Y3.506 E2.9610
G1 X50.800 Y2.940 E2.9798
G1 X42.150 Y11.590 E3.3867
G1 X42.150 Y11.024 E3.4055
G1 X50.800 Y2.374 E3.8123
G1 X50.800 Y1.809 E3.8312
G1 X42.150 Y10.459 E4.2380
G1 X42.150 Y9.893 E4.2568
G1 X50.751 Y1.292 E4.6614
G1 X50.469 Y1.009 E4.6747
G1 X42.150 Y9.327 E5.0660
G1 X42.150 Y9.050 E5.0752
G1 X42.006 Y8.906 E5.0820
G1 X50.186 Y0.726 E5.4668
G1 X49.903 Y0.443 E5.4801
G1 X41.723 Y8.623 E5.8648
G1 X41.450 Y8.350 E5.8777
G1 X41.430 Y8.350 E5.8783
G1 X49.620 Y0.160 E6.2635
G1 X49.460 Y0.000 E6.2711
G1 X50.800 Y-1.340 E6.3341
G1 X50.800 Y-1.585 E6.3423
G1 X40.865 Y8.350 E6.8096
G1 X40.299 Y8.350 E6.8284
G1 X50.800 Y-2.151 E7.3224
G1 X50.800 Y-2.717 E7.3412
G1 X39.733 Y8.350 E7.8617
G1 X39.168 Y8.350 E7.8805
G1 X50.800 Y-3.282 E8.4277
G1 X50.800 Y-3.848 E8.4465
G1 X38.602 Y8.350 E9.0203
G1 X38.036 Y8.350 E9.0391
G1 X50.800 Y-4.414 E9.6394
G1 X50.800 Y-4.979 E9.6583
G1 X37.471 Y8.350 E10.2852
G1 X36.905 Y8.350 E10.3040
G1 X50.800 Y-5.545 E10.9576
G1 X50.800 Y-6.111 E10.9764
G1 X36.339 Y8.350 E11.6566
G1 X35.774 Y8.350 E11.6754
G1 X50.800 Y-6.677 E12.3822
G1 X50.800 Y-7.242 E12.4011
G1 X35.208 Y8.350 E13.1345
G1 X34.642 Y8.350 E13.1533
G1 X50.800 Y-7.808 E13.9133
G1 X50.800 Y-8.374 E13.9321
G1 X34.076 Y8.350 E14.7187
G1 X33.511 Y8.350 E14.7376
G1 X50.800 Y-8.939 E15.5508
G1 X50.800 Y-9.505 E15.5696
G1 X32.945 Y8.350 E16.4094
G1 X32.379 Y8.350 E16.4283
G1 X50.800 Y-10.071 E17.2947
G1 X50.800 Y-10.636 E17.3135
G1 X31.814 Y8.350 E18.2066
G1 X31.248 Y8.350 E18.2254
G1 X50.800 Y-11.202 E19.1451
G1 X50.800 Y-11.768 E19.1639
G1 X30.682 Y8.350 E20.1101
G1 X30.117 Y8.350 E20.1290
G1 X50.800 Y-12.333 E21.1018
G1 X50.800 Y-12.899 E21.1207
G1 X29.551 Y8.350 E22.1201
G1 X28.985 Y8.350 E22.1390
G1 X50.800 Y-13.465 E23.1651
G1 X50.800 Y-14.030 E23.1839
G1 X28.420 Y8.350 E24.2366
G1 X27.854 Y8.350 E24.2554
G1 X50.800 Y-14.596 E25.3347
G1 X50.800 Y-15.162 E25.3535
G1 X27.288 Y8.350 E26.4594
G1 X26.723 Y8.350 E26.4783
G1 X50.800 Y-15.727 E27.6108
G1 X50.800 Y-16.293 E27.6296
G1 X26.157 Y8.350 E28.7887
G1 X25.591 Y8.350 E28.8076
G1 X50.800 Y-16.859 E29.9933
G1 X50.800 Y-17.425 E30.0121
G1 X25.025 Y8.350 E31.2245
G1 X24.460 Y8.350 E31.2433
G1 X50.800 Y-17.990 E32.4822
G1 X50.800 Y-18.556 E32.5011
G1 X23.894 Y8.350 E33.7666
G1 X23.328 Y8.350 E33.7855
