; G-Code generated by Simplify3D(R) Version 4.1.2
; Apr 6, 2021 at 8:00:37 AM
; Settings Summary
;   processName,Medium Quality
;   applyToModels,4x1_1_bottom_angle,4x1_1_top
;   profileName,FlashForge Finder (modified)
;   profileVersion,2021-04-05 22:03:25
;   baseProfile,
;   printMaterial,PLA
;   printQuality,Fast
;   printExtruders,
;   extruderName,Primary Extruder
;   extruderToolheadNumber,0
;   extruderDiameter,0.4
;   extruderAutoWidth,0
;   extruderWidth,0.4
;   extrusionMultiplier,0.9
;   extruderUseRetract,1
;   extruderRetractionDistance,1
;   extruderExtraRestartDistance,0
;   extruderRetractionZLift,0
;   extruderRetractionSpeed,1800
;   extruderUseCoasting,0
;   extruderCoastingDistance,0.2
;   extruderUseWipe,0
;   extruderWipeDistance,5
;   primaryExtruder,0
;   layerHeight,0.3
;   topSolidLayers,3
;   bottomSolidLayers,3
;   perimeterOutlines,2
;   printPerimetersInsideOut,1
;   startPointOption,2
;   startPointOriginX,0
;   startPointOriginY,0
;   sequentialIslands,0
;   spiralVaseMode,0
;   firstLayerHeightPercentage,90
;   firstLayerWidthPercentage,125
;   firstLayerUnderspeed,0.3
;   useRaft,1
;   raftExtruder,0
;   raftTopLayers,3
;   raftBaseLayers,2
;   raftOffset,3
;   raftSeparationDistance,0.14
;   raftTopInfill,100
;   aboveRaftSpeedMultiplier,0.3
;   useSkirt,1
;   skirtExtruder,0
;   skirtLayers,1
;   skirtOutlines,2
;   skirtOffset,4
;   usePrimePillar,0
;   primePillarExtruder,999
;   primePillarWidth,12
;   primePillarLocation,7
;   primePillarSpeedMultiplier,1
;   useOozeShield,0
;   oozeShieldExtruder,999
;   oozeShieldOffset,2
;   oozeShieldOutlines,1
;   oozeShieldSidewallShape,1
;   oozeShieldSidewallAngle,30
;   oozeShieldSpeedMultiplier,1
;   infillExtruder,0
;   internalInfillPattern,Rectilinear
;   externalInfillPattern,Rectilinear
;   infillPercentage,50
;   outlineOverlapPercentage,15
;   infillExtrusionWidthPercentage,100
;   minInfillLength,5
;   infillLayerInterval,1
;   internalInfillAngles,45,-45
;   overlapInternalInfillAngles,0
;   externalInfillAngles,45,-45
;   generateSupport,1
;   supportExtruder,0
;   supportInfillPercentage,15
;   supportExtraInflation,0
;   supportBaseLayers,0
;   denseSupportExtruder,0
;   denseSupportLayers,0
;   denseSupportInfillPercentage,70
;   supportLayerInterval,1
;   supportHorizontalPartOffset,0.3
;   supportUpperSeparationLayers,1
;   supportLowerSeparationLayers,1
;   supportType,0
;   supportGridSpacing,4
;   maxOverhangAngle,45
;   supportAngles,0
;   temperatureName,Primary Extruder
;   temperatureNumber,0
;   temperatureSetpointCount,1
;   temperatureSetpointLayers,1
;   temperatureSetpointTemperatures,200
;   temperatureStabilizeAtStartup,0
;   temperatureHeatedBed,0
;   fanLayers,1,2
;   fanSpeeds,0,100
;   blipFanToFullPower,0
;   adjustSpeedForCooling,1
;   minSpeedLayerTime,15
;   minCoolingSpeedSlowdown,20
;   increaseFanForCooling,0
;   minFanLayerTime,45
;   maxCoolingFanSpeed,100
;   increaseFanForBridging,0
;   bridgingFanSpeed,100
;   use5D,1
;   relativeEdistances,0
;   allowEaxisZeroing,1
;   independentExtruderAxes,1
;   includeM10123,0
;   stickySupport,1
;   applyToolheadOffsets,0
;   gcodeXoffset,0
;   gcodeYoffset,0
;   gcodeZoffset,0
;   overrideMachineDefinition,1
;   machineTypeOverride,0
;   strokeXoverride,140
;   strokeYoverride,140
;   strokeZoverride,140
;   originOffsetXoverride,70
;   originOffsetYoverride,70
;   originOffsetZoverride,0
;   homeXdirOverride,1
;   homeYdirOverride,1
;   homeZdirOverride,-1
;   flipXoverride,1
;   flipYoverride,-1
;   flipZoverride,1
;   toolheadOffsets,0,0|0,0|0,0|0,0|0,0|0,0
;   overrideFirmwareConfiguration,1
;   firmwareTypeOverride,FlashForge Dreamer Firmware
;   GPXconfigOverride,r2
;   baudRateOverride,115200
;   overridePrinterModels,1
;   printerModelsOverride
;   startingGcode,M146 r255 g0 b0 ; Set lights to red while preheating,M907 X100 Y100 Z40 A100 B100 ; Set motor current,M132 X Y Z A B ; Recall home offsets,G28 ; Home axes,G1 Z100 F3300 ; Lower Z,G1 X-70 Y-70 F6000 ; Move to wait position,M7 ; Wait for bed to stabilize,M6 T0 ; Wait for right extruder to reach target temp,G1 X-68 Y-68 F9000 ; Move to front left corner of bed,G1 Z0.3 F6000 ; Move down to purge,G92 E0 ; Zero extruders,G1 X50 Y-68 E20 F2000 ; Extrude a line of filament across the front edge of the bed,G1 X60 Y-68 F180 ; Wait for ooze,G1 X68 Y-68 F5000 ; Fast wipe,G1 Z1 F100 ; Lift,G92 E0 ; Zero extruders again,M146 r255 g255 b255 ; Turn lights on for print,G1 Z0.5 F3300 ; Position nozzle
;   layerChangeGcode,
;   retractionGcode,
;   toolChangeGcode,
;   endingGcode,M104 S0 T0 ; cool down extruder,G1 Z140 F3300 ; send Z axis to bottom of machine,M107 ; disable cooling fan,G28 X0 Y0 ; home XY axes,M146 r0 g0 b0 ; Turn lights off,M18 ; disable stepper
;   exportFileFormat,gcode
;   celebration,0
;   celebrationSong,Random Song
;   postProcessing,
;   defaultSpeed,3000
;   outlineUnderspeed,0.5
;   solidInfillUnderspeed,0.8
;   supportUnderspeed,0.8
;   rapidXYspeed,4800
;   rapidZspeed,1000
;   minBridgingArea,50
;   bridgingExtraInflation,0
;   bridgingExtrusionMultiplier,1
;   bridgingSpeedMultiplier,1
;   useFixedBridgingAngle,0
;   fixedBridgingAngle,0
;   applyBridgingToPerimeters,0
;   filamentDiameters,1.75|1.75|1.75|1.75|1.75|1.75
;   filamentPricesPerKg,46|46|46|46|46|46
;   filamentDensities,1.25|1.25|1.25|1.25|1.25|1.25
;   useMinPrintHeight,0
;   minPrintHeight,0
;   useMaxPrintHeight,0
;   maxPrintHeight,0
;   useDiaphragm,0
;   diaphragmLayerInterval,20
;   robustSlicing,1
;   mergeAllIntoSolid,0
;   onlyRetractWhenCrossingOutline,1
;   retractBetweenLayers,1
;   useRetractionMinTravel,0
;   retractionMinTravel,3
;   retractWhileWiping,0
;   onlyWipeOutlines,1
;   avoidCrossingOutline,0
;   maxMovementDetourFactor,3
;   toolChangeRetractionDistance,12
;   toolChangeExtraRestartDistance,-0.5
;   toolChangeRetractionSpeed,600
;   externalThinWallType,0
;   internalThinWallType,2
;   thinWallAllowedOverlapPercentage,10
;   singleExtrusionMinLength,1
;   singleExtrusionMinPrintingWidthPercentage,50
;   singleExtrusionMaxPrintingWidthPercentage,200
;   singleExtrusionEndpointExtension,0.2
;   horizontalSizeCompensation,0
G90
M82
M107
M104 S200 T0
M146 r255 g0 b0 ; Set lights to red while preheating
M907 X100 Y100 Z40 A100 B100 ; Set motor current
M132 X Y Z A B ; Recall home offsets
G28 ; Home axes
G1 Z100 F3300 ; Lower Z
G1 X-70 Y-70 F6000 ; Move to wait position
M7 ; Wait for bed to stabilize
M6 T0 ; Wait for right extruder to reach target temp
G1 X-68 Y-68 F9000 ; Move to front left corner of bed
G1 Z0.3 F6000 ; Move down to purge
G92 E0 ; Zero extruders
G1 X50 Y-68 E20 F2000 ; Extrude a line of filament across the front edge of the bed
G1 X60 Y-68 F180 ; Wait for ooze
G1 X68 Y-68 F5000 ; Fast wipe
G1 Z1 F100 ; Lift
G92 E0 ; Zero extruders again
M146 r255 g255 b255 ; Turn lights on for print
G1 Z0.5 F3300 ; Position nozzle
; process Medium Quality
; layer 1, Z = 0.450
M108 T0
G92 E0.0000
G1 E-1.0000 F1800
; feature skirt
; tool H0.450 W0.500
G1 Z0.450 F1000
G1 X1.419 Y30.250 F4800
G1 E0.0000 F1800
G92 E0.0000
G1 X0.887 Y30.470 E0.0484 F900
G1 X-5.887 Y30.470 E0.6188
G1 X-6.419 Y30.250 E0.6672
G1 X-38.081 Y30.250 E3.3329
G1 X-38.613 Y30.470 E3.3813
G1 X-45.387 Y30.470 E3.9516
G1 X-45.919 Y30.250 E4.0000
G1 X-47.687 Y30.250 E4.1490
G1 X-49.433 Y29.527 E4.3081
G1 X-52.527 Y26.433 E4.6764
G1 X-53.250 Y24.687 E4.8355
G1 X-53.250 Y0.313 E6.8876
G1 X-53.121 Y0.000 E6.9161
G1 X-53.250 Y-0.313 E6.9445
G1 X-53.250 Y-4.987 E7.3381
G1 X-52.527 Y-6.733 E7.4972
G1 X-51.970 Y-7.290 E7.5635
G1 X-51.970 Y-24.907 E9.0467
G1 X-51.247 Y-26.653 E9.2058
G1 X-48.153 Y-29.747 E9.5741
G1 X-46.407 Y-30.470 E9.7332
G1 X46.407 Y-30.470 E17.5473
G1 X48.153 Y-29.747 E17.7064
G1 X51.247 Y-26.653 E18.0747
G1 X51.970 Y-24.907 E18.2338
G1 X51.970 Y-7.290 E19.7170
G1 X52.527 Y-6.733 E19.7833
G1 X53.250 Y-4.987 E19.9424
G1 X53.250 Y-0.313 E20.3360
G1 X53.121 Y0.000 E20.3644
G1 X53.250 Y0.313 E20.3929
G1 X53.250 Y24.687 E22.4450
G1 X52.527 Y26.433 E22.6041
G1 X49.433 Y29.527 E22.9725
G1 X47.687 Y30.250 E23.1316
G1 X44.869 Y30.250 E23.3689
G1 X44.337 Y30.470 E23.4173
G1 X37.593 Y30.470 E23.9851
G1 X37.061 Y30.250 E24.0335
G1 X1.419 Y30.250 E27.0343
G92 E0.0000
G1 E-1.0000 F1800
G1 X1.319 Y29.750 F4800
G1 E0.0000 F1800
G92 E0.0000
G1 X0.788 Y29.970 E0.0484 F900
G1 X-5.788 Y29.970 E0.6020
G1 X-6.319 Y29.750 E0.6504
G1 X-38.181 Y29.750 E3.3329
G1 X-38.712 Y29.970 E3.3813
G1 X-45.288 Y29.970 E3.9349
G1 X-45.819 Y29.750 E3.9833
G1 X-47.588 Y29.750 E4.1322
G1 X-49.150 Y29.103 E4.2746
G1 X-52.103 Y26.150 E4.6261
G1 X-52.750 Y24.588 E4.7685
G1 X-52.750 Y0.412 E6.8039
G1 X-52.579 Y0.000 E6.8414
G1 X-52.750 Y-0.412 E6.8789
G1 X-52.750 Y-4.888 E7.2558
G1 X-52.103 Y-6.450 E7.3981
G1 X-51.470 Y-7.083 E7.4735
G1 X-51.470 Y-24.808 E8.9657
G1 X-50.823 Y-26.370 E9.1081
G1 X-47.870 Y-29.323 E9.4597
G1 X-46.308 Y-29.970 E9.6020
G1 X46.308 Y-29.970 E17.3993
G1 X47.870 Y-29.323 E17.5417
G1 X50.823 Y-26.370 E17.8933
G1 X51.470 Y-24.808 E18.0356
G1 X51.470 Y-7.083 E19.5279
G1 X52.103 Y-6.450 E19.6032
G1 X52.750 Y-4.888 E19.7456
G1 X52.750 Y-0.412 E20.1224
G1 X52.579 Y0.000 E20.1599
G1 X52.750 Y0.412 E20.1975
G1 X52.750 Y24.588 E22.2329
G1 X52.103 Y26.150 E22.3752
G1 X49.150 Y29.103 E22.7268
G1 X47.588 Y29.750 E22.8691
G1 X44.769 Y29.750 E23.1065
G1 X44.238 Y29.970 E23.1548
G1 X37.692 Y29.970 E23.7060
G1 X37.161 Y29.750 E23.7544
G1 X1.319 Y29.750 E26.7719
G92 E0.0000
G1 E-1.0000 F1800
; feature raft
; tool H0.450 W0.800
G1 X-0.223 Y25.320 F4800
G1 E0.0000 F1800
G92 E0.0000
G1 X-4.777 Y25.320 E0.6134 F225
G1 X-4.997 Y25.100 E0.6553
G1 X-39.503 Y25.100 E5.3034
G1 X-39.723 Y25.320 E5.3453
G1 X-44.277 Y25.320 E5.9588
G1 X-44.497 Y25.100 E6.0007
G1 X-46.577 Y25.100 E6.2809
G1 X-48.100 Y23.577 E6.5710
G1 X-48.100 Y1.423 E9.5552
G1 X-46.677 Y0.000 E9.8263
G1 X-48.100 Y-1.423 E10.0974
G1 X-48.100 Y-3.877 E10.4279
G1 X-46.820 Y-5.157 E10.6718
G1 X-46.820 Y-23.797 E13.1827
G1 X-45.297 Y-25.320 E13.4728
G1 X45.297 Y-25.320 E25.6761
G1 X46.820 Y-23.797 E25.9663
G1 X46.820 Y-5.157 E28.4771
G1 X48.100 Y-3.877 E28.7210
G1 X48.100 Y-1.423 E29.0515
G1 X46.677 Y0.000 E29.3226
G1 X48.100 Y1.423 E29.5937
G1 X48.100 Y23.577 E32.5779
G1 X46.577 Y25.100 E32.8680
G1 X43.447 Y25.100 E33.2897
G1 X43.227 Y25.320 E33.3316
G1 X38.703 Y25.320 E33.9410
G1 X38.483 Y25.100 E33.9829
G1 X-0.003 Y25.100 E39.1671
G1 X-0.223 Y25.320 E39.2090
G92 E0.0000
G1 E-1.0000 F1800
G1 X1.180 Y15.680 F4800
G1 E0.0000 F1800
G92 E0.0000
G1 X1.180 Y9.320 E0.8567 F225
G1 X-5.297 Y9.320 E1.7292
G1 X-6.467 Y8.150 E1.9521
G1 X-9.180 Y8.150 E2.3175
G1 X-9.180 Y16.850 E3.4894
G1 X-6.467 Y16.850 E3.8549
G1 X-5.297 Y15.680 E4.0778
G1 X1.180 Y15.680 E4.9503
G92 E0.0000
G1 E-1.0000 F1800
G1 X10.820 Y16.850 F4800
G1 E0.0000 F1800
G92 E0.0000
G1 X21.180 Y16.850 E1.3955 F225
G1 X21.180 Y8.150 E2.5675
G1 X10.820 Y8.150 E3.9630
G1 X10.820 Y16.850 E5.1349
G92 E0.0000
G1 E-1.0000 F1800
G1 X30.820 Y16.850 F4800
G1 E0.0000 F1800
G92 E0.0000
G1 X37.533 Y16.850 E0.9043 F225
G1 X38.703 Y15.680 E1.1272
G1 X39.850 Y15.680 E1.2817
G1 X39.850 Y9.320 E2.1384
G1 X38.703 Y9.320 E2.2929
G1 X37.533 Y8.150 E2.5157
G1 X30.820 Y8.150 E3.4200
G1 X30.820 Y16.850 E4.5919
G92 E0.0000
G1 E-1.0000 F1800
G1 X-18.820 Y16.850 F4800
G1 E0.0000 F1800
G92 E0.0000
G1 X-18.820 Y8.150 E1.1719 F225
G1 X-28.850 Y8.150 E2.5230
G1 X-28.850 Y16.850 E3.6949
G1 X-18.820 Y16.850 E5.0460
G92 E0.0000
G1 E-1.0000 F1800
G1 X-18.140 Y16.000 F4800
G1 E0.0000 F1800
G92 E0.0000
G1 X-9.860 Y16.000 E1.1153 F225
G1 X-9.860 Y13.714 E1.4232
G1 X-18.140 Y13.714 E2.5386
G1 X-18.140 Y11.429 E2.8465
G1 X-9.860 Y11.429 E3.9618
G1 X-9.860 Y9.143 E4.2697
G1 X-18.140 Y9.143 E5.3851
G92 E0.0000
G1 E-1.0000 F1800
G1 X1.860 Y9.143 F4800
G1 E0.0000 F1800
G92 E0.0000
G1 X10.140 Y9.143 E1.1153 F225
G1 X10.140 Y11.429 E1.4232
G1 X1.860 Y11.429 E2.5386
G1 X1.860 Y13.714 E2.8465
G1 X10.140 Y13.714 E3.9618
G1 X10.140 Y16.000 E4.2697
G1 X1.860 Y16.000 E5.3851
G92 E0.0000
G1 E-1.0000 F1800
G1 X21.860 Y16.000 F4800
G1 E0.0000 F1800
G92 E0.0000
G1 X30.140 Y16.000 E1.1153 F225
G1 X30.140 Y13.714 E1.4232
G1 X21.860 Y13.714 E2.5386
G1 X21.860 Y11.429 E2.8465
G1 X30.140 Y11.429 E3.9618
G1 X30.140 Y9.143 E4.2697
G1 X21.860 Y9.143 E5.3851
G92 E0.0000
G1 E-1.0000 F1800
G1 X40.530 Y9.143 F4800
G1 E0.0000 F1800
G92 E0.0000
G1 X47.420 Y9.143 E0.9281 F225
G1 X47.420 Y11.429 E1.2360
G1 X40.530 Y11.429 E2.1641
G1 X40.530 Y13.714 E2.4720
G1 X47.420 Y13.714 E3.4001
G1 X47.420 Y16.000 E3.7080
G1 X40.530 Y16.000 E4.6361
G92 E0.0000
G1 E-1.0000 F1800
G1 X47.420 Y22.857 F4800
G1 E0.0000 F1800
G92 E0.0000
G1 X-47.420 Y22.857 E12.7753 F225
G1 X-47.420 Y20.571 E13.0832
G1 X47.420 Y20.571 E25.8585
G1 X47.420 Y18.286 E26.1664
G1 X-47.420 Y18.286 E38.9416
G1 X-47.420 Y16.000 E39.2495
G1 X-29.530 Y16.000 E41.6594
G1 X-29.530 Y13.714 E41.9673
G1 X-47.420 Y13.714 E44.3771
G1 X-47.420 Y11.429 E44.6850
G1 X-29.530 Y11.429 E47.0949
G1 X-29.530 Y9.143 E47.4028
G1 X-47.420 Y9.143 E49.8126
G1 X-47.420 Y6.857 E50.1205
G1 X47.420 Y6.857 E62.8958
G1 X47.420 Y4.571 E63.2037
G1 X-47.420 Y4.571 E75.9790
G1 X-47.420 Y2.286 E76.2869
G1 X47.420 Y2.286 E89.0621
G1 X47.420 Y1.705 E89.1404
G1 X45.715 Y0.000 E89.4651
G1 X-45.715 Y0.000 E101.7812
G1 X-47.420 Y-1.705 E102.1059
G1 X-47.420 Y-2.286 E102.1842
G1 X47.420 Y-2.286 E114.9595
G1 X47.420 Y-3.595 E115.1359
G1 X46.444 Y-4.571 E115.3218
G1 X-46.444 Y-4.571 E127.8341
G1 X-46.140 Y-4.875 E127.8920
G1 X-46.140 Y-6.857 E128.1590
G1 X46.140 Y-6.857 E140.5894
G1 X46.140 Y-9.143 E140.8973
G1 X-46.140 Y-9.143 E153.3278
G1 X-46.140 Y-11.429 E153.6357
G1 X46.140 Y-11.429 E166.0661
G1 X46.140 Y-13.714 E166.3740
G1 X-46.140 Y-13.714 E178.8044
G1 X-46.140 Y-16.000 E179.1123
G1 X46.140 Y-16.000 E191.5428
G1 X46.140 Y-18.286 E191.8507
G1 X-46.140 Y-18.286 E204.2811
G1 X-46.140 Y-20.571 E204.5890
G1 X46.140 Y-20.571 E217.0194
G1 X46.140 Y-22.857 E217.3273
G1 X-46.140 Y-22.857 E229.7578
G92 E0.0000
G1 E-1.0000 F1800
; layer 2, Z = 0.950
M106 S255
; tool H0.500 W0.800
G1 Z0.950 F1000
G1 X-46.820 Y-23.797 F4800
G1 E0.0000 F1800
G92 E0.0000
G1 X-45.297 Y-25.320 E0.3224 F750
G1 X45.297 Y-25.320 E13.8816
G1 X46.820 Y-23.797 E14.2040
G1 X46.820 Y-5.157 E16.9939
G1 X48.100 Y-3.877 E17.2648
G1 X48.100 Y-1.423 E17.6321
G1 X46.677 Y0.000 E17.9333
G1 X48.100 Y1.423 E18.2345
G1 X48.100 Y23.577 E21.5503
G1 X46.577 Y25.100 E21.8727
G1 X43.447 Y25.100 E22.3411
G1 X43.227 Y25.320 E22.3877
G1 X38.703 Y25.320 E23.0648
G1 X38.483 Y25.100 E23.1114
G1 X-0.003 Y25.100 E28.8716
G1 X-0.223 Y25.320 E28.9182
G1 X-4.777 Y25.320 E29.5997
G1 X-4.997 Y25.100 E29.6463
G1 X-39.503 Y25.100 E34.8109
G1 X-39.723 Y25.320 E34.8574
G1 X-44.277 Y25.320 E35.5390
G1 X-44.497 Y25.100 E35.5856
G1 X-46.577 Y25.100 E35.8969
G1 X-48.100 Y23.577 E36.2193
G1 X-48.100 Y1.423 E39.5351
G1 X-46.677 Y0.000 E39.8363
G1 X-48.100 Y-1.423 E40.1375
G1 X-48.100 Y-3.877 E40.5048
G1 X-46.820 Y-5.157 E40.7757
G1 X-46.820 Y-23.797 E43.5656
G92 E0.0000
G1 E-1.0000 F1800
G1 X-28.850 Y8.150 F4800
G1 E0.0000 F1800
G92 E0.0000
G1 X-28.850 Y16.850 E1.3021 F750
G1 X-18.820 Y16.850 E2.8033
G1 X-18.820 Y8.150 E4.1055
G1 X-28.850 Y8.150 E5.6067
G92 E0.0000
G1 E-1.0000 F1800
G1 X-9.180 Y8.150 F4800
G1 E0.0000 F1800
G92 E0.0000
G1 X-9.180 Y16.850 E1.3021 F750
G1 X-6.467 Y16.850 E1.7082
G1 X-5.297 Y15.680 E1.9558
G1 X1.180 Y15.680 E2.9253
G1 X1.180 Y9.320 E3.8772
G1 X-5.297 Y9.320 E4.8466
G1 X-6.467 Y8.150 E5.0942
G1 X-9.180 Y8.150 E5.5003
G92 E0.0000
G1 E-1.0000 F1800
G1 X10.820 Y8.150 F4800
G1 E0.0000 F1800
G92 E0.0000
G1 X10.820 Y16.850 E1.3021 F750
G1 X21.180 Y16.850 E2.8527
G1 X21.180 Y8.150 E4.1549
G1 X10.820 Y8.150 E5.7054
G92 E0.0000
G1 E-1.0000 F1800
G1 X30.820 Y8.150 F4800
G1 E0.0000 F1800
G92 E0.0000
G1 X30.820 Y16.850 E1.3021 F750
G1 X37.533 Y16.850 E2.3069
G1 X38.703 Y15.680 E2.5545
G1 X39.850 Y15.680 E2.7262
G1 X39.850 Y9.320 E3.6781
G1 X38.703 Y9.320 E3.8498
G1 X37.533 Y8.150 E4.0974
G1 X30.820 Y8.150 E5.1022
G92 E0.0000
G1 E-1.0000 F1800
G1 X21.860 Y9.143 F4800
G1 E0.0000 F1800
G92 E0.0000
G1 X30.140 Y9.143 E1.2393 F750
